%
(Fusion CAM 2.0.18961)
( Posts processor: MPCNC21.cps)
( Gcode generated: Sunday, April 28, 2024 9:25:06 PM GMT)
( Document: wireWiggler v198)
( Setup: boxRight)
(When using Fusion for Personal Use, the feedrate of rapid)
(moves is reduced to match the feedrate of cutting moves,)
(which can increase machining time. Unrestricted rapid moves)
(are available with a Fusion Subscription.)
( )
( Ranges Table:)
(   X: Min=4.412 Max=208.956 Size=204.544)
(   Y: Min=4.412 Max=234.74 Size=230.328)
(   Z: Min=-12.438 Max=3 Size=15.438)
( )
( Tools Table:)
(  T2 D=3.175 CR=0 - ZMIN=-12.438 - flat end mill )
( )
( Feedrate and Scaling Properties:)
(   Feed: Travel speed X/Y = 7500)
(   Feed: Travel Speed Z = 300)
(   Feed: Enforce Feedrate = true)
(   Feed: Scale Feedrate = false)
(   Feed: Max XY Cut Speed = 900)
(   Feed: Max Z Cut Speed = 180)
(   Feed: Max Toolpath Speed = 1000)
( )
( G1->G0 Mapping Properties:)
(   Map: First G1 -> G0 Rapid = true)
(   Map: G1s -> G0 Rapids = true)
(   Map: SafeZ Mode = Retract : default = 0)
(   Map: Allow Rapid Z = true)
( )
( *** START begin ***)
( --- Start custom gcode C:\Users\Kevin\Documents\Fusion 360\NC Programs\start.gcode)
% vfd enable
M6 T0
% LED ON
M62 P0
% spindle relays on
M62 P1
%( *** START end ***)
( )
( *** SECTION begin ***)
(   X Min: 28.051 - X Max: 208.956)
(   Y Min: 28.129 - Y Max: 234.74)
(   Z Min: -1 - Z Max: 3)
( SafeZ retract level: 3)
( glueLettersFront 4 - Milling - Tool: 2 -  flat end mill)
( COMMAND_START_SPINDLE)
( COMMAND_SPINDLE_CLOCKWISE)
( >>> Spindle Speed 18000)
M3 S18000
( COMMAND_COOLANT_ON)
( >>> WARNING: No matching Coolant channel : Flood requested)
( MOVEMENT_PLUNGE)
( First G1 --> G0)
G0 Z3 F300
X196.303 Y132.24 F7500
G1 Z0.635 F339
Z-1 F339
( MOVEMENT_FINISH_CUTTING)
G17 G2 X196.296 Y132.396 I1.58 J0.156 F3048
G1 Y132.674 F3048
G2 X196.3 Y132.789 I1.587 F3048
G1 X196.33 Y133.203 F3048
G2 X196.336 Y133.272 I1.583 J-0.115 F3048
G1 X196.36 Y133.478 F3048
G2 X196.37 Y133.548 I1.577 J-0.184 F3048
G1 X196.403 Y133.752 F3048
G2 X196.427 Y133.869 I1.567 J-0.254 F3048
G1 X196.524 Y134.272 F3048
G2 X196.548 Y134.363 I1.543 J-0.371 F3048
G1 X196.669 Y134.761 F3048
G2 X196.841 Y135.139 I1.519 J-0.462 F3048
G1 X197.212 Y135.734 F3048
G2 X197.235 Y135.769 I1.347 J-0.84 F3048
G1 X197.426 Y136.058 F3048
G2 X197.458 Y136.105 I1.324 J-0.875 F3048
G1 X197.657 Y136.384 F3048
G2 X197.704 Y136.447 I1.292 J-0.922 F3048
G1 X197.912 Y136.71 F3048
G2 X197.974 Y136.783 I1.245 J-0.985 F3048
G1 X198.194 Y137.029 F3048
G2 X198.277 Y137.115 I1.183 J-1.058 F3048
G1 X198.511 Y137.34 F3048
G2 X198.625 Y137.44 I1.1 J-1.144 F3048
G1 X198.876 Y137.639 F3048
G2 X199.013 Y137.736 I0.986 J-1.244 F3048
G1 X199.283 Y137.907 F3048
G2 X199.432 Y137.991 I0.849 J-1.341 F3048
G1 X199.721 Y138.133 F3048
G2 X199.842 Y138.186 I0.7 J-1.425 F3048
G1 X200.146 Y138.305 F3048
G2 X200.253 Y138.343 I0.579 J-1.478 F3048
G1 X200.571 Y138.442 F3048
G2 X200.655 Y138.465 I0.472 J-1.516 F3048
G1 X200.984 Y138.548 F3048
G2 X201.048 Y138.563 I0.388 J-1.539 F3048
G1 X201.384 Y138.633 F3048
G2 X201.43 Y138.642 I0.324 J-1.554 F3048
G1 X202.117 Y138.764 F3048
G2 X202.395 Y138.788 I0.278 J-1.563 F3048
G1 X208.956 F3048
Y138.947 F3048
X202.229 F3048
X201.642 Y138.865 F3048
X200.994 Y138.75 F3048
X200.718 Y138.687 F3048
X200.453 Y138.613 F3048
X200.207 Y138.529 F3048
X199.974 Y138.433 F3048
X199.742 Y138.32 F3048
X199.502 Y138.184 F3048
X199.256 Y138.03 F3048
X199.012 Y137.864 F3048
X198.474 Y137.463 F3048
X198.051 Y137.127 F3048
X197.695 Y136.692 F3048
X197.273 Y136.142 F3048
X197.096 Y135.89 F3048
X196.934 Y135.639 F3048
X196.793 Y135.394 F3048
X196.671 Y135.153 F3048
X196.569 Y134.915 F3048
X196.481 Y134.663 F3048
X196.402 Y134.389 F3048
X196.333 Y134.096 F3048
X196.27 Y133.78 F3048
X196.214 Y133.449 F3048
X196.124 Y132.836 F3048
Y132.225 F3048
X196.199 Y131.673 F3048
X196.302 Y131.059 F3048
X196.359 Y130.798 F3048
X196.426 Y130.545 F3048
X196.5 Y130.312 F3048
X196.587 Y130.09 F3048
X196.691 Y129.864 F3048
X196.811 Y129.635 F3048
X196.948 Y129.399 F3048
X197.099 Y129.162 F3048
X197.46 Y128.639 F3048
X197.754 Y128.238 F3048
X198.213 Y127.834 F3048
X198.49 Y127.6 F3048
X198.763 Y127.381 F3048
X199.029 Y127.181 F3048
X199.289 Y127.003 F3048
X199.541 Y126.848 F3048
X199.788 Y126.717 F3048
X200.038 Y126.605 F3048
X200.302 Y126.509 F3048
X200.589 Y126.424 F3048
X200.9 Y126.348 F3048
X201.233 Y126.28 F3048
X201.582 Y126.219 F3048
X202.235 Y126.122 F3048
X208.956 F3048
Y126.282 F3048
X202.395 F3048
G2 X202.263 Y126.287 J1.588 F3048
G1 X201.736 Y126.331 F3048
G2 X201.638 Y126.342 I0.132 J1.582 F3048
G1 X201.379 Y126.38 F3048
G2 X201.274 Y126.399 I0.23 J1.571 F3048
G1 X201.019 Y126.454 F3048
G2 X200.879 Y126.491 I0.335 J1.552 F3048
G1 X200.63 Y126.569 F3048
G2 X200.529 Y126.605 I0.475 J1.515 F3048
G1 X200.285 Y126.7 F3048
G2 X200.203 Y126.734 I0.576 J1.479 F3048
G1 X199.722 Y126.953 F3048
G2 X199.445 Y127.115 I0.658 J1.445 F3048
G1 X198.929 Y127.491 F3048
G2 X198.896 Y127.516 I0.935 J1.283 F3048
G1 X198.645 Y127.709 F3048
G2 X198.603 Y127.742 I0.968 J1.258 F3048
G1 X198.363 Y127.94 F3048
G2 X198.308 Y127.987 I1.01 J1.225 F3048
G1 X198.079 Y128.194 F3048
G2 X198.014 Y128.257 I1.065 J1.178 F3048
G1 X197.802 Y128.472 F3048
G2 X197.72 Y128.561 I1.13 J1.115 F3048
G1 X197.527 Y128.789 F3048
G2 X197.449 Y128.89 I1.212 J1.026 F3048
G1 X197.277 Y129.13 F3048
G2 X197.188 Y129.269 I1.29 J0.925 F3048
G1 X197.042 Y129.525 F3048
G2 X196.973 Y129.659 I1.379 J0.786 F3048
G1 X196.851 Y129.93 F3048
G2 X196.804 Y130.048 I1.448 J0.652 F3048
G1 X196.703 Y130.331 F3048
G2 X196.672 Y130.428 I1.495 J0.534 F3048
G1 X196.588 Y130.721 F3048
G2 X196.568 Y130.8 I1.526 J0.438 F3048
G1 X196.497 Y131.102 F3048
G2 X196.486 Y131.157 I1.547 J0.358 F3048
G1 X196.426 Y131.466 F3048
G2 X196.417 Y131.517 I1.558 J0.303 F3048
G1 X196.316 Y132.144 F3048
G2 X196.303 Y132.24 I1.567 J0.252 F3048
( MOVEMENT_CUTTING)
( Safe G1 --> G0)
G0 Z3 F300
( Safe G1 --> G0)
X150.768 Y222.081 F7500
( MOVEMENT_PLUNGE)
G1 Z0.635 F339
Z-1 F339
( MOVEMENT_FINISH_CUTTING)
X150.242 Y222.125 F3048
G2 X150.15 Y222.135 I0.132 J1.582 F3048
G1 X149.89 Y222.172 F3048
G2 X149.772 Y222.194 I0.224 J1.572 F3048
G1 X149.518 Y222.25 F3048
G2 X149.391 Y222.283 I0.342 J1.55 F3048
G1 X149.142 Y222.36 F3048
G2 X149.037 Y222.397 I0.469 J1.517 F3048
G1 X148.792 Y222.492 F3048
G2 X148.708 Y222.527 I0.574 J1.48 F3048
G1 X148.227 Y222.746 F3048
G2 X147.95 Y222.908 I0.658 J1.445 F3048
G1 X147.434 Y223.284 F3048
G2 X147.399 Y223.31 I0.935 J1.283 F3048
G1 X147.149 Y223.503 F3048
G2 X147.108 Y223.536 I0.97 J1.257 F3048
G1 X146.867 Y223.735 F3048
G2 X146.814 Y223.781 I1.011 J1.224 F3048
G1 X146.586 Y223.987 F3048
G2 X146.517 Y224.053 I1.064 J1.178 F3048
G1 X146.305 Y224.269 F3048
G2 X146.231 Y224.35 I1.133 J1.112 F3048
G1 X146.037 Y224.577 F3048
G2 X145.949 Y224.689 I1.207 J1.031 F3048
G1 X145.778 Y224.93 F3048
G2 X145.698 Y225.056 I1.295 J0.919 F3048
G1 X145.551 Y225.311 F3048
G2 X145.478 Y225.452 I1.375 J0.793 F3048
G1 X145.356 Y225.723 F3048
G2 X145.309 Y225.841 I1.448 J0.652 F3048
G1 X145.208 Y226.124 F3048
G2 X145.177 Y226.222 I1.495 J0.534 F3048
G1 X145.093 Y226.516 F3048
G2 X145.072 Y226.594 I1.526 J0.436 F3048
G1 X145.003 Y226.896 F3048
G2 X144.99 Y226.955 I1.546 J0.358 F3048
G1 X144.931 Y227.263 F3048
G2 X144.923 Y227.307 I1.559 J0.299 F3048
G1 X144.821 Y227.934 F3048
G2 X144.801 Y228.189 I1.567 J0.255 F3048
G1 Y228.467 F3048
G2 X144.805 Y228.585 I1.587 F3048
G1 X144.836 Y229 F3048
G2 X144.841 Y229.059 I1.583 J-0.118 F3048
G1 X144.864 Y229.264 F3048
G2 X144.875 Y229.34 I1.578 J-0.177 F3048
G1 X144.908 Y229.545 F3048
G2 X144.932 Y229.666 I1.567 J-0.254 F3048
G1 X145.03 Y230.069 F3048
G2 X145.053 Y230.152 I1.543 J-0.375 F3048
G1 X145.173 Y230.55 F3048
G2 X145.345 Y230.931 I1.52 J-0.458 F3048
G1 X145.716 Y231.527 F3048
G2 X145.742 Y231.566 I1.348 J-0.839 F3048
G1 X145.934 Y231.855 F3048
G2 X145.963 Y231.898 I1.322 J-0.878 F3048
G1 X146.161 Y232.176 F3048
G2 X146.207 Y232.237 I1.293 J-0.921 F3048
G1 X146.415 Y232.501 F3048
G2 X146.483 Y232.582 I1.247 J-0.982 F3048
G1 X146.704 Y232.827 F3048
G2 X146.783 Y232.908 I1.179 J-1.063 F3048
G1 X147.017 Y233.133 F3048
G2 X147.131 Y233.233 I1.1 J-1.144 F3048
G1 X147.382 Y233.432 F3048
G2 X147.519 Y233.529 I0.986 J-1.244 F3048
G1 X147.789 Y233.7 F3048
G2 X147.932 Y233.781 I0.849 J-1.341 F3048
G1 X148.22 Y233.924 F3048
G2 X148.349 Y233.981 I0.706 J-1.422 F3048
G1 X148.654 Y234.1 F3048
G2 X148.763 Y234.138 I0.577 J-1.479 F3048
G1 X149.081 Y234.236 F3048
G2 X149.16 Y234.258 I0.468 J-1.517 F3048
G1 X149.488 Y234.341 F3048
G2 X149.55 Y234.355 I0.389 J-1.539 F3048
G1 X149.887 Y234.426 F3048
G2 X149.938 Y234.436 I0.327 J-1.553 F3048
G1 X150.624 Y234.557 F3048
G2 X150.9 Y234.581 I0.276 J-1.563 F3048
G1 X157.462 F3048
Y234.74 F3048
X150.734 F3048
X150.148 Y234.658 F3048
X149.5 Y234.543 F3048
X149.221 Y234.479 F3048
X148.957 Y234.406 F3048
X148.714 Y234.324 F3048
X148.48 Y234.227 F3048
X148.247 Y234.112 F3048
X148.009 Y233.979 F3048
X147.763 Y233.824 F3048
X147.518 Y233.657 F3048
X146.979 Y233.255 F3048
X146.556 Y232.92 F3048
X146.201 Y232.485 F3048
X145.778 Y231.935 F3048
X145.602 Y231.684 F3048
X145.44 Y231.432 F3048
X145.297 Y231.186 F3048
X145.177 Y230.948 F3048
X145.075 Y230.708 F3048
X144.986 Y230.457 F3048
X144.908 Y230.184 F3048
X144.838 Y229.887 F3048
X144.776 Y229.573 F3048
X144.72 Y229.243 F3048
X144.63 Y228.628 F3048
Y228.018 F3048
X144.704 Y227.466 F3048
X144.807 Y226.854 F3048
X144.864 Y226.591 F3048
X144.93 Y226.34 F3048
X145.006 Y226.106 F3048
X145.093 Y225.88 F3048
X145.195 Y225.659 F3048
X145.315 Y225.429 F3048
X145.455 Y225.19 F3048
X145.605 Y224.954 F3048
X145.964 Y224.433 F3048
X146.259 Y224.031 F3048
X146.718 Y223.627 F3048
X146.994 Y223.394 F3048
X147.268 Y223.175 F3048
X147.535 Y222.975 F3048
X147.795 Y222.796 F3048
X148.047 Y222.642 F3048
X148.296 Y222.509 F3048
X148.544 Y222.398 F3048
X148.808 Y222.302 F3048
X149.093 Y222.217 F3048
X149.406 Y222.141 F3048
X149.738 Y222.073 F3048
X150.086 Y222.013 F3048
X150.741 Y221.915 F3048
X157.462 F3048
Y222.076 F3048
X150.9 F3048
G2 X150.768 Y222.081 J1.587 F3048
( MOVEMENT_CUTTING)
( Safe G1 --> G0)
G0 Z3 F300
( Safe G1 --> G0)
X31.159 Y137.938 F7500
( MOVEMENT_PLUNGE)
G1 Z0.635 F339
Z-1 F339
( MOVEMENT_FINISH_CUTTING)
X40.883 F3048
Y138.096 F3048
X31.155 F3048
X30.872 Y138.072 F3048
X30.595 Y138.032 F3048
X30.311 Y137.964 F3048
X30.174 Y137.926 F3048
X29.763 Y137.671 F3048
X29.504 Y137.5 F3048
X29.265 Y137.331 F3048
X29.057 Y137.169 F3048
X28.881 Y137.013 F3048
X28.736 Y136.865 F3048
X28.622 Y136.726 F3048
X28.531 Y136.587 F3048
X28.448 Y136.426 F3048
X28.368 Y136.23 F3048
X28.291 Y135.997 F3048
X28.22 Y135.732 F3048
X28.154 Y135.441 F3048
X28.051 Y134.907 F3048
Y134.735 F3048
X28.086 Y134.442 F3048
X28.136 Y134.118 F3048
X28.2 Y133.839 F3048
X28.225 Y133.757 F3048
X28.259 Y133.67 F3048
X28.301 Y133.582 F3048
X28.346 Y133.499 F3048
X28.507 Y133.25 F3048
X28.708 Y132.981 F3048
X28.951 Y132.676 F3048
G2 X28.96 Y130.705 I-1.24 J-0.991 F3048
G1 X28.71 Y130.386 F3048
X28.506 Y130.109 F3048
X28.344 Y129.853 F3048
X28.298 Y129.766 F3048
X28.256 Y129.675 F3048
X28.222 Y129.582 F3048
X28.195 Y129.493 F3048
X28.132 Y129.201 F3048
X28.085 Y128.865 F3048
X28.051 Y128.55 F3048
Y128.413 F3048
X28.073 Y128.104 F3048
X28.112 Y127.82 F3048
X28.18 Y127.533 F3048
X28.225 Y127.378 F3048
X28.486 Y126.955 F3048
X28.657 Y126.695 F3048
X28.825 Y126.457 F3048
X28.987 Y126.25 F3048
X29.142 Y126.074 F3048
X29.286 Y125.935 F3048
X29.424 Y125.825 F3048
X29.564 Y125.735 F3048
X29.726 Y125.654 F3048
X29.925 Y125.575 F3048
X30.16 Y125.502 F3048
X30.43 Y125.433 F3048
X30.725 Y125.37 F3048
X31.275 Y125.271 F3048
X40.883 F3048
Y125.43 F3048
X31.029 F3048
G2 X30.453 Y125.539 J1.588 F3048
G1 X30.219 Y125.63 F3048
G2 X30.159 Y125.654 I0.576 J1.479 F3048
G1 X29.935 Y125.752 F3048
G2 X29.789 Y125.825 I0.636 J1.455 F3048
G1 X29.584 Y125.941 F3048
G2 X29.432 Y126.039 I0.782 J1.382 F3048
G1 X29.34 Y126.106 F3048
G2 X29.231 Y126.193 I0.933 J1.284 F3048
G1 X29.147 Y126.266 F3048
G2 X29.006 Y126.405 I1.043 J1.197 F3048
G1 X28.932 Y126.488 F3048
G2 X28.816 Y126.635 I1.184 J1.058 F3048
G1 X28.752 Y126.726 F3048
G2 X28.661 Y126.871 I1.3 J0.911 F3048
G1 X28.607 Y126.97 F3048
G2 X28.545 Y127.095 I1.391 J0.766 F3048
G1 X28.498 Y127.201 F3048
G2 X28.446 Y127.336 I1.452 J0.641 F3048
G1 X28.369 Y127.563 F3048
G2 X28.341 Y127.657 I1.505 J0.506 F3048
G1 X28.277 Y127.895 F3048
G2 X28.222 Y128.307 I1.533 J0.412 F3048
G1 Y128.584 F3048
G2 X28.226 Y128.686 I1.587 F3048
G1 X28.239 Y128.899 F3048
G2 X28.281 Y129.169 I1.584 J-0.102 F3048
G1 X28.306 Y129.273 F3048
G2 X28.35 Y129.423 I1.543 J-0.372 F3048
G1 X28.385 Y129.524 F3048
G2 X28.513 Y129.802 I1.499 J-0.522 F3048
G1 X28.648 Y130.033 F3048
G2 X28.697 Y130.112 I1.371 J-0.8 F3048
G1 X28.841 Y130.328 F3048
G2 X28.916 Y130.431 I1.322 J-0.879 F3048
G1 X28.994 Y130.53 F3048
G2 X29.077 Y130.628 I1.247 J-0.982 F3048
G1 X29.161 Y130.718 F3048
G2 X29.272 Y130.827 I1.163 J-1.08 F3048
G1 X29.362 Y130.907 F3048
G2 X29.511 Y131.023 I1.052 J-1.189 F3048
G1 X29.609 Y131.091 F3048
G2 X29.782 Y131.195 I0.904 J-1.305 F3048
G1 X29.888 Y131.25 F3048
G2 X30.033 Y131.316 I0.731 J-1.409 F3048
G1 X30.146 Y131.361 F3048
G2 X30.341 Y131.424 I0.586 J-1.475 F3048
G1 X30.584 Y131.486 F3048
G2 X30.746 Y131.519 I0.392 J-1.538 F3048
G1 X31.006 Y131.557 F3048
G2 X31.088 Y131.567 I0.23 J-1.571 F3048
G1 X31.356 Y131.592 F3048
G2 X31.503 Y131.598 I0.148 J-1.581 F3048
G1 X35.939 F3048
Y131.758 F3048
X31.327 F3048
G2 X30.979 Y131.796 J1.587 F3048
G1 X30.677 Y131.864 F3048
G2 X30.596 Y131.884 I0.348 J1.549 F3048
G1 X30.307 Y131.965 F3048
G2 X30.185 Y132.005 I0.428 J1.529 F3048
G1 X30.05 Y132.055 F3048
G2 X29.939 Y132.101 I0.551 J1.489 F3048
G1 X29.812 Y132.159 F3048
G2 X29.664 Y132.236 I0.662 J1.443 F3048
G1 X29.548 Y132.305 F3048
G2 X29.391 Y132.411 I0.81 J1.366 F3048
G1 X29.287 Y132.491 F3048
G2 X29.117 Y132.642 I0.966 J1.26 F3048
G1 X29.027 Y132.735 F3048
G2 X28.868 Y132.925 I1.136 J1.109 F3048
G1 X28.791 Y133.033 F3048
G2 X28.69 Y133.196 I1.294 J0.919 F3048
G1 X28.626 Y133.315 F3048
G2 X28.557 Y133.458 I1.396 J0.756 F3048
G1 X28.502 Y133.588 F3048
G2 X28.45 Y133.732 I1.464 J0.613 F3048
G1 X28.364 Y134.012 F3048
G2 X28.335 Y134.115 I1.517 J0.469 F3048
G1 X28.265 Y134.412 F3048
G2 X28.222 Y134.778 I1.545 J0.366 F3048
G1 Y135.117 F3048
G2 X28.326 Y135.681 I1.587 F3048
G1 X28.415 Y135.915 F3048
G2 X28.441 Y135.979 I1.484 J-0.564 F3048
G1 X28.538 Y136.205 F3048
G2 X28.607 Y136.345 I1.458 J-0.628 F3048
G1 X28.721 Y136.551 F3048
G2 X28.814 Y136.7 I1.389 J-0.768 F3048
G1 X28.88 Y136.793 F3048
G2 X28.978 Y136.918 I1.296 J-0.917 F3048
G1 X29.052 Y137.002 F3048
G2 X29.165 Y137.12 I1.198 J-1.042 F3048
G1 X29.246 Y137.196 F3048
G2 X29.404 Y137.325 I1.084 J-1.16 F3048
G1 X29.495 Y137.39 F3048
G2 X29.647 Y137.487 I0.926 J-1.289 F3048
G1 X29.745 Y137.542 F3048
G2 X29.862 Y137.601 I0.774 J-1.386 F3048
G1 X29.967 Y137.649 F3048
G2 X30.101 Y137.702 I0.657 J-1.445 F3048
G1 X30.326 Y137.781 F3048
G2 X30.419 Y137.811 I0.524 J-1.498 F3048
G1 X30.655 Y137.878 F3048
G2 X31.087 Y137.938 I0.432 J-1.528 F3048
G1 X31.159 F3048
( MOVEMENT_CUTTING)
( Safe G1 --> G0)
G0 Z3 F300
( Safe G1 --> G0)
X110.947 Y40.954 F7500
( MOVEMENT_PLUNGE)
G1 Z0.635 F339
Z-1 F339
( MOVEMENT_FINISH_CUTTING)
X110.577 F3048
Y28.129 F3048
X117.295 F3048
X117.884 Y28.212 F3048
X118.533 Y28.326 F3048
X118.81 Y28.389 F3048
X119.076 Y28.463 F3048
X119.323 Y28.547 F3048
X119.555 Y28.642 F3048
X119.788 Y28.757 F3048
X120.028 Y28.891 F3048
X120.274 Y29.045 F3048
X120.52 Y29.213 F3048
X121.059 Y29.614 F3048
X121.483 Y29.95 F3048
X121.84 Y30.386 F3048
X122.263 Y30.936 F3048
X122.439 Y31.186 F3048
X122.601 Y31.438 F3048
X122.744 Y31.684 F3048
X122.865 Y31.923 F3048
X122.967 Y32.162 F3048
X123.056 Y32.415 F3048
X123.135 Y32.687 F3048
X123.205 Y32.982 F3048
X123.268 Y33.298 F3048
X123.324 Y33.628 F3048
X123.414 Y34.242 F3048
Y34.85 F3048
X123.34 Y35.4 F3048
X123.235 Y36.013 F3048
X123.178 Y36.275 F3048
X123.112 Y36.526 F3048
X123.037 Y36.758 F3048
X122.949 Y36.982 F3048
X122.847 Y37.206 F3048
X122.726 Y37.435 F3048
X122.588 Y37.671 F3048
X122.437 Y37.908 F3048
X122.077 Y38.429 F3048
X121.782 Y38.83 F3048
X121.319 Y39.236 F3048
X121.042 Y39.471 F3048
X120.77 Y39.69 F3048
X120.502 Y39.89 F3048
X120.242 Y40.069 F3048
X119.987 Y40.225 F3048
X119.74 Y40.358 F3048
X119.491 Y40.469 F3048
X119.226 Y40.565 F3048
X118.938 Y40.651 F3048
X118.627 Y40.727 F3048
X118.293 Y40.795 F3048
X117.944 Y40.856 F3048
X117.289 Y40.954 F3048
X110.947 F3048
( MOVEMENT_CUTTING)
( Safe G1 --> G0)
G0 Z3 F300
( Safe G1 --> G0)
X111.209 Y40.325 F7500
( MOVEMENT_PLUNGE)
G1 Z0.635 F339
Z-1 F339
( MOVEMENT_FINISH_CUTTING)
G2 X112.336 Y40.795 I1.127 J-1.118 F3048
G1 X117.129 F3048
G2 X117.249 Y40.79 J-1.588 F3048
G1 X117.662 Y40.759 F3048
G2 X117.725 Y40.753 I-0.12 J-1.583 F3048
G1 X117.931 Y40.729 F3048
G2 X118.009 Y40.718 I-0.183 J-1.577 F3048
G1 X118.212 Y40.684 F3048
G2 X118.328 Y40.66 I-0.261 J-1.566 F3048
G1 X118.73 Y40.562 F3048
G2 X118.816 Y40.538 I-0.377 J-1.542 F3048
G1 X119.213 Y40.417 F3048
G2 X119.591 Y40.245 I-0.463 J-1.519 F3048
G1 X120.187 Y39.873 F3048
G2 X120.223 Y39.85 I-0.841 J-1.347 F3048
G1 X120.513 Y39.658 F3048
G2 X120.558 Y39.627 I-0.877 J-1.323 F3048
G1 X120.837 Y39.427 F3048
G2 X120.9 Y39.381 I-0.922 J-1.292 F3048
G1 X121.164 Y39.172 F3048
G2 X121.239 Y39.108 I-0.985 J-1.245 F3048
G1 X121.485 Y38.888 F3048
G2 X121.572 Y38.804 I-1.06 J-1.182 F3048
G1 X121.797 Y38.569 F3048
G2 X121.895 Y38.455 I-1.147 J-1.098 F3048
G1 X122.094 Y38.204 F3048
G2 X122.191 Y38.067 I-1.245 J-0.985 F3048
G1 X122.362 Y37.796 F3048
G2 X122.443 Y37.652 I-1.342 J-0.848 F3048
G1 X122.586 Y37.362 F3048
G2 X122.642 Y37.236 I-1.423 J-0.703 F3048
G1 X122.761 Y36.93 F3048
G2 X122.798 Y36.825 I-1.479 J-0.577 F3048
G1 X122.897 Y36.506 F3048
G2 X122.92 Y36.423 I-1.516 J-0.471 F3048
G1 X123.003 Y36.094 F3048
G2 X123.017 Y36.033 I-1.539 J-0.388 F3048
G1 X123.088 Y35.695 F3048
G2 X123.099 Y35.643 I-1.553 J-0.327 F3048
G1 X123.22 Y34.955 F3048
G2 X123.243 Y34.68 I-1.564 J-0.275 F3048
G1 Y34.403 F3048
G2 X123.239 Y34.284 I-1.588 F3048
G1 X123.208 Y33.87 F3048
G2 X123.202 Y33.804 I-1.583 J0.118 F3048
G1 X123.178 Y33.598 F3048
G2 X123.167 Y33.521 I-1.577 J0.184 F3048
G1 X123.133 Y33.317 F3048
G2 X123.109 Y33.203 I-1.566 J0.261 F3048
G1 X123.011 Y32.8 F3048
G2 X122.987 Y32.711 I-1.542 J0.376 F3048
G1 X122.865 Y32.313 F3048
G2 X122.694 Y31.938 I-1.518 J0.465 F3048
G1 X122.322 Y31.342 F3048
G2 X122.298 Y31.304 I-1.347 J0.84 F3048
G1 X122.106 Y31.015 F3048
G2 X122.074 Y30.969 I-1.323 J0.878 F3048
G1 X121.875 Y30.691 F3048
G2 X121.829 Y30.629 I-1.291 J0.923 F3048
G1 X121.62 Y30.365 F3048
G2 X121.556 Y30.289 I-1.245 J0.985 F3048
G1 X121.335 Y30.043 F3048
G2 X121.251 Y29.956 I-1.181 J1.061 F3048
G1 X121.016 Y29.732 F3048
G2 X120.904 Y29.634 I-1.097 J1.148 F3048
G1 X120.652 Y29.435 F3048
G2 X120.515 Y29.338 I-0.985 J1.245 F3048
G1 X120.245 Y29.168 F3048
G2 X120.098 Y29.085 I-0.848 J1.342 F3048
G1 X119.808 Y28.943 F3048
G2 X119.682 Y28.887 I-0.701 J1.424 F3048
G1 X119.377 Y28.769 F3048
G2 X119.271 Y28.731 I-0.575 J1.48 F3048
G1 X118.952 Y28.633 F3048
G2 X118.869 Y28.61 I-0.469 J1.517 F3048
G1 X118.54 Y28.527 F3048
G2 X118.479 Y28.513 I-0.386 J1.54 F3048
G1 X118.142 Y28.443 F3048
G2 X118.092 Y28.433 I-0.325 J1.554 F3048
G1 X117.404 Y28.312 F3048
G2 X117.129 Y28.288 I-0.275 J1.564 F3048
G1 X112.336 F3048
G2 X110.748 Y29.876 J1.587 F3048
G1 Y39.207 F3048
G2 X111.209 Y40.325 I1.588 F3048
( MOVEMENT_CUTTING)
( Safe G1 --> G0)
G0 Z3 F300
( *** SECTION end ***)
()
(When using Fusion for Personal Use, the feedrate of rapid)
(moves is reduced to match the feedrate of cutting moves,)
(which can increase machining time. Unrestricted rapid moves)
(are available with a Fusion Subscription.)
( *** SECTION begin ***)
(   X Min: 113.735 - X Max: 190.504)
(   Y Min: 159.733 - Y Max: 236.515)
(   Z Min: -12.438 - Z Max: 15)
( SafeZ retract level: 5)
( boxRightAdaptive - Milling - Tool: 2 -  flat end mill)
( COMMAND_START_SPINDLE)
( COMMAND_SPINDLE_CLOCKWISE)
( COMMAND_COOLANT_ON)
( >>> WARNING: No matching Coolant channel : Flood requested)
( First G1 --> G0)
Z15 F300
X116.427 Y161.825 F7500
( Safe G1 --> G0)
Z5 F300
G1 Z2.5 F3048
( MOVEMENT_RAMP_HELIX)
X116.526 Y161.773 Z2.496 F3048
X116.629 Y161.728 Z2.492 F3048
X116.735 Y161.691 Z2.488 F3048
X116.843 Y161.661 Z2.484 F3048
X116.953 Y161.639 Z2.48 F3048
X117.064 Y161.625 Z2.476 F3048
X117.176 Y161.619 Z2.473 F3048
X117.288 Y161.62 Z2.469 F3048
X117.4 Y161.63 Z2.465 F3048
X117.511 Y161.647 Z2.461 F3048
X117.62 Y161.673 Z2.457 F3048
X117.727 Y161.706 Z2.453 F3048
X117.832 Y161.746 Z2.449 F3048
X117.933 Y161.794 Z2.445 F3048
X118.031 Y161.849 Z2.441 F3048
X118.125 Y161.91 Z2.437 F3048
X118.214 Y161.979 Z2.433 F3048
X118.298 Y162.053 Z2.429 F3048
X118.376 Y162.133 Z2.426 F3048
X118.449 Y162.219 Z2.422 F3048
X118.515 Y162.309 Z2.418 F3048
X118.575 Y162.404 Z2.414 F3048
X118.628 Y162.503 Z2.41 F3048
X118.674 Y162.605 Z2.406 F3048
X118.712 Y162.71 Z2.402 F3048
X118.743 Y162.818 Z2.398 F3048
X118.766 Y162.928 Z2.394 F3048
X118.782 Y163.039 Z2.39 F3048
X118.789 Y163.151 Z2.386 F3048
Y163.263 Z2.382 F3048
X118.78 Y163.375 Z2.379 F3048
X118.764 Y163.485 Z2.375 F3048
X118.739 Y163.595 Z2.371 F3048
X118.708 Y163.702 Z2.367 F3048
X118.668 Y163.807 Z2.363 F3048
X118.621 Y163.909 Z2.359 F3048
X118.568 Y164.007 Z2.355 F3048
X118.507 Y164.101 Z2.351 F3048
X118.44 Y164.191 Z2.347 F3048
X118.366 Y164.275 Z2.343 F3048
X118.287 Y164.355 Z2.339 F3048
X118.202 Y164.428 Z2.335 F3048
X118.113 Y164.495 Z2.332 F3048
X118.019 Y164.556 Z2.328 F3048
X117.92 Y164.61 Z2.324 F3048
X117.818 Y164.657 Z2.32 F3048
X117.714 Y164.696 Z2.316 F3048
X117.606 Y164.728 Z2.312 F3048
X117.497 Y164.752 Z2.308 F3048
X117.386 Y164.768 Z2.304 F3048
X117.274 Y164.777 Z2.3 F3048
X117.162 Z2.296 F3048
X117.051 Y164.77 Z2.292 F3048
X116.94 Y164.755 Z2.288 F3048
X116.83 Y164.732 Z2.285 F3048
X116.722 Y164.701 Z2.281 F3048
X116.617 Y164.662 Z2.277 F3048
X116.515 Y164.617 Z2.273 F3048
X116.416 Y164.564 Z2.269 F3048
X116.322 Y164.504 Z2.265 F3048
X116.232 Y164.438 Z2.261 F3048
X116.146 Y164.365 Z2.257 F3048
X116.067 Y164.287 Z2.253 F3048
X115.992 Y164.203 Z2.249 F3048
X115.924 Y164.114 Z2.245 F3048
X115.863 Y164.021 Z2.241 F3048
X115.808 Y163.923 Z2.238 F3048
X115.76 Y163.822 Z2.234 F3048
X115.72 Y163.718 Z2.23 F3048
X115.687 Y163.611 Z2.226 F3048
X115.662 Y163.502 Z2.222 F3048
X115.645 Y163.391 Z2.218 F3048
X115.635 Y163.28 Z2.214 F3048
X115.633 Y163.168 Z2.21 F3048
X115.64 Y163.056 Z2.206 F3048
X115.654 Y162.945 Z2.202 F3048
X115.676 Y162.835 Z2.198 F3048
X115.706 Y162.728 Z2.194 F3048
X115.743 Y162.622 Z2.191 F3048
X115.788 Y162.519 Z2.187 F3048
X115.84 Y162.42 Z2.183 F3048
X115.898 Y162.325 Z2.179 F3048
X115.964 Y162.234 Z2.175 F3048
X116.036 Y162.148 Z2.171 F3048
X116.113 Y162.068 Z2.167 F3048
X116.196 Y161.993 Z2.163 F3048
X116.284 Y161.924 Z2.159 F3048
X116.377 Y161.862 Z2.155 F3048
X116.474 Y161.806 Z2.151 F3048
X116.574 Y161.758 Z2.147 F3048
X116.678 Y161.716 Z2.144 F3048
X116.785 Y161.682 Z2.14 F3048
X116.893 Y161.656 Z2.136 F3048
X117.004 Y161.638 Z2.132 F3048
X117.115 Y161.627 Z2.128 F3048
X117.227 Y161.624 Z2.124 F3048
X117.338 Y161.63 Z2.12 F3048
X117.449 Y161.643 Z2.116 F3048
X117.559 Y161.664 Z2.112 F3048
X117.667 Y161.692 Z2.108 F3048
X117.773 Y161.729 Z2.104 F3048
X117.876 Y161.772 Z2.1 F3048
X117.975 Y161.823 Z2.096 F3048
X118.071 Y161.881 Z2.093 F3048
X118.162 Y161.945 Z2.089 F3048
X118.249 Y162.016 Z2.085 F3048
X118.33 Y162.093 Z2.081 F3048
X118.405 Y162.175 Z2.077 F3048
X118.475 Y162.263 Z2.073 F3048
X118.538 Y162.355 Z2.069 F3048
X118.595 Y162.451 Z2.065 F3048
X118.644 Y162.551 Z2.061 F3048
X118.687 Y162.655 Z2.057 F3048
X118.722 Y162.761 Z2.053 F3048
X118.749 Y162.869 Z2.049 F3048
X118.768 Y162.979 Z2.046 F3048
X118.78 Y163.09 Z2.042 F3048
X118.784 Y163.201 Z2.038 F3048
X118.78 Y163.313 Z2.034 F3048
X118.768 Y163.424 Z2.03 F3048
X118.748 Y163.534 Z2.026 F3048
X118.72 Y163.642 Z2.022 F3048
X118.685 Y163.748 Z2.018 F3048
X118.642 Y163.851 Z2.014 F3048
X118.593 Y163.951 Z2.01 F3048
X118.536 Y164.047 Z2.006 F3048
X118.472 Y164.139 Z2.002 F3048
X118.402 Y164.226 Z1.999 F3048
X118.327 Y164.308 Z1.995 F3048
X118.245 Y164.384 Z1.991 F3048
X118.159 Y164.454 Z1.987 F3048
X118.067 Y164.518 Z1.983 F3048
X117.971 Y164.576 Z1.979 F3048
X117.872 Y164.626 Z1.975 F3048
X117.769 Y164.67 Z1.971 F3048
X117.663 Y164.706 Z1.967 F3048
X117.555 Y164.734 Z1.963 F3048
X117.446 Y164.754 Z1.959 F3048
X117.335 Y164.767 Z1.955 F3048
X117.223 Y164.772 Z1.952 F3048
X117.112 Y164.769 Z1.948 F3048
X117.001 Y164.758 Z1.944 F3048
X116.891 Y164.739 Z1.94 F3048
X116.783 Y164.713 Z1.936 F3048
X116.677 Y164.679 Z1.932 F3048
X116.573 Y164.637 Z1.928 F3048
X116.473 Y164.588 Z1.924 F3048
X116.376 Y164.533 Z1.92 F3048
X116.284 Y164.47 Z1.916 F3048
X116.196 Y164.401 Z1.912 F3048
X116.114 Y164.326 Z1.908 F3048
X116.037 Y164.246 Z1.905 F3048
X115.966 Y164.16 Z1.901 F3048
X115.901 Y164.069 Z1.897 F3048
X115.843 Y163.974 Z1.893 F3048
X115.791 Y163.875 Z1.889 F3048
X115.747 Y163.773 Z1.885 F3048
X115.71 Y163.668 Z1.881 F3048
X115.681 Y163.56 Z1.877 F3048
X115.659 Y163.451 Z1.873 F3048
X115.645 Y163.34 Z1.869 F3048
X115.639 Y163.229 Z1.865 F3048
X115.641 Y163.117 Z1.861 F3048
X115.651 Y163.006 Z1.858 F3048
X115.669 Y162.896 Z1.854 F3048
X115.694 Y162.788 Z1.85 F3048
X115.727 Y162.681 Z1.846 F3048
X115.768 Y162.577 Z1.842 F3048
X115.816 Y162.477 Z1.838 F3048
X115.871 Y162.38 Z1.834 F3048
X115.932 Y162.287 Z1.83 F3048
X116 Y162.199 Z1.826 F3048
X116.074 Y162.116 Z1.822 F3048
X116.154 Y162.038 Z1.818 F3048
X116.239 Y161.966 Z1.814 F3048
X116.329 Y161.9 Z1.811 F3048
X116.423 Y161.841 Z1.807 F3048
X116.521 Y161.789 Z1.803 F3048
X116.623 Y161.744 Z1.799 F3048
X116.728 Y161.706 Z1.795 F3048
X116.835 Y161.676 Z1.791 F3048
X116.944 Y161.653 Z1.787 F3048
X117.054 Y161.638 Z1.783 F3048
X117.166 Y161.631 Z1.779 F3048
X117.277 Y161.632 Z1.775 F3048
X117.388 Y161.641 Z1.771 F3048
X117.498 Y161.657 Z1.767 F3048
X117.607 Y161.682 Z1.763 F3048
X117.713 Y161.714 Z1.76 F3048
X117.817 Y161.753 Z1.756 F3048
X117.918 Y161.8 Z1.752 F3048
X118.016 Y161.854 Z1.748 F3048
X118.109 Y161.914 Z1.744 F3048
X118.198 Y161.982 Z1.74 F3048
X118.282 Y162.055 Z1.736 F3048
X118.361 Y162.134 Z1.732 F3048
X118.433 Y162.218 Z1.728 F3048
X118.5 Y162.307 Z1.724 F3048
X118.56 Y162.401 Z1.72 F3048
X118.613 Y162.498 Z1.716 F3048
X118.659 Y162.6 Z1.713 F3048
X118.698 Y162.704 Z1.709 F3048
X118.729 Y162.811 Z1.705 F3048
X118.753 Y162.919 Z1.701 F3048
X118.769 Y163.029 Z1.697 F3048
X118.777 Y163.14 Z1.693 F3048
Y163.251 Z1.689 F3048
X118.769 Y163.362 Z1.685 F3048
X118.754 Y163.473 Z1.681 F3048
X118.73 Y163.581 Z1.677 F3048
X118.699 Y163.688 Z1.673 F3048
X118.661 Y163.792 Z1.669 F3048
X118.615 Y163.894 Z1.666 F3048
X118.562 Y163.992 Z1.662 F3048
X118.503 Y164.086 Z1.658 F3048
X118.437 Y164.175 Z1.654 F3048
X118.364 Y164.259 Z1.65 F3048
X118.286 Y164.339 Z1.646 F3048
X118.203 Y164.412 Z1.642 F3048
X118.114 Y164.479 Z1.638 F3048
X118.021 Y164.54 Z1.634 F3048
X117.924 Y164.594 Z1.63 F3048
X117.823 Y164.641 Z1.626 F3048
X117.719 Y164.681 Z1.622 F3048
X117.613 Y164.714 Z1.619 F3048
X117.505 Y164.738 Z1.615 F3048
X117.395 Y164.755 Z1.611 F3048
X117.284 Y164.764 Z1.607 F3048
X117.173 Y164.766 Z1.603 F3048
X117.062 Y164.759 Z1.599 F3048
X116.952 Y164.745 Z1.595 F3048
X116.843 Y164.722 Z1.591 F3048
X116.736 Y164.693 Z1.587 F3048
X116.632 Y164.655 Z1.583 F3048
X116.53 Y164.61 Z1.579 F3048
X116.432 Y164.559 Z1.575 F3048
X116.338 Y164.5 Z1.572 F3048
X116.248 Y164.435 Z1.568 F3048
X116.163 Y164.363 Z1.564 F3048
X116.083 Y164.286 Z1.56 F3048
X116.009 Y164.203 Z1.556 F3048
X115.941 Y164.116 Z1.552 F3048
X115.879 Y164.023 Z1.548 F3048
X115.824 Y163.927 Z1.544 F3048
X115.776 Y163.827 Z1.54 F3048
X115.735 Y163.723 Z1.536 F3048
X115.702 Y163.617 Z1.532 F3048
X115.676 Y163.509 Z1.528 F3048
X115.658 Y163.4 Z1.525 F3048
X115.648 Y163.289 Z1.521 F3048
X115.645 Y163.178 Z1.517 F3048
X115.651 Y163.067 Z1.513 F3048
X115.664 Y162.957 Z1.509 F3048
X115.685 Y162.848 Z1.505 F3048
X115.714 Y162.741 Z1.501 F3048
X115.75 Y162.636 Z1.497 F3048
X115.794 Y162.534 Z1.493 F3048
X115.845 Y162.436 Z1.489 F3048
X115.903 Y162.341 Z1.485 F3048
X115.967 Y162.25 Z1.481 F3048
X116.037 Y162.165 Z1.478 F3048
X116.114 Y162.084 Z1.474 F3048
X116.195 Y162.009 Z1.47 F3048
X116.282 Y161.941 Z1.466 F3048
X116.374 Y161.878 Z1.462 F3048
X116.47 Y161.822 Z1.458 F3048
X116.57 Y161.773 Z1.454 F3048
X116.672 Y161.731 Z1.45 F3048
X116.778 Y161.697 Z1.446 F3048
X116.885 Y161.67 Z1.442 F3048
X116.995 Y161.651 Z1.438 F3048
X117.105 Y161.64 Z1.434 F3048
X117.216 Y161.637 Z1.431 F3048
X117.327 Y161.641 Z1.427 F3048
X117.437 Y161.653 Z1.423 F3048
X117.546 Y161.673 Z1.419 F3048
X117.654 Y161.701 Z1.415 F3048
X117.759 Y161.736 Z1.411 F3048
X117.861 Y161.779 Z1.407 F3048
X117.96 Y161.829 Z1.403 F3048
X118.056 Y161.886 Z1.399 F3048
X118.147 Y161.949 Z1.395 F3048
X118.233 Y162.018 Z1.391 F3048
X118.314 Y162.094 Z1.387 F3048
X118.389 Y162.175 Z1.383 F3048
X118.459 Y162.261 Z1.38 F3048
X118.522 Y162.352 Z1.376 F3048
X118.579 Y162.447 Z1.372 F3048
X118.629 Y162.546 Z1.368 F3048
X118.672 Y162.649 Z1.364 F3048
X118.707 Y162.754 Z1.36 F3048
X118.735 Y162.861 Z1.356 F3048
X118.755 Y162.97 Z1.352 F3048
X118.767 Y163.08 Z1.348 F3048
X118.772 Y163.191 Z1.344 F3048
X118.768 Y163.301 Z1.34 F3048
X118.757 Y163.412 Z1.336 F3048
X118.738 Y163.521 Z1.333 F3048
X118.711 Y163.628 Z1.329 F3048
X118.677 Y163.734 Z1.325 F3048
X118.636 Y163.836 Z1.321 F3048
X118.587 Y163.936 Z1.317 F3048
X118.531 Y164.032 Z1.313 F3048
X118.469 Y164.123 Z1.309 F3048
X118.4 Y164.21 Z1.305 F3048
X118.325 Y164.292 Z1.301 F3048
X118.245 Y164.368 Z1.297 F3048
X118.159 Y164.439 Z1.293 F3048
X118.069 Y164.503 Z1.289 F3048
X117.975 Y164.56 Z1.286 F3048
X117.876 Y164.611 Z1.282 F3048
X117.775 Y164.655 Z1.278 F3048
X117.67 Y164.691 Z1.274 F3048
X117.563 Y164.72 Z1.27 F3048
X117.455 Y164.741 Z1.266 F3048
X117.345 Y164.754 Z1.262 F3048
X117.234 Y164.76 Z1.258 F3048
X117.124 Y164.758 Z1.254 F3048
X117.013 Y164.748 Z1.25 F3048
X116.904 Y164.73 Z1.246 F3048
X116.796 Y164.704 Z1.242 F3048
X116.691 Y164.671 Z1.239 F3048
X116.588 Y164.63 Z1.235 F3048
X116.488 Y164.582 Z1.231 F3048
X116.392 Y164.528 Z1.227 F3048
X116.3 Y164.466 Z1.223 F3048
X116.212 Y164.399 Z1.219 F3048
X116.13 Y164.325 Z1.215 F3048
X116.053 Y164.245 Z1.211 F3048
X115.982 Y164.161 Z1.207 F3048
X115.917 Y164.071 Z1.203 F3048
X115.858 Y163.977 Z1.199 F3048
X115.807 Y163.879 Z1.195 F3048
X115.762 Y163.778 Z1.192 F3048
X115.725 Y163.674 Z1.188 F3048
X115.695 Y163.567 Z1.184 F3048
X115.673 Y163.459 Z1.18 F3048
X115.658 Y163.349 Z1.176 F3048
X115.652 Y163.239 Z1.172 F3048
X115.653 Y163.128 Z1.168 F3048
X115.662 Y163.018 Z1.164 F3048
X115.679 Y162.909 Z1.16 F3048
X115.703 Y162.801 Z1.156 F3048
X115.735 Y162.695 Z1.152 F3048
X115.775 Y162.592 Z1.148 F3048
X115.822 Y162.492 Z1.145 F3048
X115.875 Y162.395 Z1.141 F3048
X115.936 Y162.303 Z1.137 F3048
X116.003 Y162.215 Z1.133 F3048
X116.075 Y162.132 Z1.129 F3048
X116.154 Y162.054 Z1.125 F3048
X116.238 Y161.982 Z1.121 F3048
X116.327 Y161.916 Z1.117 F3048
X116.42 Y161.857 Z1.113 F3048
X116.517 Y161.805 Z1.109 F3048
X116.618 Y161.759 Z1.105 F3048
X116.722 Y161.721 Z1.101 F3048
X116.828 Y161.69 Z1.098 F3048
X116.936 Y161.667 Z1.094 F3048
X117.045 Y161.651 Z1.09 F3048
X117.156 Y161.643 Z1.086 F3048
X117.266 Y161.644 Z1.082 F3048
X117.376 Y161.652 Z1.078 F3048
X117.486 Y161.667 Z1.074 F3048
X117.594 Y161.691 Z1.07 F3048
X117.7 Y161.722 Z1.066 F3048
X117.803 Y161.76 Z1.062 F3048
X117.904 Y161.806 Z1.058 F3048
X118.001 Y161.859 Z1.054 F3048
X118.094 Y161.918 Z1.05 F3048
X118.182 Y161.984 Z1.047 F3048
X118.266 Y162.056 Z1.043 F3048
X118.344 Y162.134 Z1.039 F3048
X118.417 Y162.217 Z1.035 F3048
X118.483 Y162.305 Z1.031 F3048
X118.544 Y162.398 Z1.027 F3048
X118.597 Y162.494 Z1.023 F3048
X118.643 Y162.594 Z1.019 F3048
X118.683 Y162.698 Z1.015 F3048
X118.715 Y162.803 Z1.011 F3048
X118.739 Y162.911 Z1.007 F3048
X118.755 Y163.02 Z1.003 F3048
X118.764 Y163.13 Z1 F3048
X118.765 Y163.241 Z0.996 F3048
X118.758 Y163.351 Z0.992 F3048
X118.743 Y163.46 Z0.988 F3048
X118.721 Y163.568 Z0.984 F3048
X118.691 Y163.675 Z0.98 F3048
X118.654 Y163.778 Z0.976 F3048
X118.609 Y163.879 Z0.972 F3048
X118.557 Y163.977 Z0.968 F3048
X118.498 Y164.07 Z0.964 F3048
X118.434 Y164.16 Z0.96 F3048
X118.362 Y164.244 Z0.956 F3048
X118.285 Y164.323 Z0.953 F3048
X118.203 Y164.396 Z0.949 F3048
X118.116 Y164.463 Z0.945 F3048
X118.024 Y164.524 Z0.941 F3048
X117.928 Y164.579 Z0.937 F3048
X117.828 Y164.626 Z0.933 F3048
X117.726 Y164.666 Z0.929 F3048
X117.62 Y164.699 Z0.925 F3048
X117.513 Y164.724 Z0.921 F3048
X117.404 Y164.742 Z0.917 F3048
X117.294 Y164.752 Z0.913 F3048
X117.184 Y164.754 Z0.909 F3048
X117.074 Y164.748 Z0.906 F3048
X116.965 Y164.734 Z0.902 F3048
X116.857 Y164.713 Z0.898 F3048
X116.75 Y164.684 Z0.894 F3048
X116.646 Y164.648 Z0.89 F3048
X116.545 Y164.604 Z0.886 F3048
X116.447 Y164.553 Z0.882 F3048
X116.353 Y164.496 Z0.878 F3048
X116.263 Y164.432 Z0.874 F3048
X116.178 Y164.361 Z0.87 F3048
X116.099 Y164.285 Z0.866 F3048
X116.024 Y164.203 Z0.862 F3048
X115.956 Y164.117 Z0.859 F3048
X115.894 Y164.026 Z0.855 F3048
X115.839 Y163.93 Z0.851 F3048
X115.791 Y163.831 Z0.847 F3048
X115.75 Y163.729 Z0.843 F3048
X115.716 Y163.624 Z0.839 F3048
X115.69 Y163.517 Z0.835 F3048
X115.671 Y163.409 Z0.831 F3048
X115.66 Y163.299 Z0.827 F3048
X115.657 Y163.189 Z0.823 F3048
X115.662 Y163.079 Z0.819 F3048
X115.674 Y162.97 Z0.815 F3048
X115.695 Y162.861 Z0.812 F3048
X115.723 Y162.755 Z0.808 F3048
X115.758 Y162.651 Z0.804 F3048
X115.801 Y162.549 Z0.8 F3048
X115.85 Y162.451 Z0.796 F3048
X115.907 Y162.356 Z0.792 F3048
X115.97 Y162.266 Z0.788 F3048
X116.039 Y162.181 Z0.784 F3048
X116.115 Y162.1 Z0.78 F3048
X116.196 Y162.025 Z0.776 F3048
X116.281 Y161.956 Z0.772 F3048
X116.372 Y161.894 Z0.768 F3048
X116.467 Y161.838 Z0.765 F3048
X116.565 Y161.789 Z0.761 F3048
X116.667 Y161.746 Z0.757 F3048
X116.771 Y161.712 Z0.753 F3048
X116.878 Y161.684 Z0.749 F3048
X116.987 Y161.665 Z0.745 F3048
X117.096 Y161.653 Z0.741 F3048
X117.206 Y161.649 Z0.737 F3048
X117.316 Y161.652 Z0.733 F3048
X117.425 Y161.664 Z0.729 F3048
X117.533 Y161.683 Z0.725 F3048
X117.64 Y161.71 Z0.721 F3048
X117.745 Y161.744 Z0.718 F3048
X117.846 Y161.786 Z0.714 F3048
X117.945 Y161.834 Z0.71 F3048
X118.04 Y161.89 Z0.706 F3048
X118.131 Y161.952 Z0.702 F3048
X118.217 Y162.021 Z0.698 F3048
X118.298 Y162.095 Z0.694 F3048
X118.373 Y162.175 Z0.69 F3048
X118.443 Y162.26 Z0.686 F3048
X118.506 Y162.35 Z0.682 F3048
X118.563 Y162.444 Z0.678 F3048
X118.613 Y162.542 Z0.674 F3048
X118.656 Y162.643 Z0.67 F3048
X118.692 Y162.747 Z0.667 F3048
X118.721 Y162.853 Z0.663 F3048
X118.741 Y162.961 Z0.659 F3048
X118.754 Y163.071 Z0.655 F3048
X118.759 Y163.18 Z0.651 F3048
X118.757 Y163.29 Z0.647 F3048
X118.746 Y163.4 Z0.643 F3048
X118.728 Y163.508 Z0.639 F3048
X118.703 Y163.615 Z0.635 F3048
X118.669 Y163.72 Z0.631 F3048
X118.629 Y163.822 Z0.627 F3048
X118.581 Y163.921 Z0.623 F3048
X118.526 Y164.016 Z0.62 F3048
X118.465 Y164.108 Z0.616 F3048
X118.398 Y164.194 Z0.612 F3048
X118.324 Y164.276 Z0.608 F3048
X118.245 Y164.352 Z0.604 F3048
X118.161 Y164.422 Z0.6 F3048
X118.072 Y164.487 Z0.596 F3048
X117.978 Y164.545 Z0.592 F3048
X117.881 Y164.596 Z0.588 F3048
X117.78 Y164.639 Z0.584 F3048
X117.677 Y164.676 Z0.58 F3048
X117.571 Y164.706 Z0.576 F3048
X117.463 Y164.727 Z0.573 F3048
X117.354 Y164.741 Z0.569 F3048
X117.244 Y164.748 Z0.565 F3048
X117.135 Y164.746 Z0.561 F3048
X117.025 Y164.737 Z0.557 F3048
X116.917 Y164.72 Z0.553 F3048
X116.81 Y164.695 Z0.549 F3048
X116.705 Y164.663 Z0.545 F3048
X116.602 Y164.623 Z0.541 F3048
X116.503 Y164.576 Z0.537 F3048
X116.407 Y164.523 Z0.533 F3048
X116.315 Y164.462 Z0.529 F3048
X116.228 Y164.396 Z0.526 F3048
X116.146 Y164.323 Z0.522 F3048
X116.069 Y164.245 Z0.518 F3048
X115.998 Y164.161 Z0.514 F3048
X115.932 Y164.073 Z0.51 F3048
X115.874 Y163.98 Z0.506 F3048
X115.822 Y163.883 Z0.502 F3048
X115.777 Y163.783 Z0.498 F3048
X115.739 Y163.68 Z0.494 F3048
X115.709 Y163.575 Z0.49 F3048
X115.686 Y163.467 Z0.486 F3048
X115.671 Y163.359 Z0.482 F3048
X115.664 Y163.249 Z0.479 F3048
Y163.14 Z0.475 F3048
X115.673 Y163.03 Z0.471 F3048
X115.689 Y162.922 Z0.467 F3048
X115.712 Y162.815 Z0.463 F3048
X115.743 Y162.709 Z0.459 F3048
X115.782 Y162.607 Z0.455 F3048
X115.828 Y162.507 Z0.451 F3048
X115.88 Y162.411 Z0.447 F3048
X115.94 Y162.318 Z0.443 F3048
X116.006 Y162.231 Z0.439 F3048
X116.077 Y162.148 Z0.435 F3048
X116.155 Y162.07 Z0.432 F3048
X116.238 Y161.998 Z0.428 F3048
X116.325 Y161.932 Z0.424 F3048
X116.418 Y161.873 Z0.42 F3048
X116.514 Y161.82 Z0.416 F3048
X116.613 Y161.774 Z0.412 F3048
X116.716 Y161.735 Z0.408 F3048
X116.821 Y161.704 Z0.404 F3048
X116.928 Y161.68 Z0.4 F3048
X117.036 Y161.664 Z0.396 F3048
X117.146 Y161.656 Z0.392 F3048
X117.255 Y161.655 Z0.388 F3048
X117.364 Y161.662 Z0.385 F3048
X117.473 Y161.677 Z0.381 F3048
X117.58 Y161.7 Z0.377 F3048
X117.686 Y161.73 Z0.373 F3048
X117.789 Y161.767 Z0.369 F3048
X117.889 Y161.812 Z0.365 F3048
X117.985 Y161.864 Z0.361 F3048
X118.078 Y161.922 Z0.357 F3048
X118.166 Y161.987 Z0.353 F3048
X118.25 Y162.058 Z0.349 F3048
X118.328 Y162.135 Z0.345 F3048
X118.401 Y162.217 Z0.341 F3048
X118.467 Y162.304 Z0.337 F3048
X118.528 Y162.395 Z0.334 F3048
X118.581 Y162.491 Z0.33 F3048
X118.628 Y162.59 Z0.326 F3048
X118.668 Y162.692 Z0.322 F3048
X118.7 Y162.797 Z0.318 F3048
X118.725 Y162.903 Z0.314 F3048
X118.742 Y163.012 Z0.31 F3048
X118.752 Y163.121 Z0.306 F3048
X118.753 Y163.23 Z0.302 F3048
X118.747 Y163.34 Z0.298 F3048
X118.733 Y163.448 Z0.294 F3048
X118.712 Y163.555 Z0.29 F3048
X118.683 Y163.661 Z0.287 F3048
X118.646 Y163.764 Z0.283 F3048
X118.603 Y163.865 Z0.279 F3048
X118.552 Y163.962 Z0.275 F3048
X118.495 Y164.055 Z0.271 F3048
X118.431 Y164.144 Z0.267 F3048
X118.361 Y164.228 Z0.263 F3048
X118.285 Y164.307 Z0.259 F3048
X118.204 Y164.38 Z0.255 F3048
X118.117 Y164.447 Z0.251 F3048
X118.027 Y164.508 Z0.247 F3048
X117.932 Y164.563 Z0.243 F3048
X117.833 Y164.611 Z0.24 F3048
X117.732 Y164.651 Z0.236 F3048
X117.627 Y164.685 Z0.232 F3048
X117.521 Y164.71 Z0.228 F3048
X117.413 Y164.729 Z0.224 F3048
X117.304 Y164.739 Z0.22 F3048
X117.195 Y164.742 Z0.216 F3048
X117.085 Y164.737 Z0.212 F3048
X116.977 Y164.724 Z0.208 F3048
X116.869 Y164.703 Z0.204 F3048
X116.763 Y164.675 Z0.2 F3048
X116.66 Y164.64 Z0.196 F3048
X116.559 Y164.597 Z0.193 F3048
X116.462 Y164.548 Z0.189 F3048
X116.368 Y164.491 Z0.185 F3048
X116.279 Y164.428 Z0.181 F3048
X116.194 Y164.359 Z0.177 F3048
X116.115 Y164.284 Z0.173 F3048
X116.04 Y164.204 Z0.169 F3048
X115.972 Y164.118 Z0.165 F3048
X115.91 Y164.028 Z0.161 F3048
X115.855 Y163.934 Z0.157 F3048
X115.806 Y163.836 Z0.153 F3048
X115.765 Y163.735 Z0.149 F3048
X115.731 Y163.631 Z0.146 F3048
X115.704 Y163.525 Z0.142 F3048
X115.685 Y163.418 Z0.138 F3048
X115.673 Y163.309 Z0.134 F3048
X115.669 Y163.2 Z0.13 F3048
X115.673 Y163.09 Z0.126 F3048
X115.685 Y162.982 Z0.122 F3048
X115.704 Y162.874 Z0.118 F3048
X115.731 Y162.768 Z0.114 F3048
X115.766 Y162.664 Z0.11 F3048
X115.807 Y162.563 Z0.106 F3048
X115.856 Y162.466 Z0.102 F3048
X115.912 Y162.371 Z0.099 F3048
X115.974 Y162.281 Z0.095 F3048
X116.042 Y162.196 Z0.091 F3048
X116.116 Y162.116 Z0.087 F3048
X116.196 Y162.041 Z0.083 F3048
X116.28 Y161.972 Z0.079 F3048
X116.37 Y161.909 Z0.075 F3048
X116.463 Y161.853 Z0.071 F3048
X116.561 Y161.804 Z0.067 F3048
X116.661 Y161.761 Z0.063 F3048
X116.765 Y161.726 Z0.059 F3048
X116.87 Y161.698 Z0.055 F3048
X116.978 Y161.678 Z0.052 F3048
X117.086 Y161.666 Z0.048 F3048
X117.195 Y161.661 Z0.044 F3048
X117.304 Y161.664 Z0.04 F3048
X117.413 Y161.674 Z0.036 F3048
X117.52 Y161.693 Z0.032 F3048
X117.627 Y161.718 Z0.028 F3048
X117.73 Y161.752 Z0.024 F3048
X117.832 Y161.792 Z0.02 F3048
X117.93 Y161.84 Z0.016 F3048
X118.025 Y161.895 Z0.012 F3048
X118.115 Y161.956 Z0.008 F3048
X118.201 Y162.023 Z0.005 F3048
X118.282 Y162.096 Z0.001 F3048
X118.357 Y162.175 Z-0.003 F3048
X118.427 Y162.259 Z-0.007 F3048
X118.491 Y162.348 Z-0.011 F3048
X118.548 Y162.441 Z-0.015 F3048
X118.598 Y162.538 Z-0.019 F3048
X118.642 Y162.638 Z-0.023 F3048
X118.678 Y162.741 Z-0.027 F3048
X118.707 Y162.846 Z-0.031 F3048
X118.728 Y162.953 Z-0.035 F3048
X118.741 Y163.061 Z-0.039 F3048
X118.747 Y163.17 Z-0.043 F3048
X118.745 Y163.279 Z-0.046 F3048
X118.736 Y163.388 Z-0.05 F3048
X118.719 Y163.496 Z-0.054 F3048
X118.694 Y163.602 Z-0.058 F3048
X118.662 Y163.706 Z-0.062 F3048
X118.622 Y163.807 Z-0.066 F3048
X118.575 Y163.906 Z-0.07 F3048
X118.522 Y164.001 Z-0.074 F3048
X118.461 Y164.092 Z-0.078 F3048
X118.395 Y164.178 Z-0.082 F3048
X118.323 Y164.26 Z-0.086 F3048
X118.245 Y164.336 Z-0.09 F3048
X118.161 Y164.406 Z-0.093 F3048
X118.073 Y164.471 Z-0.097 F3048
X117.981 Y164.529 Z-0.101 F3048
X117.885 Y164.58 Z-0.105 F3048
X117.785 Y164.624 Z-0.109 F3048
X117.683 Y164.662 Z-0.113 F3048
X117.578 Y164.691 Z-0.117 F3048
X117.471 Y164.714 Z-0.121 F3048
X117.363 Y164.728 Z-0.125 F3048
X117.254 Y164.735 Z-0.129 F3048
X117.145 Y164.734 Z-0.133 F3048
X117.037 Y164.726 Z-0.137 F3048
X116.929 Y164.71 Z-0.14 F3048
X116.823 Y164.686 Z-0.144 F3048
X116.718 Y164.655 Z-0.148 F3048
X116.616 Y164.616 Z-0.152 F3048
X116.518 Y164.57 Z-0.156 F3048
X116.422 Y164.518 Z-0.16 F3048
X116.331 Y164.459 Z-0.164 F3048
X116.244 Y164.393 Z-0.168 F3048
X116.162 Y164.322 Z-0.172 F3048
X116.085 Y164.244 Z-0.176 F3048
X116.014 Y164.162 Z-0.18 F3048
X115.949 Y164.075 Z-0.184 F3048
X115.89 Y163.983 Z-0.187 F3048
X115.838 Y163.887 Z-0.191 F3048
X115.792 Y163.788 Z-0.195 F3048
X115.754 Y163.686 Z-0.199 F3048
X115.724 Y163.582 Z-0.203 F3048
X115.7 Y163.476 Z-0.207 F3048
X115.685 Y163.368 Z-0.211 F3048
X115.677 Y163.259 Z-0.215 F3048
X115.676 Y163.15 Z-0.219 F3048
X115.684 Y163.042 Z-0.223 F3048
X115.699 Y162.934 Z-0.227 F3048
X115.722 Y162.827 Z-0.231 F3048
X115.752 Y162.723 Z-0.234 F3048
X115.789 Y162.62 Z-0.238 F3048
X115.834 Y162.521 Z-0.242 F3048
X115.886 Y162.425 Z-0.246 F3048
X115.944 Y162.334 Z-0.25 F3048
X116.009 Y162.246 Z-0.254 F3048
X116.079 Y162.163 Z-0.258 F3048
X116.155 Y162.086 Z-0.262 F3048
X116.237 Y162.014 Z-0.266 F3048
X116.324 Y161.948 Z-0.27 F3048
X116.415 Y161.888 Z-0.274 F3048
X116.51 Y161.835 Z-0.278 F3048
X116.608 Y161.789 Z-0.281 F3048
X116.71 Y161.75 Z-0.285 F3048
X116.814 Y161.719 Z-0.289 F3048
X116.92 Y161.694 Z-0.293 F3048
X117.027 Y161.678 Z-0.297 F3048
X117.136 Y161.669 Z-0.301 F3048
X117.244 Y161.667 Z-0.305 F3048
X117.353 Y161.674 Z-0.309 F3048
X117.461 Y161.688 Z-0.313 F3048
X117.567 Y161.709 Z-0.317 F3048
X117.672 Y161.738 Z-0.321 F3048
X117.775 Y161.775 Z-0.325 F3048
X117.874 Y161.819 Z-0.328 F3048
X117.97 Y161.869 Z-0.332 F3048
X118.063 Y161.927 Z-0.336 F3048
X118.151 Y161.99 Z-0.34 F3048
X118.234 Y162.06 Z-0.344 F3048
X118.313 Y162.136 Z-0.348 F3048
X118.385 Y162.217 Z-0.352 F3048
X118.452 Y162.303 Z-0.356 F3048
X118.512 Y162.393 Z-0.36 F3048
X118.566 Y162.487 Z-0.364 F3048
X118.613 Y162.585 Z-0.368 F3048
X118.653 Y162.686 Z-0.372 F3048
X118.686 Y162.79 Z-0.376 F3048
X118.711 Y162.895 Z-0.379 F3048
X118.729 Y163.003 Z-0.383 F3048
X118.739 Y163.111 Z-0.387 F3048
X118.741 Y163.219 Z-0.391 F3048
X118.736 Y163.328 Z-0.395 F3048
X118.723 Y163.436 Z-0.399 F3048
X118.702 Y163.542 Z-0.403 F3048
X118.674 Y163.647 Z-0.407 F3048
X118.639 Y163.75 Z-0.411 F3048
X118.596 Y163.85 Z-0.415 F3048
X118.546 Y163.946 Z-0.419 F3048
X118.49 Y164.039 Z-0.423 F3048
X118.427 Y164.128 Z-0.426 F3048
X118.358 Y164.212 Z-0.43 F3048
X118.284 Y164.291 Z-0.434 F3048
X118.203 Y164.364 Z-0.438 F3048
X118.118 Y164.432 Z-0.442 F3048
X118.029 Y164.493 Z-0.446 F3048
X117.935 Y164.548 Z-0.45 F3048
X117.837 Y164.596 Z-0.454 F3048
X117.737 Y164.637 Z-0.458 F3048
X117.633 Y164.67 Z-0.462 F3048
X117.528 Y164.697 Z-0.466 F3048
X117.421 Y164.715 Z-0.47 F3048
X117.313 Y164.726 Z-0.473 F3048
X117.205 Y164.73 Z-0.477 F3048
X117.097 Y164.726 Z-0.481 F3048
X116.989 Y164.714 Z-0.485 F3048
X116.882 Y164.694 Z-0.489 F3048
X116.777 Y164.667 Z-0.493 F3048
X116.674 Y164.633 Z-0.497 F3048
X116.574 Y164.591 Z-0.501 F3048
X116.477 Y164.542 Z-0.505 F3048
X116.384 Y164.487 Z-0.509 F3048
X116.295 Y164.425 Z-0.513 F3048
X116.21 Y164.357 Z-0.517 F3048
X116.131 Y164.283 Z-0.52 F3048
X116.057 Y164.204 Z-0.524 F3048
X115.988 Y164.119 Z-0.528 F3048
X115.926 Y164.03 Z-0.532 F3048
X115.871 Y163.937 Z-0.536 F3048
X115.822 Y163.84 Z-0.54 F3048
X115.78 Y163.74 Z-0.544 F3048
X115.745 Y163.638 Z-0.548 F3048
X115.718 Y163.533 Z-0.552 F3048
X115.698 Y163.426 Z-0.556 F3048
X115.686 Y163.318 Z-0.56 F3048
X115.681 Y163.21 Z-0.564 F3048
X115.685 Y163.101 Z-0.567 F3048
X115.696 Y162.993 Z-0.571 F3048
X115.714 Y162.886 Z-0.575 F3048
X115.74 Y162.781 Z-0.579 F3048
X115.773 Y162.678 Z-0.583 F3048
X115.814 Y162.578 Z-0.587 F3048
X115.862 Y162.48 Z-0.591 F3048
X115.916 Y162.387 Z-0.595 F3048
X115.977 Y162.297 Z-0.599 F3048
X116.044 Y162.212 Z-0.603 F3048
X116.117 Y162.132 Z-0.607 F3048
X116.196 Y162.057 Z-0.611 F3048
X116.279 Y161.988 Z-0.614 F3048
X116.368 Y161.925 Z-0.618 F3048
X116.46 Y161.869 Z-0.622 F3048
X116.556 Y161.819 Z-0.626 F3048
X116.656 Y161.776 Z-0.63 F3048
X116.758 Y161.741 Z-0.634 F3048
X116.863 Y161.713 Z-0.638 F3048
X116.969 Y161.692 Z-0.642 F3048
X117.077 Y161.679 Z-0.646 F3048
X117.185 Y161.673 Z-0.65 F3048
X117.293 Y161.675 Z-0.654 F3048
X117.401 Y161.685 Z-0.658 F3048
X117.508 Y161.702 Z-0.661 F3048
X117.614 Y161.727 Z-0.665 F3048
X117.717 Y161.76 Z-0.669 F3048
X117.818 Y161.8 Z-0.673 F3048
X117.916 Y161.846 Z-0.677 F3048
X118.01 Y161.9 Z-0.681 F3048
X118.1 Y161.96 Z-0.685 F3048
X118.186 Y162.026 Z-0.689 F3048
X118.266 Y162.098 Z-0.693 F3048
X118.342 Y162.176 Z-0.697 F3048
X118.411 Y162.259 Z-0.701 F3048
X118.475 Y162.346 Z-0.705 F3048
X118.532 Y162.438 Z-0.708 F3048
X118.583 Y162.534 Z-0.712 F3048
X118.626 Y162.633 Z-0.716 F3048
X118.663 Y162.734 Z-0.72 F3048
X118.692 Y162.839 Z-0.724 F3048
X118.714 Y162.945 Z-0.728 F3048
X118.728 Y163.052 Z-0.732 F3048
X118.735 Y163.16 Z-0.736 F3048
X118.734 Y163.268 Z-0.74 F3048
X118.725 Y163.376 Z-0.744 F3048
X118.709 Y163.483 Z-0.748 F3048
X118.685 Y163.589 Z-0.752 F3048
X118.653 Y163.692 Z-0.756 F3048
X118.615 Y163.793 Z-0.759 F3048
X118.569 Y163.891 Z-0.763 F3048
X118.516 Y163.986 Z-0.767 F3048
X118.457 Y164.077 Z-0.771 F3048
X118.392 Y164.163 Z-0.775 F3048
X118.321 Y164.244 Z-0.779 F3048
X118.244 Y164.32 Z-0.783 F3048
X118.162 Y164.391 Z-0.787 F3048
X118.075 Y164.455 Z-0.791 F3048
X117.984 Y164.513 Z-0.795 F3048
X117.888 Y164.565 Z-0.799 F3048
X117.79 Y164.609 Z-0.803 F3048
X117.689 Y164.647 Z-0.806 F3048
X117.585 Y164.677 Z-0.81 F3048
X117.479 Y164.7 Z-0.814 F3048
X117.372 Y164.715 Z-0.818 F3048
X117.264 Y164.723 Z-0.822 F3048
X117.156 Z-0.826 F3048
X117.048 Y164.715 Z-0.83 F3048
X116.942 Y164.7 Z-0.834 F3048
X116.836 Y164.677 Z-0.838 F3048
X116.732 Y164.647 Z-0.842 F3048
X116.631 Y164.609 Z-0.846 F3048
X116.532 Y164.564 Z-0.85 F3048
X116.437 Y164.513 Z-0.853 F3048
X116.346 Y164.455 Z-0.857 F3048
X116.259 Y164.39 Z-0.861 F3048
X116.178 Y164.32 Z-0.865 F3048
X116.101 Y164.244 Z-0.869 F3048
X116.03 Y164.162 Z-0.873 F3048
X115.964 Y164.076 Z-0.877 F3048
X115.905 Y163.985 Z-0.881 F3048
X115.853 Y163.891 Z-0.885 F3048
X115.807 Y163.793 Z-0.889 F3048
X115.769 Y163.692 Z-0.893 F3048
X115.738 Y163.588 Z-0.897 F3048
X115.714 Y163.483 Z-0.9 F3048
X115.698 Y163.376 Z-0.904 F3048
X115.689 Y163.269 Z-0.908 F3048
X115.688 Y163.161 Z-0.912 F3048
X115.695 Y163.053 Z-0.916 F3048
X115.709 Y162.946 Z-0.92 F3048
X115.731 Y162.84 Z-0.924 F3048
X115.76 Y162.736 Z-0.928 F3048
X115.797 Y162.635 Z-0.932 F3048
X115.84 Y162.536 Z-0.936 F3048
X115.891 Y162.441 Z-0.94 F3048
X115.948 Y162.349 Z-0.944 F3048
X116.011 Y162.262 Z-0.947 F3048
X116.081 Y162.179 Z-0.951 F3048
X116.156 Y162.102 Z-0.955 F3048
X116.237 Y162.03 Z-0.959 F3048
X116.322 Y161.964 Z-0.963 F3048
X116.412 Y161.904 Z-0.967 F3048
X116.506 Y161.851 Z-0.971 F3048
X116.604 Y161.805 Z-0.975 F3048
X116.704 Y161.765 Z-0.979 F3048
X116.807 Y161.733 Z-0.983 F3048
X116.912 Y161.708 Z-0.987 F3048
X117.019 Y161.691 Z-0.991 F3048
X117.126 Y161.681 Z-0.994 F3048
X117.234 Y161.679 Z-0.998 F3048
X117.342 Y161.685 Z-1.002 F3048
X117.449 Y161.698 Z-1.006 F3048
X117.555 Y161.719 Z-1.01 F3048
X117.659 Y161.747 Z-1.014 F3048
X117.761 Y161.782 Z-1.018 F3048
X117.86 Y161.825 Z-1.022 F3048
X117.956 Y161.875 Z-1.026 F3048
X118.048 Y161.931 Z-1.03 F3048
X118.135 Y161.994 Z-1.034 F3048
X118.218 Y162.062 Z-1.038 F3048
X118.297 Y162.137 Z-1.041 F3048
X118.369 Y162.216 Z-1.045 F3048
X118.436 Y162.301 Z-1.049 F3048
X118.496 Y162.39 Z-1.053 F3048
X118.55 Y162.484 Z-1.057 F3048
X118.598 Y162.58 Z-1.061 F3048
X118.638 Y162.68 Z-1.065 F3048
X118.671 Y162.783 Z-1.069 F3048
X118.697 Y162.888 Z-1.073 F3048
X118.715 Y162.994 Z-1.077 F3048
X118.726 Y163.101 Z-1.081 F3048
X118.729 Y163.209 Z-1.085 F3048
X118.725 Y163.317 Z-1.089 F3048
X118.712 Y163.424 Z-1.092 F3048
X118.693 Y163.53 Z-1.096 F3048
X118.666 Y163.634 Z-1.1 F3048
X118.631 Y163.736 Z-1.104 F3048
X118.589 Y163.836 Z-1.108 F3048
X118.541 Y163.932 Z-1.112 F3048
X118.485 Y164.024 Z-1.116 F3048
X118.424 Y164.113 Z-1.12 F3048
X118.356 Y164.196 Z-1.124 F3048
X118.282 Y164.275 Z-1.128 F3048
X118.203 Y164.348 Z-1.132 F3048
X118.119 Y164.416 Z-1.136 F3048
X118.031 Y164.477 Z-1.139 F3048
X117.938 Y164.532 Z-1.143 F3048
X117.842 Y164.58 Z-1.147 F3048
X117.743 Y164.622 Z-1.151 F3048
X117.64 Y164.656 Z-1.155 F3048
X117.536 Y164.682 Z-1.159 F3048
X117.43 Y164.702 Z-1.163 F3048
X117.323 Y164.714 Z-1.167 F3048
X117.216 Y164.718 Z-1.171 F3048
X117.108 Y164.714 Z-1.175 F3048
X117.001 Y164.703 Z-1.179 F3048
X116.895 Y164.684 Z-1.183 F3048
X116.79 Y164.658 Z-1.186 F3048
X116.688 Y164.625 Z-1.19 F3048
X116.588 Y164.584 Z-1.194 F3048
X116.492 Y164.536 Z-1.198 F3048
X116.399 Y164.482 Z-1.202 F3048
X116.31 Y164.421 Z-1.206 F3048
X116.226 Y164.354 Z-1.21 F3048
X116.146 Y164.281 Z-1.214 F3048
X116.072 Y164.203 Z-1.218 F3048
X116.004 Y164.12 Z-1.222 F3048
X115.942 Y164.032 Z-1.226 F3048
X115.886 Y163.94 Z-1.23 F3048
X115.837 Y163.844 Z-1.233 F3048
X115.795 Y163.745 Z-1.237 F3048
X115.76 Y163.644 Z-1.241 F3048
X115.732 Y163.54 Z-1.245 F3048
X115.712 Y163.434 Z-1.249 F3048
X115.699 Y163.327 Z-1.253 F3048
X115.694 Y163.22 Z-1.257 F3048
X115.696 Y163.112 Z-1.261 F3048
X115.706 Y163.005 Z-1.265 F3048
X115.724 Y162.899 Z-1.269 F3048
X115.749 Y162.795 Z-1.273 F3048
X115.781 Y162.692 Z-1.277 F3048
X115.821 Y162.592 Z-1.28 F3048
X115.868 Y162.495 Z-1.284 F3048
X115.921 Y162.402 Z-1.288 F3048
X115.981 Y162.313 Z-1.292 F3048
X116.047 Y162.228 Z-1.296 F3048
X116.119 Y162.148 Z-1.3 F3048
X116.196 Y162.073 Z-1.304 F3048
X116.279 Y162.004 Z-1.308 F3048
X116.366 Y161.941 Z-1.312 F3048
X116.457 Y161.885 Z-1.316 F3048
X116.553 Y161.835 Z-1.32 F3048
X116.651 Y161.791 Z-1.324 F3048
X116.752 Y161.755 Z-1.327 F3048
X116.856 Y161.727 Z-1.331 F3048
X116.961 Y161.705 Z-1.335 F3048
X117.068 Y161.691 Z-1.339 F3048
X117.175 Y161.685 Z-1.343 F3048
X117.283 Y161.687 Z-1.347 F3048
X117.39 Y161.696 Z-1.351 F3048
X117.496 Y161.712 Z-1.355 F3048
X117.601 Y161.736 Z-1.359 F3048
X117.703 Y161.768 Z-1.363 F3048
X117.803 Y161.806 Z-1.367 F3048
X117.901 Y161.852 Z-1.371 F3048
X117.994 Y161.904 Z-1.374 F3048
X118.084 Y161.963 Z-1.378 F3048
X118.17 Y162.029 Z-1.382 F3048
X118.25 Y162.1 Z-1.386 F3048
X118.326 Y162.176 Z-1.39 F3048
X118.395 Y162.258 Z-1.394 F3048
X118.459 Y162.344 Z-1.398 F3048
X118.516 Y162.435 Z-1.402 F3048
X118.567 Y162.53 Z-1.406 F3048
X118.611 Y162.628 Z-1.41 F3048
X118.648 Y162.728 Z-1.414 F3048
X118.678 Y162.832 Z-1.418 F3048
X118.7 Y162.937 Z-1.421 F3048
X118.715 Y163.043 Z-1.425 F3048
X118.722 Y163.15 Z-1.429 F3048
Y163.258 Z-1.433 F3048
X118.714 Y163.365 Z-1.437 F3048
X118.699 Y163.471 Z-1.441 F3048
X118.675 Y163.576 Z-1.445 F3048
X118.645 Y163.679 Z-1.449 F3048
X118.607 Y163.779 Z-1.453 F3048
X118.563 Y163.877 Z-1.457 F3048
X118.511 Y163.971 Z-1.461 F3048
X118.453 Y164.061 Z-1.465 F3048
X118.389 Y164.147 Z-1.469 F3048
X118.319 Y164.228 Z-1.472 F3048
X118.243 Y164.304 Z-1.476 F3048
X118.162 Y164.375 Z-1.48 F3048
X118.077 Y164.439 Z-1.484 F3048
X117.987 Y164.498 Z-1.488 F3048
X117.893 Y164.549 Z-1.492 F3048
X117.795 Y164.594 Z-1.496 F3048
X117.695 Y164.632 Z-1.5 F3048
X117.592 Y164.663 Z-1.504 F3048
X117.487 Y164.686 Z-1.508 F3048
X117.381 Y164.702 Z-1.512 F3048
X117.274 Y164.71 Z-1.516 F3048
X117.167 Y164.711 Z-1.519 F3048
X117.06 Y164.704 Z-1.523 F3048
X116.954 Y164.689 Z-1.527 F3048
X116.849 Y164.667 Z-1.531 F3048
X116.745 Y164.638 Z-1.535 F3048
X116.645 Y164.601 Z-1.539 F3048
X116.547 Y164.558 Z-1.543 F3048
X116.452 Y164.507 Z-1.547 F3048
X116.361 Y164.45 Z-1.551 F3048
X116.275 Y164.387 Z-1.555 F3048
X116.193 Y164.317 Z-1.559 F3048
X116.116 Y164.243 Z-1.563 F3048
X116.045 Y164.162 Z-1.566 F3048
X115.98 Y164.077 Z-1.57 F3048
X115.921 Y163.988 Z-1.574 F3048
X115.868 Y163.895 Z-1.578 F3048
X115.823 Y163.798 Z-1.582 F3048
X115.784 Y163.698 Z-1.586 F3048
X115.752 Y163.596 Z-1.59 F3048
X115.728 Y163.491 Z-1.594 F3048
X115.711 Y163.385 Z-1.598 F3048
X115.702 Y163.279 Z-1.602 F3048
X115.7 Y163.172 Z-1.606 F3048
X115.706 Y163.065 Z-1.61 F3048
X115.719 Y162.958 Z-1.613 F3048
X115.74 Y162.853 Z-1.617 F3048
X115.768 Y162.75 Z-1.621 F3048
X115.804 Y162.649 Z-1.625 F3048
X115.847 Y162.551 Z-1.629 F3048
X115.896 Y162.456 Z-1.633 F3048
X115.952 Y162.364 Z-1.637 F3048
X116.015 Y162.277 Z-1.641 F3048
X116.083 Y162.195 Z-1.645 F3048
X116.158 Y162.118 Z-1.649 F3048
X116.237 Y162.046 Z-1.653 F3048
X116.321 Y161.98 Z-1.657 F3048
X116.41 Y161.92 Z-1.66 F3048
X116.503 Y161.866 Z-1.664 F3048
X116.599 Y161.82 Z-1.668 F3048
X116.699 Y161.78 Z-1.672 F3048
X116.801 Y161.747 Z-1.676 F3048
X116.905 Y161.722 Z-1.68 F3048
X117.01 Y161.704 Z-1.684 F3048
X117.117 Y161.694 Z-1.688 F3048
X117.224 Y161.691 Z-1.692 F3048
X117.33 Y161.696 Z-1.696 F3048
X117.437 Y161.708 Z-1.7 F3048
X117.542 Y161.728 Z-1.704 F3048
X117.645 Y161.755 Z-1.707 F3048
X117.747 Y161.79 Z-1.711 F3048
X117.845 Y161.832 Z-1.715 F3048
X117.941 Y161.88 Z-1.719 F3048
X118.032 Y161.935 Z-1.723 F3048
X118.12 Y161.997 Z-1.727 F3048
X118.203 Y162.065 Z-1.731 F3048
X118.281 Y162.138 Z-1.735 F3048
X118.353 Y162.216 Z-1.739 F3048
X118.42 Y162.3 Z-1.743 F3048
X118.481 Y162.388 Z-1.747 F3048
X118.535 Y162.48 Z-1.751 F3048
X118.583 Y162.576 Z-1.754 F3048
X118.623 Y162.675 Z-1.758 F3048
X118.657 Y162.777 Z-1.762 F3048
X118.683 Y162.88 Z-1.766 F3048
X118.702 Y162.986 Z-1.77 F3048
X118.713 Y163.092 Z-1.774 F3048
X118.717 Y163.199 Z-1.778 F3048
G3 X115.701 I-1.508 F3048
X118.717 I1.508 F3048
( MOVEMENT_CUTTING)
G1 X118.721 Y163.36 F3048
X118.907 Y163.942 F3048
X118.938 Y164.088 F3048
X118.945 Y164.238 F3048
X118.93 Y164.387 F3048
X118.897 Y164.533 F3048
X118.846 Y164.675 F3048
X118.78 Y164.81 F3048
X118.701 Y164.937 F3048
X118.606 Y165.063 F3048
X118.494 Y165.185 F3048
X118.365 Y165.3 F3048
X118.22 Y165.407 F3048
X118.06 Y165.504 F3048
X117.885 Y165.587 F3048
X117.697 Y165.656 F3048
X117.498 Y165.708 F3048
X117.29 Y165.742 F3048
X117.074 Y165.756 F3048
X116.854 Y165.749 F3048
X116.631 Y165.721 F3048
X116.408 Y165.671 F3048
X116.188 Y165.599 F3048
X115.973 Y165.506 F3048
X115.766 Y165.391 F3048
X115.569 Y165.256 F3048
X115.383 Y165.101 F3048
X115.213 Y164.928 F3048
X115.058 Y164.739 F3048
X114.921 Y164.534 F3048
X114.804 Y164.317 F3048
X114.708 Y164.088 F3048
X114.633 Y163.851 F3048
X114.582 Y163.606 F3048
X114.554 Y163.358 F3048
X114.549 Y163.107 F3048
X114.568 Y162.856 F3048
X114.611 Y162.608 F3048
X114.678 Y162.365 F3048
X114.768 Y162.13 F3048
X114.879 Y161.903 F3048
X115.012 Y161.688 F3048
X115.165 Y161.486 F3048
X115.336 Y161.3 F3048
X115.524 Y161.131 F3048
X115.728 Y160.98 F3048
X115.945 Y160.849 F3048
X116.174 Y160.74 F3048
X116.412 Y160.652 F3048
X116.657 Y160.588 F3048
X116.907 Y160.547 F3048
X117.161 Y160.53 F3048
X117.414 Y160.538 F3048
X117.666 Y160.569 F3048
X117.914 Y160.625 F3048
X118.155 Y160.703 F3048
X118.388 Y160.804 F3048
X118.61 Y160.927 F3048
X118.82 Y161.07 F3048
X119.015 Y161.233 F3048
X119.194 Y161.414 F3048
X119.354 Y161.61 F3048
X119.548 Y161.9 F3048
X119.835 Y162.431 F3048
X119.995 Y162.811 F3048
X120.099 Y163.141 F3048
X120.164 Y163.45 F3048
X120.198 Y163.745 F3048
X120.204 Y164.032 F3048
X120.182 Y164.312 F3048
X120.135 Y164.586 F3048
X120.061 Y164.855 F3048
X119.962 Y165.117 F3048
X119.838 Y165.371 F3048
X119.751 Y165.511 F3048
X119.723 Y165.553 F3048
X119.69 Y165.592 F3048
X119.655 Y165.629 F3048
X119.31 Y165.951 F3048
X119.227 Y166.027 F3048
X119.196 Y166.048 F3048
X119.166 Y166.065 F3048
X118.424 Y166.45 F3048
X118.388 Y166.467 F3048
X118.351 Y166.479 F3048
X118.205 Y166.511 F3048
X117.622 Y166.632 F3048
X117.476 Y166.661 F3048
X117.439 Y166.665 F3048
X117.403 F3048
X116.6 Y166.611 F3048
X116.527 Y166.605 F3048
X116.491 Y166.598 F3048
X116.454 Y166.587 F3048
X115.652 Y166.302 F3048
X115.615 Y166.285 F3048
X115.579 Y166.265 F3048
X114.927 Y165.805 F3048
X114.849 Y165.748 F3048
X114.769 Y165.659 F3048
X114.265 Y165.04 F3048
X114.23 Y164.985 F3048
X114.205 Y164.93 F3048
X113.888 Y164.2 F3048
X113.862 Y164.127 F3048
X113.849 Y164.054 F3048
X113.739 Y163.251 F3048
X113.736 Y163.215 F3048
Y163.178 F3048
X113.754 Y163.032 F3048
X113.855 Y162.302 F3048
X113.863 Y162.266 F3048
X113.874 Y162.23 F3048
X114.223 Y161.427 F3048
X114.241 Y161.393 F3048
X114.265 Y161.359 F3048
X114.804 Y160.697 F3048
X114.849 Y160.65 F3048
X114.995 Y160.545 F3048
X115.579 Y160.133 F3048
X115.614 Y160.113 F3048
X115.725 Y160.07 F3048
X116.454 Y159.811 F3048
X116.491 Y159.8 F3048
X116.527 Y159.793 F3048
X117.038 Y159.757 F3048
X117.403 Y159.733 F3048
X117.439 F3048
X117.476 Y159.737 F3048
X117.768 Y159.796 F3048
X118.205 Y159.887 F3048
X118.351 Y159.919 F3048
X118.379 Y159.928 F3048
X118.406 Y159.939 F3048
X119.154 Y160.327 F3048
X119.19 Y160.347 F3048
X119.227 Y160.371 F3048
X119.265 Y160.405 F3048
X119.811 Y160.915 F3048
X119.888 Y160.989 F3048
X119.927 Y161.038 F3048
X120.341 Y161.719 F3048
X120.394 Y161.813 F3048
X120.413 Y161.865 F3048
X120.617 Y162.594 F3048
X120.652 Y162.74 F3048
X120.654 Y162.886 F3048
Y163.616 F3048
X120.653 Y163.653 F3048
X120.648 Y163.689 F3048
X120.629 Y163.762 F3048
X120.425 Y164.492 F3048
X120.394 Y164.585 F3048
X120.366 Y164.638 F3048
X119.956 Y165.312 F3048
X119.921 Y165.367 F3048
X119.899 Y165.396 F3048
X119.873 Y165.425 F3048
X119.655 Y165.629 F3048
( MOVEMENT_LEAD_OUT)
G3 X119.228 Y165.62 I-0.208 J-0.239 F3048
G1 X119.206 Y165.586 Z-1.775 F3048
X119.185 Y165.552 Z-1.767 F3048
X119.164 Y165.519 Z-1.754 F3048
X119.145 Y165.488 Z-1.736 F3048
X119.139 Y165.451 Z-1.71 F3048
X119.133 Y165.418 Z-1.68 F3048
X119.129 Y165.389 Z-1.645 F3048
X119.131 Y165.364 Z-1.603 F3048
X119.133 Y165.345 Z-1.558 F3048
X119.134 Y165.334 Z-1.51 F3048
Y165.33 Z-1.461 F3048
( MOVEMENT_CUTTING)
( Safe G1 --> G0)
G0 Z5 F300
( Safe G1 --> G0)
X116.427 Y161.825 F7500
G1 Z0.722 F3048
( MOVEMENT_RAMP_HELIX)
X116.526 Y161.773 Z0.718 F3048
X116.629 Y161.728 Z0.714 F3048
X116.735 Y161.691 Z0.71 F3048
X116.843 Y161.661 Z0.706 F3048
X116.953 Y161.639 Z0.702 F3048
X117.064 Y161.625 Z0.698 F3048
X117.176 Y161.619 Z0.695 F3048
X117.288 Y161.62 Z0.691 F3048
X117.4 Y161.63 Z0.687 F3048
X117.511 Y161.647 Z0.683 F3048
X117.62 Y161.673 Z0.679 F3048
X117.727 Y161.706 Z0.675 F3048
X117.832 Y161.746 Z0.671 F3048
X117.933 Y161.794 Z0.667 F3048
X118.031 Y161.849 Z0.663 F3048
X118.125 Y161.911 Z0.659 F3048
X118.214 Y161.979 Z0.655 F3048
X118.298 Y162.053 Z0.651 F3048
X118.376 Y162.133 Z0.648 F3048
X118.449 Y162.219 Z0.644 F3048
X118.515 Y162.309 Z0.64 F3048
X118.575 Y162.404 Z0.636 F3048
X118.628 Y162.503 Z0.632 F3048
X118.674 Y162.605 Z0.628 F3048
X118.712 Y162.71 Z0.624 F3048
X118.743 Y162.818 Z0.62 F3048
X118.766 Y162.928 Z0.616 F3048
X118.782 Y163.039 Z0.612 F3048
X118.789 Y163.151 Z0.608 F3048
Y163.263 Z0.604 F3048
X118.78 Y163.375 Z0.601 F3048
X118.764 Y163.485 Z0.597 F3048
X118.739 Y163.595 Z0.593 F3048
X118.708 Y163.702 Z0.589 F3048
X118.668 Y163.807 Z0.585 F3048
X118.621 Y163.909 Z0.581 F3048
X118.567 Y164.007 Z0.577 F3048
X118.507 Y164.101 Z0.573 F3048
X118.44 Y164.191 Z0.569 F3048
X118.366 Y164.275 Z0.565 F3048
X118.287 Y164.355 Z0.561 F3048
X118.202 Y164.428 Z0.557 F3048
X118.113 Y164.495 Z0.554 F3048
X118.019 Y164.556 Z0.55 F3048
X117.92 Y164.61 Z0.546 F3048
X117.818 Y164.657 Z0.542 F3048
X117.714 Y164.696 Z0.538 F3048
X117.606 Y164.728 Z0.534 F3048
X117.497 Y164.752 Z0.53 F3048
X117.386 Y164.768 Z0.526 F3048
X117.274 Y164.777 Z0.522 F3048
X117.162 Z0.518 F3048
X117.05 Y164.77 Z0.514 F3048
X116.94 Y164.755 Z0.51 F3048
X116.83 Y164.732 Z0.507 F3048
X116.722 Y164.701 Z0.503 F3048
X116.617 Y164.662 Z0.499 F3048
X116.515 Y164.617 Z0.495 F3048
X116.416 Y164.564 Z0.491 F3048
X116.322 Y164.504 Z0.487 F3048
X116.232 Y164.438 Z0.483 F3048
X116.146 Y164.365 Z0.479 F3048
X116.066 Y164.287 Z0.475 F3048
X115.992 Y164.203 Z0.471 F3048
X115.924 Y164.114 Z0.467 F3048
X115.863 Y164.021 Z0.463 F3048
X115.808 Y163.923 Z0.46 F3048
X115.76 Y163.822 Z0.456 F3048
X115.72 Y163.718 Z0.452 F3048
X115.687 Y163.611 Z0.448 F3048
X115.662 Y163.502 Z0.444 F3048
X115.645 Y163.391 Z0.44 F3048
X115.635 Y163.28 Z0.436 F3048
X115.633 Y163.168 Z0.432 F3048
X115.64 Y163.056 Z0.428 F3048
X115.654 Y162.945 Z0.424 F3048
X115.676 Y162.835 Z0.42 F3048
X115.706 Y162.727 Z0.416 F3048
X115.743 Y162.622 Z0.413 F3048
X115.788 Y162.519 Z0.409 F3048
X115.84 Y162.42 Z0.405 F3048
X115.899 Y162.325 Z0.401 F3048
X115.964 Y162.234 Z0.397 F3048
X116.036 Y162.148 Z0.393 F3048
X116.113 Y162.068 Z0.389 F3048
X116.196 Y161.993 Z0.385 F3048
X116.284 Y161.924 Z0.381 F3048
X116.377 Y161.862 Z0.377 F3048
X116.474 Y161.806 Z0.373 F3048
X116.574 Y161.758 Z0.369 F3048
X116.678 Y161.716 Z0.366 F3048
X116.785 Y161.682 Z0.362 F3048
X116.893 Y161.656 Z0.358 F3048
X117.004 Y161.638 Z0.354 F3048
X117.115 Y161.627 Z0.35 F3048
X117.227 Y161.624 Z0.346 F3048
X117.338 Y161.63 Z0.342 F3048
X117.449 Y161.643 Z0.338 F3048
X117.559 Y161.664 Z0.334 F3048
X117.667 Y161.692 Z0.33 F3048
X117.773 Y161.729 Z0.326 F3048
X117.876 Y161.772 Z0.322 F3048
X117.975 Y161.823 Z0.318 F3048
X118.071 Y161.881 Z0.315 F3048
X118.162 Y161.946 Z0.311 F3048
X118.249 Y162.016 Z0.307 F3048
X118.33 Y162.093 Z0.303 F3048
X118.405 Y162.175 Z0.299 F3048
X118.475 Y162.263 Z0.295 F3048
X118.538 Y162.355 Z0.291 F3048
X118.595 Y162.451 Z0.287 F3048
X118.644 Y162.551 Z0.283 F3048
X118.687 Y162.655 Z0.279 F3048
X118.722 Y162.761 Z0.275 F3048
X118.749 Y162.869 Z0.271 F3048
X118.768 Y162.979 Z0.268 F3048
X118.78 Y163.09 Z0.264 F3048
X118.784 Y163.201 Z0.26 F3048
X118.78 Y163.313 Z0.256 F3048
X118.768 Y163.424 Z0.252 F3048
X118.748 Y163.534 Z0.248 F3048
X118.72 Y163.642 Z0.244 F3048
X118.685 Y163.748 Z0.24 F3048
X118.642 Y163.851 Z0.236 F3048
X118.593 Y163.951 Z0.232 F3048
X118.536 Y164.047 Z0.228 F3048
X118.472 Y164.139 Z0.224 F3048
X118.402 Y164.226 Z0.221 F3048
X118.327 Y164.308 Z0.217 F3048
X118.245 Y164.384 Z0.213 F3048
X118.159 Y164.454 Z0.209 F3048
X118.067 Y164.518 Z0.205 F3048
X117.971 Y164.576 Z0.201 F3048
X117.872 Y164.626 Z0.197 F3048
X117.769 Y164.67 Z0.193 F3048
X117.663 Y164.706 Z0.189 F3048
X117.555 Y164.734 Z0.185 F3048
X117.446 Y164.754 Z0.181 F3048
X117.335 Y164.767 Z0.177 F3048
X117.223 Y164.772 Z0.174 F3048
X117.112 Y164.769 Z0.17 F3048
X117.001 Y164.758 Z0.166 F3048
X116.891 Y164.739 Z0.162 F3048
X116.783 Y164.713 Z0.158 F3048
X116.677 Y164.679 Z0.154 F3048
X116.573 Y164.637 Z0.15 F3048
X116.473 Y164.588 Z0.146 F3048
X116.376 Y164.532 Z0.142 F3048
X116.284 Y164.47 Z0.138 F3048
X116.196 Y164.401 Z0.134 F3048
X116.114 Y164.326 Z0.13 F3048
X116.037 Y164.246 Z0.127 F3048
X115.966 Y164.16 Z0.123 F3048
X115.901 Y164.069 Z0.119 F3048
X115.843 Y163.974 Z0.115 F3048
X115.791 Y163.875 Z0.111 F3048
X115.747 Y163.773 Z0.107 F3048
X115.71 Y163.668 Z0.103 F3048
X115.681 Y163.56 Z0.099 F3048
X115.659 Y163.451 Z0.095 F3048
X115.645 Y163.34 Z0.091 F3048
X115.639 Y163.229 Z0.087 F3048
X115.641 Y163.117 Z0.083 F3048
X115.651 Y163.006 Z0.08 F3048
X115.669 Y162.896 Z0.076 F3048
X115.694 Y162.788 Z0.072 F3048
X115.727 Y162.681 Z0.068 F3048
X115.768 Y162.577 Z0.064 F3048
X115.816 Y162.477 Z0.06 F3048
X115.871 Y162.38 Z0.056 F3048
X115.932 Y162.287 Z0.052 F3048
X116 Y162.199 Z0.048 F3048
X116.074 Y162.116 Z0.044 F3048
X116.154 Y162.038 Z0.04 F3048
X116.239 Y161.966 Z0.036 F3048
X116.329 Y161.9 Z0.033 F3048
X116.423 Y161.841 Z0.029 F3048
X116.521 Y161.789 Z0.025 F3048
X116.623 Y161.744 Z0.021 F3048
X116.728 Y161.706 Z0.017 F3048
X116.835 Y161.676 Z0.013 F3048
X116.944 Y161.653 Z0.009 F3048
X117.054 Y161.638 Z0.005 F3048
X117.166 Y161.631 Z0.001 F3048
X117.277 Y161.632 Z-0.003 F3048
X117.388 Y161.641 Z-0.007 F3048
X117.498 Y161.657 Z-0.011 F3048
X117.607 Y161.682 Z-0.015 F3048
X117.713 Y161.714 Z-0.018 F3048
X117.817 Y161.753 Z-0.022 F3048
X117.918 Y161.8 Z-0.026 F3048
X118.016 Y161.854 Z-0.03 F3048
X118.109 Y161.914 Z-0.034 F3048
X118.198 Y161.982 Z-0.038 F3048
X118.282 Y162.055 Z-0.042 F3048
X118.361 Y162.134 Z-0.046 F3048
X118.433 Y162.218 Z-0.05 F3048
X118.5 Y162.307 Z-0.054 F3048
X118.56 Y162.401 Z-0.058 F3048
X118.613 Y162.499 Z-0.062 F3048
X118.659 Y162.6 Z-0.065 F3048
X118.698 Y162.704 Z-0.069 F3048
X118.729 Y162.811 Z-0.073 F3048
X118.753 Y162.919 Z-0.077 F3048
X118.769 Y163.029 Z-0.081 F3048
X118.777 Y163.14 Z-0.085 F3048
Y163.251 Z-0.089 F3048
X118.769 Y163.362 Z-0.093 F3048
X118.754 Y163.473 Z-0.097 F3048
X118.73 Y163.581 Z-0.101 F3048
X118.699 Y163.688 Z-0.105 F3048
X118.661 Y163.792 Z-0.109 F3048
X118.615 Y163.894 Z-0.112 F3048
X118.562 Y163.992 Z-0.116 F3048
X118.503 Y164.086 Z-0.12 F3048
X118.437 Y164.175 Z-0.124 F3048
X118.364 Y164.259 Z-0.128 F3048
X118.286 Y164.339 Z-0.132 F3048
X118.203 Y164.412 Z-0.136 F3048
X118.114 Y164.479 Z-0.14 F3048
X118.021 Y164.54 Z-0.144 F3048
X117.924 Y164.594 Z-0.148 F3048
X117.823 Y164.641 Z-0.152 F3048
X117.719 Y164.681 Z-0.156 F3048
X117.613 Y164.714 Z-0.159 F3048
X117.505 Y164.738 Z-0.163 F3048
X117.395 Y164.755 Z-0.167 F3048
X117.284 Y164.764 Z-0.171 F3048
X117.173 Y164.766 Z-0.175 F3048
X117.062 Y164.759 Z-0.179 F3048
X116.952 Y164.745 Z-0.183 F3048
X116.843 Y164.722 Z-0.187 F3048
X116.736 Y164.693 Z-0.191 F3048
X116.632 Y164.655 Z-0.195 F3048
X116.53 Y164.61 Z-0.199 F3048
X116.432 Y164.559 Z-0.203 F3048
X116.338 Y164.5 Z-0.206 F3048
X116.248 Y164.435 Z-0.21 F3048
X116.163 Y164.363 Z-0.214 F3048
X116.083 Y164.286 Z-0.218 F3048
X116.009 Y164.203 Z-0.222 F3048
X115.94 Y164.116 Z-0.226 F3048
X115.879 Y164.023 Z-0.23 F3048
X115.824 Y163.927 Z-0.234 F3048
X115.776 Y163.827 Z-0.238 F3048
X115.735 Y163.723 Z-0.242 F3048
X115.702 Y163.617 Z-0.246 F3048
X115.676 Y163.509 Z-0.25 F3048
X115.658 Y163.4 Z-0.253 F3048
X115.648 Y163.289 Z-0.257 F3048
X115.645 Y163.178 Z-0.261 F3048
X115.651 Y163.067 Z-0.265 F3048
X115.664 Y162.957 Z-0.269 F3048
X115.685 Y162.848 Z-0.273 F3048
X115.714 Y162.741 Z-0.277 F3048
X115.75 Y162.636 Z-0.281 F3048
X115.794 Y162.534 Z-0.285 F3048
X115.845 Y162.436 Z-0.289 F3048
X115.903 Y162.341 Z-0.293 F3048
X115.967 Y162.25 Z-0.297 F3048
X116.037 Y162.165 Z-0.3 F3048
X116.114 Y162.084 Z-0.304 F3048
X116.195 Y162.009 Z-0.308 F3048
X116.282 Y161.94 Z-0.312 F3048
X116.374 Y161.878 Z-0.316 F3048
X116.47 Y161.822 Z-0.32 F3048
X116.57 Y161.773 Z-0.324 F3048
X116.672 Y161.731 Z-0.328 F3048
X116.778 Y161.697 Z-0.332 F3048
X116.885 Y161.67 Z-0.336 F3048
X116.995 Y161.651 Z-0.34 F3048
X117.105 Y161.64 Z-0.344 F3048
X117.216 Y161.637 Z-0.348 F3048
X117.327 Y161.641 Z-0.351 F3048
X117.437 Y161.653 Z-0.355 F3048
X117.546 Y161.673 Z-0.359 F3048
X117.654 Y161.701 Z-0.363 F3048
X117.759 Y161.736 Z-0.367 F3048
X117.861 Y161.779 Z-0.371 F3048
X117.96 Y161.829 Z-0.375 F3048
X118.056 Y161.886 Z-0.379 F3048
X118.147 Y161.949 Z-0.383 F3048
X118.233 Y162.018 Z-0.387 F3048
X118.314 Y162.094 Z-0.391 F3048
X118.389 Y162.175 Z-0.395 F3048
X118.459 Y162.261 Z-0.398 F3048
X118.522 Y162.352 Z-0.402 F3048
X118.579 Y162.447 Z-0.406 F3048
X118.629 Y162.546 Z-0.41 F3048
X118.672 Y162.649 Z-0.414 F3048
X118.707 Y162.754 Z-0.418 F3048
X118.735 Y162.861 Z-0.422 F3048
X118.755 Y162.97 Z-0.426 F3048
X118.767 Y163.08 Z-0.43 F3048
X118.772 Y163.191 Z-0.434 F3048
X118.768 Y163.301 Z-0.438 F3048
X118.757 Y163.412 Z-0.442 F3048
X118.738 Y163.521 Z-0.445 F3048
X118.711 Y163.628 Z-0.449 F3048
X118.677 Y163.734 Z-0.453 F3048
X118.636 Y163.836 Z-0.457 F3048
X118.587 Y163.936 Z-0.461 F3048
X118.531 Y164.032 Z-0.465 F3048
X118.469 Y164.123 Z-0.469 F3048
X118.4 Y164.21 Z-0.473 F3048
X118.325 Y164.292 Z-0.477 F3048
X118.245 Y164.368 Z-0.481 F3048
X118.159 Y164.439 Z-0.485 F3048
X118.069 Y164.503 Z-0.489 F3048
X117.975 Y164.56 Z-0.492 F3048
X117.876 Y164.611 Z-0.496 F3048
X117.775 Y164.655 Z-0.5 F3048
X117.67 Y164.691 Z-0.504 F3048
X117.563 Y164.72 Z-0.508 F3048
X117.455 Y164.741 Z-0.512 F3048
X117.345 Y164.754 Z-0.516 F3048
X117.234 Y164.76 Z-0.52 F3048
X117.124 Y164.758 Z-0.524 F3048
X117.013 Y164.748 Z-0.528 F3048
X116.904 Y164.73 Z-0.532 F3048
X116.796 Y164.704 Z-0.536 F3048
X116.691 Y164.671 Z-0.539 F3048
X116.588 Y164.63 Z-0.543 F3048
X116.488 Y164.582 Z-0.547 F3048
X116.392 Y164.528 Z-0.551 F3048
X116.3 Y164.466 Z-0.555 F3048
X116.212 Y164.399 Z-0.559 F3048
X116.13 Y164.325 Z-0.563 F3048
X116.053 Y164.245 Z-0.567 F3048
X115.982 Y164.161 Z-0.571 F3048
X115.917 Y164.071 Z-0.575 F3048
X115.858 Y163.977 Z-0.579 F3048
X115.807 Y163.879 Z-0.583 F3048
X115.762 Y163.778 Z-0.586 F3048
X115.725 Y163.674 Z-0.59 F3048
X115.695 Y163.567 Z-0.594 F3048
X115.673 Y163.459 Z-0.598 F3048
X115.658 Y163.349 Z-0.602 F3048
X115.652 Y163.239 Z-0.606 F3048
X115.653 Y163.128 Z-0.61 F3048
X115.662 Y163.018 Z-0.614 F3048
X115.679 Y162.909 Z-0.618 F3048
X115.703 Y162.801 Z-0.622 F3048
X115.735 Y162.695 Z-0.626 F3048
X115.775 Y162.592 Z-0.63 F3048
X115.822 Y162.492 Z-0.633 F3048
X115.875 Y162.395 Z-0.637 F3048
X115.936 Y162.303 Z-0.641 F3048
X116.003 Y162.215 Z-0.645 F3048
X116.075 Y162.132 Z-0.649 F3048
X116.154 Y162.054 Z-0.653 F3048
X116.238 Y161.982 Z-0.657 F3048
X116.327 Y161.916 Z-0.661 F3048
X116.42 Y161.857 Z-0.665 F3048
X116.517 Y161.805 Z-0.669 F3048
X116.618 Y161.759 Z-0.673 F3048
X116.722 Y161.721 Z-0.677 F3048
X116.828 Y161.69 Z-0.68 F3048
X116.936 Y161.667 Z-0.684 F3048
X117.045 Y161.651 Z-0.688 F3048
X117.156 Y161.643 Z-0.692 F3048
X117.266 Y161.644 Z-0.696 F3048
X117.376 Y161.652 Z-0.7 F3048
X117.486 Y161.667 Z-0.704 F3048
X117.594 Y161.691 Z-0.708 F3048
X117.7 Y161.722 Z-0.712 F3048
X117.803 Y161.76 Z-0.716 F3048
X117.904 Y161.806 Z-0.72 F3048
X118.001 Y161.859 Z-0.724 F3048
X118.094 Y161.918 Z-0.728 F3048
X118.182 Y161.984 Z-0.731 F3048
X118.266 Y162.056 Z-0.735 F3048
X118.344 Y162.134 Z-0.739 F3048
X118.417 Y162.217 Z-0.743 F3048
X118.483 Y162.305 Z-0.747 F3048
X118.544 Y162.398 Z-0.751 F3048
X118.597 Y162.494 Z-0.755 F3048
X118.643 Y162.594 Z-0.759 F3048
X118.683 Y162.698 Z-0.763 F3048
X118.715 Y162.803 Z-0.767 F3048
X118.739 Y162.911 Z-0.771 F3048
X118.755 Y163.02 Z-0.775 F3048
X118.764 Y163.13 Z-0.778 F3048
X118.765 Y163.241 Z-0.782 F3048
X118.758 Y163.351 Z-0.786 F3048
X118.743 Y163.46 Z-0.79 F3048
X118.721 Y163.568 Z-0.794 F3048
X118.691 Y163.675 Z-0.798 F3048
X118.654 Y163.778 Z-0.802 F3048
X118.609 Y163.879 Z-0.806 F3048
X118.557 Y163.977 Z-0.81 F3048
X118.498 Y164.07 Z-0.814 F3048
X118.434 Y164.16 Z-0.818 F3048
X118.362 Y164.244 Z-0.822 F3048
X118.285 Y164.323 Z-0.825 F3048
X118.203 Y164.396 Z-0.829 F3048
X118.116 Y164.463 Z-0.833 F3048
X118.024 Y164.524 Z-0.837 F3048
X117.928 Y164.579 Z-0.841 F3048
X117.828 Y164.626 Z-0.845 F3048
X117.726 Y164.666 Z-0.849 F3048
X117.62 Y164.699 Z-0.853 F3048
X117.513 Y164.724 Z-0.857 F3048
X117.404 Y164.742 Z-0.861 F3048
X117.294 Y164.752 Z-0.865 F3048
X117.184 Y164.754 Z-0.869 F3048
X117.074 Y164.748 Z-0.872 F3048
X116.965 Y164.734 Z-0.876 F3048
X116.857 Y164.713 Z-0.88 F3048
X116.75 Y164.684 Z-0.884 F3048
X116.646 Y164.648 Z-0.888 F3048
X116.545 Y164.604 Z-0.892 F3048
X116.447 Y164.553 Z-0.896 F3048
X116.353 Y164.496 Z-0.9 F3048
X116.263 Y164.432 Z-0.904 F3048
X116.178 Y164.361 Z-0.908 F3048
X116.099 Y164.285 Z-0.912 F3048
X116.024 Y164.203 Z-0.916 F3048
X115.956 Y164.117 Z-0.919 F3048
X115.894 Y164.026 Z-0.923 F3048
X115.839 Y163.93 Z-0.927 F3048
X115.791 Y163.831 Z-0.931 F3048
X115.75 Y163.729 Z-0.935 F3048
X115.716 Y163.624 Z-0.939 F3048
X115.69 Y163.517 Z-0.943 F3048
X115.671 Y163.409 Z-0.947 F3048
X115.66 Y163.299 Z-0.951 F3048
X115.657 Y163.189 Z-0.955 F3048
X115.662 Y163.079 Z-0.959 F3048
X115.674 Y162.97 Z-0.963 F3048
X115.695 Y162.861 Z-0.966 F3048
X115.723 Y162.755 Z-0.97 F3048
X115.758 Y162.651 Z-0.974 F3048
X115.801 Y162.549 Z-0.978 F3048
X115.85 Y162.451 Z-0.982 F3048
X115.907 Y162.356 Z-0.986 F3048
X115.97 Y162.266 Z-0.99 F3048
X116.039 Y162.181 Z-0.994 F3048
X116.115 Y162.1 Z-0.998 F3048
X116.196 Y162.025 Z-1.002 F3048
X116.281 Y161.956 Z-1.006 F3048
X116.372 Y161.894 Z-1.01 F3048
X116.467 Y161.838 Z-1.013 F3048
X116.565 Y161.788 Z-1.017 F3048
X116.667 Y161.746 Z-1.021 F3048
X116.771 Y161.712 Z-1.025 F3048
X116.878 Y161.684 Z-1.029 F3048
X116.987 Y161.665 Z-1.033 F3048
X117.096 Y161.653 Z-1.037 F3048
X117.206 Y161.649 Z-1.041 F3048
X117.316 Y161.652 Z-1.045 F3048
X117.425 Y161.664 Z-1.049 F3048
X117.533 Y161.683 Z-1.053 F3048
X117.64 Y161.71 Z-1.057 F3048
X117.745 Y161.744 Z-1.06 F3048
X117.846 Y161.786 Z-1.064 F3048
X117.945 Y161.834 Z-1.068 F3048
X118.04 Y161.89 Z-1.072 F3048
X118.131 Y161.952 Z-1.076 F3048
X118.217 Y162.021 Z-1.08 F3048
X118.298 Y162.095 Z-1.084 F3048
X118.373 Y162.175 Z-1.088 F3048
X118.443 Y162.26 Z-1.092 F3048
X118.506 Y162.35 Z-1.096 F3048
X118.563 Y162.444 Z-1.1 F3048
X118.613 Y162.542 Z-1.104 F3048
X118.656 Y162.643 Z-1.108 F3048
X118.692 Y162.747 Z-1.111 F3048
X118.721 Y162.853 Z-1.115 F3048
X118.741 Y162.961 Z-1.119 F3048
X118.754 Y163.071 Z-1.123 F3048
X118.759 Y163.18 Z-1.127 F3048
X118.757 Y163.29 Z-1.131 F3048
X118.746 Y163.4 Z-1.135 F3048
X118.728 Y163.508 Z-1.139 F3048
X118.703 Y163.615 Z-1.143 F3048
X118.669 Y163.72 Z-1.147 F3048
X118.629 Y163.822 Z-1.151 F3048
X118.581 Y163.921 Z-1.155 F3048
X118.526 Y164.016 Z-1.158 F3048
X118.465 Y164.108 Z-1.162 F3048
X118.398 Y164.194 Z-1.166 F3048
X118.324 Y164.276 Z-1.17 F3048
X118.245 Y164.352 Z-1.174 F3048
X118.161 Y164.422 Z-1.178 F3048
X118.072 Y164.487 Z-1.182 F3048
X117.978 Y164.545 Z-1.186 F3048
X117.881 Y164.596 Z-1.19 F3048
X117.78 Y164.639 Z-1.194 F3048
X117.677 Y164.676 Z-1.198 F3048
X117.571 Y164.706 Z-1.202 F3048
X117.463 Y164.727 Z-1.205 F3048
X117.354 Y164.741 Z-1.209 F3048
X117.244 Y164.748 Z-1.213 F3048
X117.135 Y164.746 Z-1.217 F3048
X117.025 Y164.737 Z-1.221 F3048
X116.917 Y164.72 Z-1.225 F3048
X116.81 Y164.695 Z-1.229 F3048
X116.705 Y164.663 Z-1.233 F3048
X116.602 Y164.623 Z-1.237 F3048
X116.503 Y164.576 Z-1.241 F3048
X116.407 Y164.523 Z-1.245 F3048
X116.315 Y164.462 Z-1.249 F3048
X116.228 Y164.396 Z-1.252 F3048
X116.146 Y164.323 Z-1.256 F3048
X116.069 Y164.245 Z-1.26 F3048
X115.998 Y164.161 Z-1.264 F3048
X115.932 Y164.073 Z-1.268 F3048
X115.874 Y163.98 Z-1.272 F3048
X115.822 Y163.883 Z-1.276 F3048
X115.777 Y163.783 Z-1.28 F3048
X115.739 Y163.68 Z-1.284 F3048
X115.709 Y163.575 Z-1.288 F3048
X115.686 Y163.467 Z-1.292 F3048
X115.671 Y163.359 Z-1.296 F3048
X115.664 Y163.249 Z-1.299 F3048
Y163.14 Z-1.303 F3048
X115.673 Y163.03 Z-1.307 F3048
X115.689 Y162.922 Z-1.311 F3048
X115.712 Y162.815 Z-1.315 F3048
X115.743 Y162.709 Z-1.319 F3048
X115.782 Y162.607 Z-1.323 F3048
X115.828 Y162.507 Z-1.327 F3048
X115.88 Y162.411 Z-1.331 F3048
X115.94 Y162.318 Z-1.335 F3048
X116.006 Y162.231 Z-1.339 F3048
X116.077 Y162.148 Z-1.343 F3048
X116.155 Y162.07 Z-1.346 F3048
X116.238 Y161.998 Z-1.35 F3048
X116.325 Y161.932 Z-1.354 F3048
X116.418 Y161.873 Z-1.358 F3048
X116.514 Y161.82 Z-1.362 F3048
X116.613 Y161.774 Z-1.366 F3048
X116.716 Y161.735 Z-1.37 F3048
X116.821 Y161.704 Z-1.374 F3048
X116.928 Y161.68 Z-1.378 F3048
X117.036 Y161.664 Z-1.382 F3048
X117.146 Y161.656 Z-1.386 F3048
X117.255 Y161.655 Z-1.39 F3048
X117.364 Y161.662 Z-1.393 F3048
X117.473 Y161.677 Z-1.397 F3048
X117.58 Y161.7 Z-1.401 F3048
X117.686 Y161.73 Z-1.405 F3048
X117.789 Y161.767 Z-1.409 F3048
X117.889 Y161.812 Z-1.413 F3048
X117.985 Y161.864 Z-1.417 F3048
X118.078 Y161.922 Z-1.421 F3048
X118.166 Y161.987 Z-1.425 F3048
X118.25 Y162.058 Z-1.429 F3048
X118.328 Y162.135 Z-1.433 F3048
X118.401 Y162.217 Z-1.437 F3048
X118.467 Y162.304 Z-1.441 F3048
X118.528 Y162.395 Z-1.444 F3048
X118.581 Y162.491 Z-1.448 F3048
X118.628 Y162.59 Z-1.452 F3048
X118.668 Y162.692 Z-1.456 F3048
X118.7 Y162.797 Z-1.46 F3048
X118.725 Y162.903 Z-1.464 F3048
X118.742 Y163.012 Z-1.468 F3048
X118.752 Y163.121 Z-1.472 F3048
X118.753 Y163.23 Z-1.476 F3048
X118.747 Y163.34 Z-1.48 F3048
X118.733 Y163.448 Z-1.484 F3048
X118.712 Y163.555 Z-1.488 F3048
X118.683 Y163.661 Z-1.491 F3048
X118.646 Y163.764 Z-1.495 F3048
X118.603 Y163.865 Z-1.499 F3048
X118.552 Y163.962 Z-1.503 F3048
X118.495 Y164.055 Z-1.507 F3048
X118.431 Y164.144 Z-1.511 F3048
X118.361 Y164.228 Z-1.515 F3048
X118.285 Y164.307 Z-1.519 F3048
X118.204 Y164.38 Z-1.523 F3048
X118.117 Y164.447 Z-1.527 F3048
X118.027 Y164.508 Z-1.531 F3048
X117.932 Y164.563 Z-1.535 F3048
X117.833 Y164.611 Z-1.538 F3048
X117.732 Y164.651 Z-1.542 F3048
X117.627 Y164.685 Z-1.546 F3048
X117.521 Y164.71 Z-1.55 F3048
X117.413 Y164.729 Z-1.554 F3048
X117.304 Y164.739 Z-1.558 F3048
X117.195 Y164.742 Z-1.562 F3048
X117.085 Y164.737 Z-1.566 F3048
X116.977 Y164.724 Z-1.57 F3048
X116.869 Y164.703 Z-1.574 F3048
X116.763 Y164.675 Z-1.578 F3048
X116.66 Y164.64 Z-1.582 F3048
X116.559 Y164.597 Z-1.585 F3048
X116.462 Y164.548 Z-1.589 F3048
X116.368 Y164.491 Z-1.593 F3048
X116.279 Y164.428 Z-1.597 F3048
X116.194 Y164.359 Z-1.601 F3048
X116.114 Y164.284 Z-1.605 F3048
X116.04 Y164.204 Z-1.609 F3048
X115.972 Y164.118 Z-1.613 F3048
X115.91 Y164.028 Z-1.617 F3048
X115.855 Y163.934 Z-1.621 F3048
X115.806 Y163.836 Z-1.625 F3048
X115.765 Y163.735 Z-1.629 F3048
X115.731 Y163.631 Z-1.632 F3048
X115.704 Y163.525 Z-1.636 F3048
X115.685 Y163.418 Z-1.64 F3048
X115.673 Y163.309 Z-1.644 F3048
X115.669 Y163.2 Z-1.648 F3048
X115.673 Y163.09 Z-1.652 F3048
X115.685 Y162.982 Z-1.656 F3048
X115.704 Y162.874 Z-1.66 F3048
X115.731 Y162.768 Z-1.664 F3048
X115.766 Y162.664 Z-1.668 F3048
X115.807 Y162.563 Z-1.672 F3048
X115.856 Y162.466 Z-1.676 F3048
X115.912 Y162.371 Z-1.679 F3048
X115.974 Y162.281 Z-1.683 F3048
X116.042 Y162.196 Z-1.687 F3048
X116.116 Y162.116 Z-1.691 F3048
X116.196 Y162.041 Z-1.695 F3048
X116.28 Y161.972 Z-1.699 F3048
X116.37 Y161.909 Z-1.703 F3048
X116.463 Y161.853 Z-1.707 F3048
X116.561 Y161.804 Z-1.711 F3048
X116.661 Y161.761 Z-1.715 F3048
X116.765 Y161.726 Z-1.719 F3048
X116.87 Y161.698 Z-1.723 F3048
X116.978 Y161.678 Z-1.726 F3048
X117.086 Y161.666 Z-1.73 F3048
X117.195 Y161.661 Z-1.734 F3048
X117.304 Y161.664 Z-1.738 F3048
X117.413 Y161.674 Z-1.742 F3048
X117.52 Y161.693 Z-1.746 F3048
X117.627 Y161.718 Z-1.75 F3048
X117.73 Y161.752 Z-1.754 F3048
X117.832 Y161.792 Z-1.758 F3048
X117.93 Y161.84 Z-1.762 F3048
X118.025 Y161.895 Z-1.766 F3048
X118.115 Y161.956 Z-1.77 F3048
X118.201 Y162.023 Z-1.774 F3048
X118.282 Y162.097 Z-1.777 F3048
X118.357 Y162.175 Z-1.781 F3048
X118.427 Y162.259 Z-1.785 F3048
X118.491 Y162.348 Z-1.789 F3048
X118.548 Y162.441 Z-1.793 F3048
X118.598 Y162.538 Z-1.797 F3048
X118.642 Y162.638 Z-1.801 F3048
X118.678 Y162.741 Z-1.805 F3048
X118.707 Y162.846 Z-1.809 F3048
X118.728 Y162.953 Z-1.813 F3048
X118.741 Y163.061 Z-1.817 F3048
X118.747 Y163.17 Z-1.821 F3048
X118.745 Y163.279 Z-1.824 F3048
X118.736 Y163.388 Z-1.828 F3048
X118.719 Y163.496 Z-1.832 F3048
X118.694 Y163.602 Z-1.836 F3048
X118.661 Y163.706 Z-1.84 F3048
X118.622 Y163.807 Z-1.844 F3048
X118.575 Y163.906 Z-1.848 F3048
X118.522 Y164.001 Z-1.852 F3048
X118.461 Y164.092 Z-1.856 F3048
X118.395 Y164.178 Z-1.86 F3048
X118.323 Y164.26 Z-1.864 F3048
X118.245 Y164.336 Z-1.868 F3048
X118.161 Y164.406 Z-1.871 F3048
X118.073 Y164.471 Z-1.875 F3048
X117.981 Y164.529 Z-1.879 F3048
X117.885 Y164.58 Z-1.883 F3048
X117.785 Y164.624 Z-1.887 F3048
X117.683 Y164.662 Z-1.891 F3048
X117.578 Y164.691 Z-1.895 F3048
X117.471 Y164.714 Z-1.899 F3048
X117.363 Y164.728 Z-1.903 F3048
X117.254 Y164.735 Z-1.907 F3048
X117.145 Y164.734 Z-1.911 F3048
X117.037 Y164.726 Z-1.915 F3048
X116.929 Y164.71 Z-1.918 F3048
X116.823 Y164.686 Z-1.922 F3048
X116.718 Y164.655 Z-1.926 F3048
X116.616 Y164.616 Z-1.93 F3048
X116.518 Y164.57 Z-1.934 F3048
X116.422 Y164.518 Z-1.938 F3048
X116.331 Y164.459 Z-1.942 F3048
X116.244 Y164.393 Z-1.946 F3048
X116.162 Y164.322 Z-1.95 F3048
X116.085 Y164.244 Z-1.954 F3048
X116.014 Y164.162 Z-1.958 F3048
X115.949 Y164.075 Z-1.962 F3048
X115.89 Y163.983 Z-1.965 F3048
X115.838 Y163.887 Z-1.969 F3048
X115.792 Y163.788 Z-1.973 F3048
X115.754 Y163.686 Z-1.977 F3048
X115.724 Y163.582 Z-1.981 F3048
X115.7 Y163.476 Z-1.985 F3048
X115.685 Y163.368 Z-1.989 F3048
X115.677 Y163.259 Z-1.993 F3048
X115.676 Y163.15 Z-1.997 F3048
X115.684 Y163.042 Z-2.001 F3048
X115.699 Y162.934 Z-2.005 F3048
X115.722 Y162.827 Z-2.009 F3048
X115.752 Y162.723 Z-2.012 F3048
X115.789 Y162.62 Z-2.016 F3048
X115.834 Y162.521 Z-2.02 F3048
X115.886 Y162.425 Z-2.024 F3048
X115.944 Y162.334 Z-2.028 F3048
X116.009 Y162.246 Z-2.032 F3048
X116.079 Y162.163 Z-2.036 F3048
X116.156 Y162.086 Z-2.04 F3048
X116.237 Y162.014 Z-2.044 F3048
X116.324 Y161.948 Z-2.048 F3048
X116.415 Y161.888 Z-2.052 F3048
X116.51 Y161.835 Z-2.056 F3048
X116.608 Y161.789 Z-2.059 F3048
X116.71 Y161.75 Z-2.063 F3048
X116.814 Y161.719 Z-2.067 F3048
X116.92 Y161.694 Z-2.071 F3048
X117.027 Y161.678 Z-2.075 F3048
X117.136 Y161.669 Z-2.079 F3048
X117.244 Y161.667 Z-2.083 F3048
X117.353 Y161.674 Z-2.087 F3048
X117.461 Y161.688 Z-2.091 F3048
X117.567 Y161.709 Z-2.095 F3048
X117.672 Y161.738 Z-2.099 F3048
X117.775 Y161.775 Z-2.103 F3048
X117.874 Y161.819 Z-2.106 F3048
X117.97 Y161.869 Z-2.11 F3048
X118.063 Y161.927 Z-2.114 F3048
X118.151 Y161.99 Z-2.118 F3048
X118.234 Y162.06 Z-2.122 F3048
X118.313 Y162.136 Z-2.126 F3048
X118.385 Y162.217 Z-2.13 F3048
X118.452 Y162.303 Z-2.134 F3048
X118.512 Y162.393 Z-2.138 F3048
X118.566 Y162.487 Z-2.142 F3048
X118.613 Y162.585 Z-2.146 F3048
X118.653 Y162.686 Z-2.15 F3048
X118.686 Y162.79 Z-2.154 F3048
X118.711 Y162.895 Z-2.157 F3048
X118.729 Y163.003 Z-2.161 F3048
X118.739 Y163.111 Z-2.165 F3048
X118.741 Y163.219 Z-2.169 F3048
X118.736 Y163.328 Z-2.173 F3048
X118.723 Y163.436 Z-2.177 F3048
X118.702 Y163.542 Z-2.181 F3048
X118.674 Y163.647 Z-2.185 F3048
X118.639 Y163.75 Z-2.189 F3048
X118.596 Y163.85 Z-2.193 F3048
X118.546 Y163.946 Z-2.197 F3048
X118.49 Y164.039 Z-2.201 F3048
X118.427 Y164.128 Z-2.204 F3048
X118.358 Y164.212 Z-2.208 F3048
X118.284 Y164.291 Z-2.212 F3048
X118.203 Y164.364 Z-2.216 F3048
X118.118 Y164.432 Z-2.22 F3048
X118.029 Y164.493 Z-2.224 F3048
X117.935 Y164.548 Z-2.228 F3048
X117.837 Y164.596 Z-2.232 F3048
X117.737 Y164.637 Z-2.236 F3048
X117.633 Y164.67 Z-2.24 F3048
X117.528 Y164.697 Z-2.244 F3048
X117.421 Y164.715 Z-2.248 F3048
X117.313 Y164.726 Z-2.251 F3048
X117.205 Y164.73 Z-2.255 F3048
X117.097 Y164.726 Z-2.259 F3048
X116.989 Y164.714 Z-2.263 F3048
X116.882 Y164.694 Z-2.267 F3048
X116.777 Y164.667 Z-2.271 F3048
X116.674 Y164.633 Z-2.275 F3048
X116.574 Y164.591 Z-2.279 F3048
X116.477 Y164.542 Z-2.283 F3048
X116.384 Y164.487 Z-2.287 F3048
X116.295 Y164.425 Z-2.291 F3048
X116.21 Y164.357 Z-2.295 F3048
X116.131 Y164.283 Z-2.298 F3048
X116.057 Y164.204 Z-2.302 F3048
X115.988 Y164.119 Z-2.306 F3048
X115.926 Y164.03 Z-2.31 F3048
X115.871 Y163.937 Z-2.314 F3048
X115.822 Y163.84 Z-2.318 F3048
X115.78 Y163.74 Z-2.322 F3048
X115.745 Y163.637 Z-2.326 F3048
X115.718 Y163.532 Z-2.33 F3048
X115.698 Y163.426 Z-2.334 F3048
X115.686 Y163.318 Z-2.338 F3048
X115.681 Y163.21 Z-2.342 F3048
X115.685 Y163.101 Z-2.345 F3048
X115.696 Y162.993 Z-2.349 F3048
X115.714 Y162.886 Z-2.353 F3048
X115.74 Y162.781 Z-2.357 F3048
X115.773 Y162.678 Z-2.361 F3048
X115.814 Y162.578 Z-2.365 F3048
X115.862 Y162.48 Z-2.369 F3048
X115.916 Y162.387 Z-2.373 F3048
X115.977 Y162.297 Z-2.377 F3048
X116.044 Y162.212 Z-2.381 F3048
X116.117 Y162.132 Z-2.385 F3048
X116.196 Y162.057 Z-2.389 F3048
X116.279 Y161.988 Z-2.392 F3048
X116.368 Y161.925 Z-2.396 F3048
X116.46 Y161.869 Z-2.4 F3048
X116.556 Y161.819 Z-2.404 F3048
X116.656 Y161.776 Z-2.408 F3048
X116.758 Y161.741 Z-2.412 F3048
X116.863 Y161.713 Z-2.416 F3048
X116.969 Y161.692 Z-2.42 F3048
X117.077 Y161.679 Z-2.424 F3048
X117.185 Y161.673 Z-2.428 F3048
X117.293 Y161.675 Z-2.432 F3048
X117.401 Y161.685 Z-2.436 F3048
X117.508 Y161.702 Z-2.439 F3048
X117.614 Y161.727 Z-2.443 F3048
X117.717 Y161.76 Z-2.447 F3048
X117.818 Y161.8 Z-2.451 F3048
X117.916 Y161.846 Z-2.455 F3048
X118.01 Y161.9 Z-2.459 F3048
X118.1 Y161.96 Z-2.463 F3048
X118.186 Y162.026 Z-2.467 F3048
X118.266 Y162.098 Z-2.471 F3048
X118.342 Y162.176 Z-2.475 F3048
X118.411 Y162.259 Z-2.479 F3048
X118.475 Y162.346 Z-2.483 F3048
X118.532 Y162.438 Z-2.486 F3048
X118.583 Y162.534 Z-2.49 F3048
X118.626 Y162.633 Z-2.494 F3048
X118.663 Y162.734 Z-2.498 F3048
X118.692 Y162.839 Z-2.502 F3048
X118.714 Y162.945 Z-2.506 F3048
X118.728 Y163.052 Z-2.51 F3048
X118.735 Y163.16 Z-2.514 F3048
X118.734 Y163.268 Z-2.518 F3048
X118.725 Y163.376 Z-2.522 F3048
X118.709 Y163.483 Z-2.526 F3048
X118.685 Y163.589 Z-2.53 F3048
X118.653 Y163.692 Z-2.534 F3048
X118.615 Y163.793 Z-2.537 F3048
X118.569 Y163.891 Z-2.541 F3048
X118.516 Y163.986 Z-2.545 F3048
X118.457 Y164.077 Z-2.549 F3048
X118.392 Y164.163 Z-2.553 F3048
X118.321 Y164.244 Z-2.557 F3048
X118.244 Y164.32 Z-2.561 F3048
X118.162 Y164.391 Z-2.565 F3048
X118.075 Y164.455 Z-2.569 F3048
X117.984 Y164.513 Z-2.573 F3048
X117.888 Y164.565 Z-2.577 F3048
X117.79 Y164.609 Z-2.581 F3048
X117.689 Y164.647 Z-2.584 F3048
X117.585 Y164.677 Z-2.588 F3048
X117.479 Y164.7 Z-2.592 F3048
X117.372 Y164.715 Z-2.596 F3048
X117.264 Y164.723 Z-2.6 F3048
X117.156 Z-2.604 F3048
X117.048 Y164.715 Z-2.608 F3048
X116.941 Y164.7 Z-2.612 F3048
X116.836 Y164.677 Z-2.616 F3048
X116.732 Y164.647 Z-2.62 F3048
X116.631 Y164.609 Z-2.624 F3048
X116.532 Y164.564 Z-2.628 F3048
X116.437 Y164.513 Z-2.631 F3048
X116.346 Y164.455 Z-2.635 F3048
X116.259 Y164.39 Z-2.639 F3048
X116.178 Y164.32 Z-2.643 F3048
X116.101 Y164.244 Z-2.647 F3048
X116.03 Y164.162 Z-2.651 F3048
X115.964 Y164.076 Z-2.655 F3048
X115.905 Y163.985 Z-2.659 F3048
X115.853 Y163.891 Z-2.663 F3048
X115.807 Y163.793 Z-2.667 F3048
X115.769 Y163.692 Z-2.671 F3048
X115.738 Y163.588 Z-2.675 F3048
X115.714 Y163.483 Z-2.678 F3048
X115.698 Y163.376 Z-2.682 F3048
X115.689 Y163.269 Z-2.686 F3048
X115.688 Y163.161 Z-2.69 F3048
X115.695 Y163.053 Z-2.694 F3048
X115.709 Y162.946 Z-2.698 F3048
X115.731 Y162.84 Z-2.702 F3048
X115.76 Y162.736 Z-2.706 F3048
X115.797 Y162.635 Z-2.71 F3048
X115.84 Y162.536 Z-2.714 F3048
X115.891 Y162.441 Z-2.718 F3048
X115.948 Y162.349 Z-2.722 F3048
X116.011 Y162.262 Z-2.725 F3048
X116.081 Y162.179 Z-2.729 F3048
X116.156 Y162.102 Z-2.733 F3048
X116.237 Y162.03 Z-2.737 F3048
X116.322 Y161.964 Z-2.741 F3048
X116.412 Y161.904 Z-2.745 F3048
X116.506 Y161.851 Z-2.749 F3048
X116.604 Y161.805 Z-2.753 F3048
X116.704 Y161.765 Z-2.757 F3048
X116.807 Y161.733 Z-2.761 F3048
X116.912 Y161.708 Z-2.765 F3048
X117.019 Y161.691 Z-2.769 F3048
X117.126 Y161.681 Z-2.772 F3048
X117.234 Y161.679 Z-2.776 F3048
X117.342 Y161.685 Z-2.78 F3048
X117.449 Y161.698 Z-2.784 F3048
X117.555 Y161.719 Z-2.788 F3048
X117.659 Y161.747 Z-2.792 F3048
X117.761 Y161.782 Z-2.796 F3048
X117.86 Y161.825 Z-2.8 F3048
X117.956 Y161.875 Z-2.804 F3048
X118.048 Y161.931 Z-2.808 F3048
X118.135 Y161.994 Z-2.812 F3048
X118.218 Y162.062 Z-2.816 F3048
X118.297 Y162.137 Z-2.819 F3048
X118.369 Y162.216 Z-2.823 F3048
X118.436 Y162.301 Z-2.827 F3048
X118.496 Y162.39 Z-2.831 F3048
X118.55 Y162.484 Z-2.835 F3048
X118.598 Y162.58 Z-2.839 F3048
X118.638 Y162.68 Z-2.843 F3048
X118.671 Y162.783 Z-2.847 F3048
X118.697 Y162.888 Z-2.851 F3048
X118.715 Y162.994 Z-2.855 F3048
X118.726 Y163.101 Z-2.859 F3048
X118.729 Y163.209 Z-2.863 F3048
X118.725 Y163.317 Z-2.867 F3048
X118.712 Y163.424 Z-2.87 F3048
X118.693 Y163.53 Z-2.874 F3048
X118.666 Y163.634 Z-2.878 F3048
X118.631 Y163.736 Z-2.882 F3048
X118.589 Y163.836 Z-2.886 F3048
X118.541 Y163.932 Z-2.89 F3048
X118.485 Y164.024 Z-2.894 F3048
X118.424 Y164.113 Z-2.898 F3048
X118.356 Y164.196 Z-2.902 F3048
X118.282 Y164.275 Z-2.906 F3048
X118.203 Y164.348 Z-2.91 F3048
X118.119 Y164.416 Z-2.914 F3048
X118.031 Y164.477 Z-2.917 F3048
X117.938 Y164.532 Z-2.921 F3048
X117.842 Y164.58 Z-2.925 F3048
X117.743 Y164.622 Z-2.929 F3048
X117.64 Y164.656 Z-2.933 F3048
X117.536 Y164.682 Z-2.937 F3048
X117.43 Y164.702 Z-2.941 F3048
X117.323 Y164.714 Z-2.945 F3048
X117.216 Y164.718 Z-2.949 F3048
X117.108 Y164.714 Z-2.953 F3048
X117.001 Y164.703 Z-2.957 F3048
X116.895 Y164.684 Z-2.961 F3048
X116.79 Y164.658 Z-2.964 F3048
X116.688 Y164.625 Z-2.968 F3048
X116.588 Y164.584 Z-2.972 F3048
X116.492 Y164.536 Z-2.976 F3048
X116.399 Y164.482 Z-2.98 F3048
X116.31 Y164.421 Z-2.984 F3048
X116.226 Y164.354 Z-2.988 F3048
X116.146 Y164.281 Z-2.992 F3048
X116.072 Y164.203 Z-2.996 F3048
X116.004 Y164.12 Z-3 F3048
X115.942 Y164.032 Z-3.004 F3048
X115.886 Y163.94 Z-3.008 F3048
X115.837 Y163.844 Z-3.011 F3048
X115.795 Y163.745 Z-3.015 F3048
X115.76 Y163.644 Z-3.019 F3048
X115.732 Y163.54 Z-3.023 F3048
X115.712 Y163.434 Z-3.027 F3048
X115.699 Y163.327 Z-3.031 F3048
X115.694 Y163.22 Z-3.035 F3048
X115.696 Y163.112 Z-3.039 F3048
X115.706 Y163.005 Z-3.043 F3048
X115.724 Y162.899 Z-3.047 F3048
X115.749 Y162.795 Z-3.051 F3048
X115.781 Y162.692 Z-3.055 F3048
X115.821 Y162.592 Z-3.058 F3048
X115.868 Y162.495 Z-3.062 F3048
X115.921 Y162.402 Z-3.066 F3048
X115.981 Y162.313 Z-3.07 F3048
X116.047 Y162.228 Z-3.074 F3048
X116.119 Y162.148 Z-3.078 F3048
X116.196 Y162.073 Z-3.082 F3048
X116.279 Y162.004 Z-3.086 F3048
X116.366 Y161.941 Z-3.09 F3048
X116.457 Y161.885 Z-3.094 F3048
X116.553 Y161.835 Z-3.098 F3048
X116.651 Y161.791 Z-3.102 F3048
X116.752 Y161.755 Z-3.105 F3048
X116.856 Y161.727 Z-3.109 F3048
X116.961 Y161.705 Z-3.113 F3048
X117.068 Y161.691 Z-3.117 F3048
X117.175 Y161.685 Z-3.121 F3048
X117.283 Y161.687 Z-3.125 F3048
X117.39 Y161.696 Z-3.129 F3048
X117.496 Y161.712 Z-3.133 F3048
X117.601 Y161.736 Z-3.137 F3048
X117.703 Y161.768 Z-3.141 F3048
X117.803 Y161.806 Z-3.145 F3048
X117.901 Y161.852 Z-3.149 F3048
X117.994 Y161.904 Z-3.152 F3048
X118.084 Y161.963 Z-3.156 F3048
X118.17 Y162.029 Z-3.16 F3048
X118.25 Y162.1 Z-3.164 F3048
X118.326 Y162.176 Z-3.168 F3048
X118.395 Y162.258 Z-3.172 F3048
X118.459 Y162.344 Z-3.176 F3048
X118.516 Y162.435 Z-3.18 F3048
X118.567 Y162.53 Z-3.184 F3048
X118.611 Y162.628 Z-3.188 F3048
X118.648 Y162.728 Z-3.192 F3048
X118.678 Y162.832 Z-3.196 F3048
X118.7 Y162.937 Z-3.199 F3048
X118.715 Y163.043 Z-3.203 F3048
X118.722 Y163.15 Z-3.207 F3048
Y163.258 Z-3.211 F3048
X118.714 Y163.365 Z-3.215 F3048
X118.699 Y163.471 Z-3.219 F3048
X118.675 Y163.576 Z-3.223 F3048
X118.645 Y163.679 Z-3.227 F3048
X118.607 Y163.779 Z-3.231 F3048
X118.563 Y163.877 Z-3.235 F3048
X118.511 Y163.971 Z-3.239 F3048
X118.453 Y164.061 Z-3.243 F3048
X118.389 Y164.147 Z-3.247 F3048
X118.319 Y164.228 Z-3.25 F3048
X118.243 Y164.304 Z-3.254 F3048
X118.162 Y164.375 Z-3.258 F3048
X118.077 Y164.439 Z-3.262 F3048
X117.987 Y164.498 Z-3.266 F3048
X117.893 Y164.549 Z-3.27 F3048
X117.795 Y164.594 Z-3.274 F3048
X117.695 Y164.632 Z-3.278 F3048
X117.592 Y164.663 Z-3.282 F3048
X117.487 Y164.686 Z-3.286 F3048
X117.381 Y164.702 Z-3.29 F3048
X117.274 Y164.71 Z-3.294 F3048
X117.167 Y164.711 Z-3.297 F3048
X117.06 Y164.704 Z-3.301 F3048
X116.954 Y164.689 Z-3.305 F3048
X116.849 Y164.667 Z-3.309 F3048
X116.745 Y164.638 Z-3.313 F3048
X116.645 Y164.601 Z-3.317 F3048
X116.547 Y164.558 Z-3.321 F3048
X116.452 Y164.507 Z-3.325 F3048
X116.361 Y164.45 Z-3.329 F3048
X116.275 Y164.387 Z-3.333 F3048
X116.193 Y164.317 Z-3.337 F3048
X116.116 Y164.243 Z-3.341 F3048
X116.045 Y164.162 Z-3.344 F3048
X115.98 Y164.077 Z-3.348 F3048
X115.921 Y163.988 Z-3.352 F3048
X115.868 Y163.895 Z-3.356 F3048
X115.823 Y163.798 Z-3.36 F3048
X115.784 Y163.698 Z-3.364 F3048
X115.752 Y163.596 Z-3.368 F3048
X115.728 Y163.491 Z-3.372 F3048
X115.711 Y163.385 Z-3.376 F3048
X115.702 Y163.279 Z-3.38 F3048
X115.7 Y163.172 Z-3.384 F3048
X115.706 Y163.065 Z-3.388 F3048
X115.719 Y162.958 Z-3.391 F3048
X115.74 Y162.853 Z-3.395 F3048
X115.768 Y162.75 Z-3.399 F3048
X115.804 Y162.649 Z-3.403 F3048
X115.847 Y162.551 Z-3.407 F3048
X115.896 Y162.456 Z-3.411 F3048
X115.952 Y162.364 Z-3.415 F3048
X116.015 Y162.277 Z-3.419 F3048
X116.083 Y162.195 Z-3.423 F3048
X116.158 Y162.118 Z-3.427 F3048
X116.237 Y162.046 Z-3.431 F3048
X116.321 Y161.98 Z-3.435 F3048
X116.41 Y161.92 Z-3.438 F3048
X116.503 Y161.866 Z-3.442 F3048
X116.599 Y161.82 Z-3.446 F3048
X116.699 Y161.78 Z-3.45 F3048
X116.801 Y161.747 Z-3.454 F3048
X116.905 Y161.722 Z-3.458 F3048
X117.01 Y161.704 Z-3.462 F3048
X117.117 Y161.694 Z-3.466 F3048
X117.224 Y161.691 Z-3.47 F3048
X117.33 Y161.696 Z-3.474 F3048
X117.437 Y161.708 Z-3.478 F3048
X117.542 Y161.728 Z-3.482 F3048
X117.645 Y161.755 Z-3.485 F3048
X117.747 Y161.79 Z-3.489 F3048
X117.845 Y161.832 Z-3.493 F3048
X117.941 Y161.88 Z-3.497 F3048
X118.032 Y161.935 Z-3.501 F3048
X118.12 Y161.997 Z-3.505 F3048
X118.203 Y162.065 Z-3.509 F3048
X118.281 Y162.138 Z-3.513 F3048
X118.353 Y162.216 Z-3.517 F3048
X118.42 Y162.3 Z-3.521 F3048
X118.481 Y162.388 Z-3.525 F3048
X118.535 Y162.48 Z-3.529 F3048
X118.583 Y162.576 Z-3.532 F3048
X118.623 Y162.675 Z-3.536 F3048
X118.657 Y162.777 Z-3.54 F3048
X118.683 Y162.88 Z-3.544 F3048
X118.702 Y162.986 Z-3.548 F3048
X118.713 Y163.092 Z-3.552 F3048
X118.717 Y163.199 Z-3.556 F3048
G3 X115.701 I-1.508 F3048
X118.717 I1.508 F3048
( MOVEMENT_CUTTING)
G1 X118.721 Y163.36 F3048
X118.907 Y163.942 F3048
X118.938 Y164.088 F3048
X118.945 Y164.238 F3048
X118.93 Y164.387 F3048
X118.897 Y164.533 F3048
X118.846 Y164.675 F3048
X118.78 Y164.81 F3048
X118.701 Y164.937 F3048
X118.606 Y165.063 F3048
X118.494 Y165.185 F3048
X118.365 Y165.3 F3048
X118.22 Y165.407 F3048
X118.06 Y165.504 F3048
X117.885 Y165.587 F3048
X117.697 Y165.656 F3048
X117.498 Y165.708 F3048
X117.29 Y165.742 F3048
X117.074 Y165.756 F3048
X116.854 Y165.749 F3048
X116.631 Y165.721 F3048
X116.408 Y165.671 F3048
X116.188 Y165.599 F3048
X115.973 Y165.506 F3048
X115.766 Y165.391 F3048
X115.569 Y165.256 F3048
X115.383 Y165.101 F3048
X115.213 Y164.928 F3048
X115.058 Y164.739 F3048
X114.921 Y164.534 F3048
X114.804 Y164.317 F3048
X114.708 Y164.088 F3048
X114.633 Y163.851 F3048
X114.582 Y163.606 F3048
X114.554 Y163.358 F3048
X114.549 Y163.107 F3048
X114.568 Y162.856 F3048
X114.611 Y162.608 F3048
X114.678 Y162.365 F3048
X114.768 Y162.13 F3048
X114.879 Y161.903 F3048
X115.012 Y161.688 F3048
X115.165 Y161.486 F3048
X115.336 Y161.3 F3048
X115.524 Y161.131 F3048
X115.728 Y160.98 F3048
X115.945 Y160.849 F3048
X116.174 Y160.74 F3048
X116.412 Y160.652 F3048
X116.657 Y160.588 F3048
X116.907 Y160.547 F3048
X117.161 Y160.53 F3048
X117.414 Y160.538 F3048
X117.666 Y160.569 F3048
X117.914 Y160.625 F3048
X118.155 Y160.703 F3048
X118.388 Y160.804 F3048
X118.61 Y160.927 F3048
X118.82 Y161.07 F3048
X119.015 Y161.233 F3048
X119.194 Y161.414 F3048
X119.354 Y161.61 F3048
X119.548 Y161.9 F3048
X119.835 Y162.431 F3048
X119.995 Y162.811 F3048
X120.099 Y163.141 F3048
X120.164 Y163.45 F3048
X120.198 Y163.745 F3048
X120.204 Y164.032 F3048
X120.182 Y164.312 F3048
X120.135 Y164.586 F3048
X120.061 Y164.855 F3048
X119.962 Y165.117 F3048
X119.838 Y165.371 F3048
X119.751 Y165.511 F3048
X119.723 Y165.553 F3048
X119.69 Y165.592 F3048
X119.655 Y165.629 F3048
X119.31 Y165.951 F3048
X119.227 Y166.027 F3048
X119.196 Y166.048 F3048
X119.166 Y166.065 F3048
X118.424 Y166.45 F3048
X118.388 Y166.467 F3048
X118.351 Y166.479 F3048
X118.205 Y166.511 F3048
X117.622 Y166.632 F3048
X117.476 Y166.661 F3048
X117.439 Y166.665 F3048
X117.403 F3048
X116.6 Y166.611 F3048
X116.527 Y166.605 F3048
X116.491 Y166.598 F3048
X116.454 Y166.587 F3048
X115.652 Y166.302 F3048
X115.615 Y166.285 F3048
X115.579 Y166.265 F3048
X114.927 Y165.805 F3048
X114.849 Y165.748 F3048
X114.769 Y165.659 F3048
X114.265 Y165.04 F3048
X114.23 Y164.985 F3048
X114.205 Y164.93 F3048
X113.888 Y164.2 F3048
X113.862 Y164.127 F3048
X113.849 Y164.054 F3048
X113.739 Y163.251 F3048
X113.736 Y163.215 F3048
Y163.178 F3048
X113.754 Y163.032 F3048
X113.855 Y162.302 F3048
X113.863 Y162.266 F3048
X113.874 Y162.23 F3048
X114.223 Y161.427 F3048
X114.241 Y161.393 F3048
X114.265 Y161.359 F3048
X114.804 Y160.697 F3048
X114.849 Y160.65 F3048
X114.995 Y160.545 F3048
X115.579 Y160.133 F3048
X115.614 Y160.113 F3048
X115.725 Y160.07 F3048
X116.454 Y159.811 F3048
X116.491 Y159.8 F3048
X116.527 Y159.793 F3048
X117.038 Y159.757 F3048
X117.403 Y159.733 F3048
X117.439 F3048
X117.476 Y159.737 F3048
X117.768 Y159.796 F3048
X118.205 Y159.887 F3048
X118.351 Y159.919 F3048
X118.379 Y159.928 F3048
X118.406 Y159.939 F3048
X119.154 Y160.327 F3048
X119.19 Y160.347 F3048
X119.227 Y160.371 F3048
X119.265 Y160.405 F3048
X119.811 Y160.915 F3048
X119.888 Y160.989 F3048
X119.927 Y161.038 F3048
X120.341 Y161.719 F3048
X120.394 Y161.813 F3048
X120.413 Y161.865 F3048
X120.617 Y162.594 F3048
X120.652 Y162.74 F3048
X120.654 Y162.886 F3048
Y163.616 F3048
X120.653 Y163.653 F3048
X120.648 Y163.689 F3048
X120.629 Y163.762 F3048
X120.425 Y164.492 F3048
X120.394 Y164.585 F3048
X120.366 Y164.638 F3048
X119.956 Y165.312 F3048
X119.921 Y165.367 F3048
X119.899 Y165.396 F3048
X119.873 Y165.425 F3048
X119.655 Y165.629 F3048
( MOVEMENT_LEAD_OUT)
G3 X119.228 Y165.62 I-0.208 J-0.239 F3048
G1 X119.206 Y165.586 Z-3.553 F3048
X119.185 Y165.552 Z-3.545 F3048
X119.164 Y165.519 Z-3.532 F3048
X119.145 Y165.488 Z-3.514 F3048
X119.139 Y165.451 Z-3.488 F3048
X119.133 Y165.418 Z-3.458 F3048
X119.129 Y165.389 Z-3.423 F3048
X119.131 Y165.364 Z-3.381 F3048
X119.133 Y165.345 Z-3.336 F3048
X119.134 Y165.334 Z-3.288 F3048
Y165.33 Z-3.239 F3048
( MOVEMENT_CUTTING)
( Safe G1 --> G0)
G0 Z5 F300
( Safe G1 --> G0)
X116.427 Y161.825 F7500
G1 Z-1.056 F3048
( MOVEMENT_RAMP_HELIX)
X116.526 Y161.773 Z-1.06 F3048
X116.629 Y161.728 Z-1.064 F3048
X116.735 Y161.691 Z-1.068 F3048
X116.843 Y161.661 Z-1.072 F3048
X116.953 Y161.639 Z-1.076 F3048
X117.064 Y161.625 Z-1.08 F3048
X117.176 Y161.619 Z-1.083 F3048
X117.288 Y161.62 Z-1.087 F3048
X117.4 Y161.63 Z-1.091 F3048
X117.511 Y161.647 Z-1.095 F3048
X117.62 Y161.673 Z-1.099 F3048
X117.727 Y161.706 Z-1.103 F3048
X117.832 Y161.746 Z-1.107 F3048
X117.933 Y161.794 Z-1.111 F3048
X118.031 Y161.849 Z-1.115 F3048
X118.125 Y161.911 Z-1.119 F3048
X118.214 Y161.979 Z-1.123 F3048
X118.298 Y162.053 Z-1.127 F3048
X118.376 Y162.133 Z-1.13 F3048
X118.449 Y162.219 Z-1.134 F3048
X118.515 Y162.309 Z-1.138 F3048
X118.575 Y162.404 Z-1.142 F3048
X118.628 Y162.503 Z-1.146 F3048
X118.674 Y162.605 Z-1.15 F3048
X118.712 Y162.71 Z-1.154 F3048
X118.743 Y162.818 Z-1.158 F3048
X118.766 Y162.928 Z-1.162 F3048
X118.782 Y163.039 Z-1.166 F3048
X118.789 Y163.151 Z-1.17 F3048
Y163.263 Z-1.174 F3048
X118.78 Y163.375 Z-1.177 F3048
X118.764 Y163.485 Z-1.181 F3048
X118.739 Y163.595 Z-1.185 F3048
X118.708 Y163.702 Z-1.189 F3048
X118.668 Y163.807 Z-1.193 F3048
X118.621 Y163.909 Z-1.197 F3048
X118.567 Y164.007 Z-1.201 F3048
X118.507 Y164.101 Z-1.205 F3048
X118.44 Y164.191 Z-1.209 F3048
X118.366 Y164.275 Z-1.213 F3048
X118.287 Y164.355 Z-1.217 F3048
X118.202 Y164.428 Z-1.221 F3048
X118.113 Y164.495 Z-1.224 F3048
X118.019 Y164.556 Z-1.228 F3048
X117.92 Y164.61 Z-1.232 F3048
X117.818 Y164.657 Z-1.236 F3048
X117.714 Y164.696 Z-1.24 F3048
X117.606 Y164.728 Z-1.244 F3048
X117.497 Y164.752 Z-1.248 F3048
X117.386 Y164.768 Z-1.252 F3048
X117.274 Y164.777 Z-1.256 F3048
X117.162 Z-1.26 F3048
X117.05 Y164.77 Z-1.264 F3048
X116.94 Y164.755 Z-1.268 F3048
X116.83 Y164.732 Z-1.271 F3048
X116.722 Y164.701 Z-1.275 F3048
X116.617 Y164.662 Z-1.279 F3048
X116.515 Y164.617 Z-1.283 F3048
X116.416 Y164.564 Z-1.287 F3048
X116.322 Y164.504 Z-1.291 F3048
X116.232 Y164.438 Z-1.295 F3048
X116.146 Y164.365 Z-1.299 F3048
X116.066 Y164.287 Z-1.303 F3048
X115.992 Y164.203 Z-1.307 F3048
X115.924 Y164.114 Z-1.311 F3048
X115.863 Y164.021 Z-1.315 F3048
X115.808 Y163.923 Z-1.318 F3048
X115.76 Y163.822 Z-1.322 F3048
X115.72 Y163.718 Z-1.326 F3048
X115.687 Y163.611 Z-1.33 F3048
X115.662 Y163.502 Z-1.334 F3048
X115.645 Y163.391 Z-1.338 F3048
X115.635 Y163.28 Z-1.342 F3048
X115.633 Y163.168 Z-1.346 F3048
X115.64 Y163.056 Z-1.35 F3048
X115.654 Y162.945 Z-1.354 F3048
X115.676 Y162.835 Z-1.358 F3048
X115.706 Y162.727 Z-1.362 F3048
X115.743 Y162.622 Z-1.365 F3048
X115.788 Y162.519 Z-1.369 F3048
X115.84 Y162.42 Z-1.373 F3048
X115.899 Y162.325 Z-1.377 F3048
X115.964 Y162.234 Z-1.381 F3048
X116.036 Y162.148 Z-1.385 F3048
X116.113 Y162.068 Z-1.389 F3048
X116.196 Y161.993 Z-1.393 F3048
X116.284 Y161.924 Z-1.397 F3048
X116.377 Y161.862 Z-1.401 F3048
X116.474 Y161.806 Z-1.405 F3048
X116.574 Y161.758 Z-1.409 F3048
X116.678 Y161.716 Z-1.412 F3048
X116.785 Y161.682 Z-1.416 F3048
