%
(Fusion CAM 2.0.18961)
( Posts processor: MPCNC21.cps)
( Gcode generated: Sunday, April 28, 2024 9:23:43 PM GMT)
( Document: wireWiggler v198)
( Setup: boxBottom)
(When using Fusion for Personal Use, the feedrate of rapid)
(moves is reduced to match the feedrate of cutting moves,)
(which can increase machining time. Unrestricted rapid moves)
(are available with a Fusion Subscription.)
( )
( Ranges Table:)
(   X: Min=4.412 Max=205.872 Size=201.46)
(   Y: Min=4.412 Max=205.992 Size=201.579)
(   Z: Min=-12.438 Max=3 Size=15.438)
( )
( Tools Table:)
(  T2 D=3.175 CR=0 - ZMIN=-12.438 - flat end mill )
( )
( Feedrate and Scaling Properties:)
(   Feed: Travel speed X/Y = 7500)
(   Feed: Travel Speed Z = 300)
(   Feed: Enforce Feedrate = true)
(   Feed: Scale Feedrate = false)
(   Feed: Max XY Cut Speed = 900)
(   Feed: Max Z Cut Speed = 180)
(   Feed: Max Toolpath Speed = 1000)
( )
( G1->G0 Mapping Properties:)
(   Map: First G1 -> G0 Rapid = true)
(   Map: G1s -> G0 Rapids = true)
(   Map: SafeZ Mode = Retract : default = 0)
(   Map: Allow Rapid Z = true)
( )
( *** START begin ***)
( --- Start custom gcode C:\Users\Kevin\Documents\Fusion 360\NC Programs\start.gcode)
% vfd enable
M6 T0
% LED ON
M62 P0
% spindle relays on
M62 P1
%( *** START end ***)
( )
( *** SECTION begin ***)
(   X Min: 29.236 - X Max: 205.872)
(   Y Min: 32.387 - Y Max: 205.992)
(   Z Min: -1 - Z Max: 3)
( SafeZ retract level: 3)
( glueLettersFront 2 - Milling - Tool: 2 -  flat end mill)
( COMMAND_START_SPINDLE)
( COMMAND_SPINDLE_CLOCKWISE)
( >>> Spindle Speed 18000)
M3 S18000
( COMMAND_COOLANT_ON)
( >>> WARNING: No matching Coolant channel : Flood requested)
( MOVEMENT_PLUNGE)
( First G1 --> G0)
G0 Z3 F300
X119.239 Y45.052 F7500
G1 Z0.635 F339
Z-1 F339
( MOVEMENT_FINISH_CUTTING)
X128.964 F3048
Y45.212 F3048
X119.235 F3048
X118.952 Y45.188 F3048
X118.675 Y45.147 F3048
X118.391 Y45.08 F3048
X118.255 Y45.041 F3048
X117.843 Y44.786 F3048
X117.584 Y44.616 F3048
X117.347 Y44.447 F3048
X117.138 Y44.285 F3048
X116.961 Y44.128 F3048
X116.816 Y43.981 F3048
X116.703 Y43.842 F3048
X116.611 Y43.701 F3048
X116.527 Y43.541 F3048
X116.448 Y43.347 F3048
X116.372 Y43.114 F3048
X116.3 Y42.846 F3048
X116.234 Y42.555 F3048
X116.132 Y42.022 F3048
Y41.851 F3048
X116.166 Y41.558 F3048
X116.216 Y41.234 F3048
X116.281 Y40.953 F3048
X116.306 Y40.872 F3048
X116.34 Y40.785 F3048
X116.382 Y40.696 F3048
X116.426 Y40.615 F3048
X116.588 Y40.365 F3048
X116.788 Y40.096 F3048
X117.032 Y39.791 F3048
G17 G2 X117.038 Y37.816 I-1.24 J-0.991 F3048
G1 X116.79 Y37.502 F3048
X116.588 Y37.225 F3048
X116.423 Y36.966 F3048
X116.377 Y36.88 F3048
X116.337 Y36.79 F3048
X116.302 Y36.698 F3048
X116.276 Y36.61 F3048
X116.213 Y36.316 F3048
X116.165 Y35.98 F3048
X116.132 Y35.665 F3048
Y35.529 F3048
X116.154 Y35.219 F3048
X116.192 Y34.934 F3048
X116.26 Y34.649 F3048
X116.306 Y34.494 F3048
X116.567 Y34.07 F3048
X116.737 Y33.81 F3048
X116.906 Y33.572 F3048
X117.068 Y33.364 F3048
X117.221 Y33.192 F3048
X117.368 Y33.049 F3048
X117.505 Y32.94 F3048
X117.643 Y32.851 F3048
X117.807 Y32.769 F3048
X118.006 Y32.691 F3048
X118.24 Y32.617 F3048
X118.509 Y32.548 F3048
X118.804 Y32.486 F3048
X119.355 Y32.387 F3048
X128.964 F3048
Y32.546 F3048
X119.109 F3048
G2 X118.536 Y32.653 J1.587 F3048
G1 X118.302 Y32.743 F3048
G2 X118.234 Y32.772 I0.573 J1.481 F3048
G1 X118.01 Y32.87 F3048
G2 X117.872 Y32.939 I0.641 J1.452 F3048
G1 X117.667 Y33.055 F3048
G2 X117.515 Y33.152 I0.779 J1.383 F3048
G1 X117.423 Y33.219 F3048
G2 X117.305 Y33.313 I0.931 J1.286 F3048
G1 X117.221 Y33.387 F3048
G2 X117.09 Y33.517 I1.049 J1.192 F3048
G1 X117.016 Y33.6 F3048
G2 X116.897 Y33.749 I1.18 J1.061 F3048
G1 X116.833 Y33.84 F3048
G2 X116.743 Y33.983 I1.299 J0.912 F3048
G1 X116.688 Y34.082 F3048
G2 X116.62 Y34.22 I1.389 J0.769 F3048
G1 X116.575 Y34.326 F3048
G2 X116.528 Y34.447 I1.456 J0.631 F3048
G1 X116.451 Y34.674 F3048
G2 X116.421 Y34.772 I1.503 J0.51 F3048
G1 X116.357 Y35.009 F3048
G2 X116.302 Y35.422 I1.533 J0.413 F3048
G1 Y35.699 F3048
G2 X116.306 Y35.803 I1.588 F3048
G1 X116.32 Y36.017 F3048
G2 X116.361 Y36.286 I1.584 J-0.104 F3048
G1 X116.386 Y36.39 F3048
G2 X116.428 Y36.534 I1.543 J-0.373 F3048
G1 X116.463 Y36.635 F3048
G2 X116.594 Y36.92 I1.501 J-0.518 F3048
G1 X116.729 Y37.15 F3048
G2 X116.777 Y37.227 I1.37 J-0.803 F3048
G1 X116.921 Y37.443 F3048
G2 X116.997 Y37.548 I1.322 J-0.879 F3048
G1 X117.075 Y37.647 F3048
G2 X117.153 Y37.739 I1.246 J-0.984 F3048
G1 X117.236 Y37.829 F3048
G2 X117.357 Y37.947 I1.168 J-1.076 F3048
G1 X117.448 Y38.027 F3048
G2 X117.593 Y38.139 I1.047 J-1.194 F3048
G1 X117.691 Y38.207 F3048
G2 X117.858 Y38.308 I0.902 J-1.306 F3048
G1 X117.964 Y38.363 F3048
G2 X118.117 Y38.433 I0.735 J-1.407 F3048
G1 X118.23 Y38.478 F3048
G2 X118.418 Y38.539 I0.582 J-1.477 F3048
G1 X118.662 Y38.601 F3048
G2 X118.828 Y38.634 I0.394 J-1.538 F3048
G1 X119.088 Y38.672 F3048
G2 X119.167 Y38.682 I0.228 J-1.571 F3048
G1 X119.435 Y38.707 F3048
G2 X119.584 Y38.714 I0.149 J-1.581 F3048
G1 X124.02 F3048
Y38.873 F3048
X119.408 F3048
G2 X119.061 Y38.911 J1.587 F3048
G1 X118.758 Y38.979 F3048
G2 X118.676 Y39 I0.347 J1.549 F3048
G1 X118.387 Y39.081 F3048
G2 X118.266 Y39.12 I0.429 J1.528 F3048
G1 X118.131 Y39.17 F3048
G2 X118.019 Y39.217 I0.55 J1.489 F3048
G1 X117.892 Y39.275 F3048
G2 X117.749 Y39.35 I0.662 J1.443 F3048
G1 X117.633 Y39.418 F3048
G2 X117.474 Y39.524 I0.805 J1.368 F3048
G1 X117.369 Y39.605 F3048
G2 X117.189 Y39.766 I0.964 J1.262 F3048
G1 X117.099 Y39.859 F3048
G2 X116.953 Y40.034 I1.144 J1.1 F3048
G1 X116.876 Y40.142 F3048
G2 X116.772 Y40.308 I1.29 J0.926 F3048
G1 X116.707 Y40.427 F3048
G2 X116.636 Y40.575 I1.394 J0.759 F3048
G1 X116.582 Y40.704 F3048
G2 X116.529 Y40.851 I1.465 J0.612 F3048
G1 X116.443 Y41.131 F3048
G2 X116.417 Y41.227 I1.518 J0.465 F3048
G1 X116.346 Y41.524 F3048
G2 X116.302 Y41.893 I1.544 J0.37 F3048
G1 Y42.232 F3048
G2 X116.406 Y42.795 I1.588 F3048
G1 X116.495 Y43.03 F3048
G2 X116.523 Y43.1 I1.484 J-0.563 F3048
G1 X116.621 Y43.325 F3048
G2 X116.685 Y43.455 I1.456 J-0.634 F3048
G1 X116.798 Y43.661 F3048
G2 X116.895 Y43.816 I1.392 J-0.763 F3048
G1 X116.961 Y43.909 F3048
G2 X117.053 Y44.027 I1.295 J-0.918 F3048
G1 X117.126 Y44.112 F3048
G2 X117.255 Y44.245 I1.203 J-1.036 F3048
G1 X117.337 Y44.32 F3048
G2 X117.482 Y44.438 I1.074 J-1.169 F3048
G1 X117.572 Y44.503 F3048
G2 X117.723 Y44.6 I0.929 J-1.287 F3048
G1 X117.822 Y44.655 F3048
G2 X117.94 Y44.715 I0.778 J-1.384 F3048
G1 X118.045 Y44.763 F3048
G2 X118.182 Y44.819 I0.66 J-1.444 F3048
G1 X118.408 Y44.897 F3048
G2 X118.503 Y44.927 I0.523 J-1.499 F3048
G1 X118.74 Y44.994 F3048
G2 X119.168 Y45.052 I0.428 J-1.529 F3048
G1 X119.239 F3048
( MOVEMENT_CUTTING)
( Safe G1 --> G0)
G0 Z3 F300
( Safe G1 --> G0)
X193.406 Y115.588 F7500
( MOVEMENT_PLUNGE)
G1 Z0.635 F339
Z-1 F339
( MOVEMENT_FINISH_CUTTING)
X199.754 F3048
X200.343 Y115.67 F3048
X200.992 Y115.785 F3048
X201.267 Y115.847 F3048
X201.534 Y115.922 F3048
X201.78 Y116.005 F3048
X202.015 Y116.102 F3048
X202.246 Y116.215 F3048
X202.487 Y116.35 F3048
X202.734 Y116.504 F3048
X202.978 Y116.671 F3048
X203.518 Y117.073 F3048
X203.942 Y117.409 F3048
X204.298 Y117.844 F3048
X204.721 Y118.394 F3048
X204.898 Y118.646 F3048
X205.061 Y118.897 F3048
X205.203 Y119.142 F3048
X205.325 Y119.382 F3048
X205.426 Y119.62 F3048
X205.515 Y119.871 F3048
X205.593 Y120.146 F3048
X205.664 Y120.443 F3048
X205.727 Y120.757 F3048
X205.783 Y121.086 F3048
X205.872 Y121.699 F3048
Y122.31 F3048
X205.798 Y122.86 F3048
X205.694 Y123.472 F3048
X205.638 Y123.731 F3048
X205.57 Y123.984 F3048
X205.495 Y124.219 F3048
X205.409 Y124.439 F3048
X205.306 Y124.662 F3048
X205.184 Y124.893 F3048
X205.045 Y125.132 F3048
X204.896 Y125.366 F3048
X204.534 Y125.887 F3048
X204.24 Y126.289 F3048
X203.779 Y126.694 F3048
X203.5 Y126.929 F3048
X203.226 Y127.15 F3048
X202.961 Y127.349 F3048
X202.701 Y127.527 F3048
X202.446 Y127.684 F3048
X202.197 Y127.816 F3048
X201.948 Y127.928 F3048
X201.687 Y128.024 F3048
X201.398 Y128.109 F3048
X201.085 Y128.186 F3048
X200.752 Y128.254 F3048
X200.403 Y128.315 F3048
X199.747 Y128.413 F3048
X193.036 F3048
Y115.588 F3048
X193.406 F3048
( MOVEMENT_CUTTING)
( Safe G1 --> G0)
G0 Z3 F300
( Safe G1 --> G0)
X193.668 Y116.216 F7500
( MOVEMENT_PLUNGE)
G1 Z0.635 F339
Z-1 F339
( MOVEMENT_FINISH_CUTTING)
G2 X193.208 Y117.334 I1.127 J1.118 F3048
G1 Y126.666 F3048
G2 X194.795 Y128.253 I1.587 F3048
G1 X199.587 F3048
G2 X199.709 Y128.249 J-1.587 F3048
G1 X200.123 Y128.217 F3048
G2 X200.186 Y128.211 I-0.122 J-1.583 F3048
G1 X200.391 Y128.187 F3048
G2 X200.46 Y128.177 I-0.185 J-1.577 F3048
G1 X200.664 Y128.144 F3048
G2 X200.79 Y128.118 I-0.254 J-1.567 F3048
G1 X201.191 Y128.019 F3048
G2 X201.274 Y127.997 I-0.38 J-1.541 F3048
G1 X201.671 Y127.876 F3048
G2 X202.048 Y127.704 I-0.463 J-1.519 F3048
G1 X202.645 Y127.332 F3048
G2 X202.681 Y127.309 I-0.84 J-1.347 F3048
G1 X202.971 Y127.117 F3048
G2 X203.019 Y127.084 I-0.876 J-1.324 F3048
G1 X203.297 Y126.885 F3048
G2 X203.358 Y126.839 I-0.924 J-1.291 F3048
G1 X203.622 Y126.63 F3048
G2 X203.696 Y126.568 I-0.985 J-1.245 F3048
G1 X203.943 Y126.347 F3048
G2 X204.031 Y126.262 I-1.059 J-1.183 F3048
G1 X204.256 Y126.027 F3048
G2 X204.353 Y125.915 I-1.147 J-1.098 F3048
G1 X204.552 Y125.664 F3048
G2 X204.651 Y125.525 I-1.244 J-0.986 F3048
G1 X204.822 Y125.254 F3048
G2 X204.902 Y125.111 I-1.343 J-0.847 F3048
G1 X205.045 Y124.822 F3048
G2 X205.102 Y124.693 I-1.423 J-0.704 F3048
G1 X205.221 Y124.387 F3048
G2 X205.257 Y124.284 I-1.48 J-0.575 F3048
G1 X205.356 Y123.966 F3048
G2 X205.381 Y123.877 I-1.516 J-0.472 F3048
G1 X205.463 Y123.547 F3048
G2 X205.475 Y123.491 I-1.541 J-0.383 F3048
G1 X205.546 Y123.154 F3048
G2 X205.557 Y123.102 I-1.553 J-0.327 F3048
G1 X205.678 Y122.414 F3048
G2 X205.702 Y122.139 I-1.564 J-0.275 F3048
G1 Y121.861 F3048
G2 X205.697 Y121.742 I-1.588 F3048
G1 X205.666 Y121.328 F3048
G2 X205.66 Y121.263 I-1.583 J0.119 F3048
G1 X205.636 Y121.057 F3048
G2 X205.626 Y120.987 I-1.577 J0.184 F3048
G1 X205.593 Y120.783 F3048
G2 X205.567 Y120.657 I-1.567 J0.254 F3048
G1 X205.468 Y120.255 F3048
G2 X205.446 Y120.173 I-1.541 J0.38 F3048
G1 X205.325 Y119.775 F3048
G2 X205.153 Y119.397 I-1.519 J0.462 F3048
G1 X204.781 Y118.8 F3048
G2 X204.756 Y118.762 I-1.347 J0.84 F3048
G1 X204.564 Y118.473 F3048
G2 X204.531 Y118.424 I-1.322 J0.878 F3048
G1 X204.331 Y118.146 F3048
G2 X204.289 Y118.091 I-1.289 J0.927 F3048
G1 X204.081 Y117.827 F3048
G2 X204.017 Y117.75 I-1.247 J0.982 F3048
G1 X203.796 Y117.503 F3048
G2 X203.708 Y117.413 I-1.183 J1.059 F3048
G1 X203.473 Y117.189 F3048
G2 X203.362 Y117.092 I-1.095 J1.149 F3048
G1 X203.11 Y116.893 F3048
G2 X202.973 Y116.796 I-0.984 J1.246 F3048
G1 X202.702 Y116.625 F3048
G2 X202.559 Y116.545 I-0.847 J1.343 F3048
G1 X202.27 Y116.402 F3048
G2 X202.139 Y116.344 I-0.704 J1.423 F3048
G1 X201.834 Y116.226 F3048
G2 X201.732 Y116.191 I-0.573 J1.481 F3048
G1 X201.413 Y116.092 F3048
G2 X201.326 Y116.068 I-0.471 J1.516 F3048
G1 X200.997 Y115.986 F3048
G2 X200.939 Y115.972 I-0.384 J1.54 F3048
G1 X200.601 Y115.901 F3048
G2 X200.55 Y115.891 I-0.326 J1.554 F3048
G1 X199.862 Y115.77 F3048
G2 X199.587 Y115.746 I-0.275 J1.564 F3048
G1 X194.795 F3048
G2 X193.668 Y116.216 J1.588 F3048
( MOVEMENT_CUTTING)
( Safe G1 --> G0)
G0 Z3 F300
( Safe G1 --> G0)
X136.694 Y195.263 F7500
( MOVEMENT_PLUNGE)
G1 Z0.635 F339
Z-1 F339
( MOVEMENT_FINISH_CUTTING)
X136.825 Y195.423 F3048
X137.248 Y195.973 F3048
X137.424 Y196.224 F3048
X137.586 Y196.474 F3048
X137.729 Y196.721 F3048
X137.852 Y196.962 F3048
X137.954 Y197.201 F3048
X138.042 Y197.45 F3048
X138.12 Y197.725 F3048
X138.191 Y198.02 F3048
X138.253 Y198.334 F3048
X138.309 Y198.666 F3048
X138.4 Y199.279 F3048
Y199.889 F3048
X138.325 Y200.439 F3048
X138.221 Y201.049 F3048
X138.164 Y201.31 F3048
X138.097 Y201.563 F3048
X138.021 Y201.798 F3048
X137.935 Y202.02 F3048
X137.832 Y202.242 F3048
X137.711 Y202.473 F3048
X137.573 Y202.708 F3048
X137.423 Y202.944 F3048
X137.061 Y203.466 F3048
X136.766 Y203.868 F3048
X136.306 Y204.273 F3048
X136.027 Y204.508 F3048
X135.753 Y204.729 F3048
X135.489 Y204.927 F3048
X135.227 Y205.106 F3048
X134.972 Y205.263 F3048
X134.724 Y205.395 F3048
X134.475 Y205.507 F3048
X134.214 Y205.603 F3048
X133.925 Y205.688 F3048
X133.612 Y205.765 F3048
X133.278 Y205.833 F3048
X132.929 Y205.894 F3048
X132.274 Y205.992 F3048
X125.563 F3048
Y193.167 F3048
X132.28 F3048
X132.87 Y193.249 F3048
X133.519 Y193.364 F3048
X133.795 Y193.426 F3048
X133.947 Y193.469 F3048
X134.061 Y193.501 F3048
X134.307 Y193.584 F3048
X134.542 Y193.681 F3048
X134.773 Y193.794 F3048
X135.013 Y193.929 F3048
X135.259 Y194.082 F3048
X135.504 Y194.25 F3048
X136.045 Y194.652 F3048
X136.469 Y194.988 F3048
X136.694 Y195.263 F3048
( MOVEMENT_CUTTING)
( Safe G1 --> G0)
G0 Z3 F300
( Safe G1 --> G0)
X136.7 Y195.522 F7500
( MOVEMENT_PLUNGE)
G1 Z0.635 F339
Z-1 F339
( MOVEMENT_FINISH_CUTTING)
X136.605 Y195.403 F3048
G2 X136.543 Y195.33 I-1.245 J0.985 F3048
G1 X136.323 Y195.084 F3048
G2 X136.238 Y194.995 I-1.183 J1.058 F3048
G1 X136.003 Y194.77 F3048
G2 X135.889 Y194.671 I-1.098 J1.147 F3048
G1 X135.637 Y194.472 F3048
G2 X135.5 Y194.375 I-0.984 J1.246 F3048
G1 X135.229 Y194.204 F3048
G2 X135.086 Y194.124 I-0.847 J1.343 F3048
G1 X134.797 Y193.981 F3048
G2 X134.664 Y193.923 I-0.704 J1.423 F3048
G1 X134.358 Y193.805 F3048
G2 X134.259 Y193.77 I-0.571 J1.481 F3048
G1 X133.941 Y193.671 F3048
G2 X133.852 Y193.646 I-0.472 J1.516 F3048
G1 X133.522 Y193.564 F3048
G2 X133.466 Y193.552 I-0.383 J1.541 F3048
G1 X133.129 Y193.481 F3048
G2 X133.077 Y193.47 I-0.327 J1.553 F3048
G1 X132.389 Y193.35 F3048
G2 X132.114 Y193.326 I-0.275 J1.563 F3048
G1 X127.322 F3048
G2 X125.734 Y194.913 J1.587 F3048
G1 Y204.245 F3048
G2 X127.322 Y205.833 I1.588 F3048
G1 X132.114 F3048
G2 X132.236 Y205.828 J-1.588 F3048
G1 X132.65 Y205.796 F3048
G2 X132.705 Y205.791 I-0.122 J-1.583 F3048
G1 X132.91 Y205.768 F3048
G2 X132.994 Y205.756 I-0.177 J-1.578 F3048
G1 X133.198 Y205.722 F3048
G2 X133.318 Y205.697 I-0.261 J-1.566 F3048
G1 X133.719 Y205.598 F3048
G2 X133.801 Y205.576 I-0.381 J-1.541 F3048
G1 X134.198 Y205.455 F3048
G2 X134.575 Y205.283 I-0.463 J-1.519 F3048
G1 X135.172 Y204.911 F3048
G2 X135.21 Y204.886 I-0.84 J-1.347 F3048
G1 X135.499 Y204.694 F3048
G2 X135.543 Y204.664 I-0.878 J-1.322 F3048
G1 X135.822 Y204.465 F3048
G2 X135.885 Y204.418 I-0.922 J-1.292 F3048
G1 X136.149 Y204.209 F3048
G2 X136.22 Y204.149 I-0.985 J-1.245 F3048
G1 X136.467 Y203.929 F3048
G2 X136.562 Y203.837 I-1.056 J-1.185 F3048
G1 X136.786 Y203.601 F3048
G2 X136.877 Y203.497 I-1.151 J-1.093 F3048
G1 X137.077 Y203.246 F3048
G2 X137.178 Y203.104 I-1.242 J-0.989 F3048
G1 X137.349 Y202.833 F3048
G2 X137.429 Y202.69 I-1.343 J-0.847 F3048
G1 X137.572 Y202.401 F3048
G2 X137.629 Y202.272 I-1.423 J-0.704 F3048
G1 X137.748 Y201.966 F3048
G2 X137.784 Y201.863 I-1.48 J-0.575 F3048
G1 X137.883 Y201.545 F3048
G2 X137.908 Y201.456 I-1.516 J-0.472 F3048
G1 X137.99 Y201.126 F3048
G2 X138.002 Y201.07 I-1.541 J-0.383 F3048
G1 X138.073 Y200.733 F3048
G2 X138.084 Y200.681 I-1.553 J-0.327 F3048
G1 X138.204 Y199.993 F3048
G2 X138.229 Y199.718 I-1.563 J-0.275 F3048
G1 Y199.44 F3048
G2 X138.224 Y199.321 I-1.587 F3048
G1 X138.193 Y198.907 F3048
G2 X138.187 Y198.842 I-1.583 J0.119 F3048
G1 X138.163 Y198.636 F3048
G2 X138.152 Y198.559 I-1.577 J0.184 F3048
G1 X138.118 Y198.355 F3048
G2 X138.094 Y198.24 I-1.566 J0.261 F3048
G1 X137.996 Y197.838 F3048
G2 X137.973 Y197.752 I-1.542 J0.376 F3048
G1 X137.852 Y197.354 F3048
G2 X137.68 Y196.976 I-1.519 J0.462 F3048
G1 X137.308 Y196.379 F3048
G2 X137.281 Y196.337 I-1.347 J0.84 F3048
G1 X137.088 Y196.048 F3048
G2 X137.059 Y196.006 I-1.32 J0.882 F3048
G1 X136.86 Y195.728 F3048
G2 X136.814 Y195.667 I-1.291 J0.924 F3048
G1 X136.7 Y195.522 F3048
( MOVEMENT_CUTTING)
( Safe G1 --> G0)
G0 Z3 F300
( Safe G1 --> G0)
X40.173 Y120.95 F7500
( MOVEMENT_PLUNGE)
G1 Z0.635 F339
Z-1 F339
( MOVEMENT_FINISH_CUTTING)
X39.979 Y121.121 F3048
X39.701 Y121.355 F3048
X39.428 Y121.575 F3048
X39.16 Y121.776 F3048
X38.899 Y121.955 F3048
X38.645 Y122.111 F3048
X38.399 Y122.243 F3048
X38.15 Y122.353 F3048
X37.884 Y122.45 F3048
X37.596 Y122.537 F3048
X37.284 Y122.613 F3048
X36.951 Y122.681 F3048
X36.602 Y122.742 F3048
X35.947 Y122.84 F3048
X29.236 F3048
Y110.015 F3048
X35.953 F3048
X36.542 Y110.097 F3048
X37.192 Y110.212 F3048
X37.467 Y110.274 F3048
X37.735 Y110.349 F3048
X37.981 Y110.431 F3048
X38.212 Y110.528 F3048
X38.448 Y110.643 F3048
X38.686 Y110.776 F3048
X38.932 Y110.93 F3048
X39.178 Y111.097 F3048
X39.717 Y111.5 F3048
X40.142 Y111.836 F3048
X40.498 Y112.271 F3048
X40.921 Y112.821 F3048
X41.098 Y113.072 F3048
X41.26 Y113.324 F3048
X41.403 Y113.569 F3048
X41.524 Y113.808 F3048
X41.626 Y114.047 F3048
X41.715 Y114.3 F3048
X41.793 Y114.573 F3048
X41.863 Y114.867 F3048
X41.926 Y115.183 F3048
X41.982 Y115.514 F3048
X42.073 Y116.127 F3048
Y116.736 F3048
X41.998 Y117.286 F3048
X41.894 Y117.898 F3048
X41.837 Y118.159 F3048
X41.77 Y118.411 F3048
X41.695 Y118.645 F3048
X41.608 Y118.867 F3048
X41.505 Y119.09 F3048
X41.383 Y119.321 F3048
X41.245 Y119.557 F3048
X41.096 Y119.793 F3048
X40.735 Y120.314 F3048
X40.44 Y120.716 F3048
X40.173 Y120.95 F3048
( MOVEMENT_CUTTING)
( Safe G1 --> G0)
G0 Z3 F300
( Safe G1 --> G0)
X39.897 Y120.994 F7500
( MOVEMENT_PLUNGE)
G1 Z0.635 F339
Z-1 F339
( MOVEMENT_FINISH_CUTTING)
X40.144 Y120.773 F3048
G2 X40.231 Y120.688 I-1.06 J-1.182 F3048
G1 X40.455 Y120.453 F3048
G2 X40.553 Y120.341 I-1.147 J-1.097 F3048
G1 X40.752 Y120.089 F3048
G2 X40.849 Y119.953 I-1.245 J-0.985 F3048
G1 X41.02 Y119.683 F3048
G2 X41.103 Y119.536 I-1.341 J-0.849 F3048
G1 X41.246 Y119.246 F3048
G2 X41.301 Y119.121 I-1.424 J-0.702 F3048
G1 X41.42 Y118.816 F3048
G2 X41.457 Y118.709 I-1.479 J-0.577 F3048
G1 X41.556 Y118.39 F3048
G2 X41.579 Y118.307 I-1.516 J-0.47 F3048
G1 X41.662 Y117.978 F3048
G2 X41.676 Y117.917 I-1.54 J-0.387 F3048
G1 X41.746 Y117.58 F3048
G2 X41.756 Y117.529 I-1.554 J-0.326 F3048
G1 X41.877 Y116.841 F3048
G2 X41.902 Y116.566 I-1.563 J-0.275 F3048
G1 Y116.288 F3048
G2 X41.897 Y116.169 I-1.588 F3048
G1 X41.866 Y115.754 F3048
G2 X41.86 Y115.689 I-1.583 J0.119 F3048
G1 X41.836 Y115.484 F3048
G2 X41.825 Y115.409 I-1.577 J0.184 F3048
G1 X41.791 Y115.205 F3048
G2 X41.767 Y115.087 I-1.566 J0.259 F3048
G1 X41.669 Y114.685 F3048
G2 X41.646 Y114.601 I-1.542 J0.377 F3048
G1 X41.525 Y114.202 F3048
G2 X41.352 Y113.822 I-1.519 J0.461 F3048
G1 X40.98 Y113.226 F3048
G2 X40.955 Y113.188 I-1.346 J0.841 F3048
G1 X40.763 Y112.899 F3048
G2 X40.733 Y112.856 I-1.322 J0.879 F3048
G1 X40.534 Y112.577 F3048
G2 X40.487 Y112.514 I-1.292 J0.922 F3048
G1 X40.278 Y112.25 F3048
G2 X40.215 Y112.175 I-1.245 J0.985 F3048
G1 X39.994 Y111.929 F3048
G2 X39.908 Y111.84 I-1.181 J1.06 F3048
G1 X39.672 Y111.616 F3048
G2 X39.565 Y111.522 I-1.095 J1.149 F3048
G1 X39.313 Y111.322 F3048
G2 X39.17 Y111.22 I-0.988 J1.243 F3048
G1 X38.899 Y111.05 F3048
G2 X38.758 Y110.972 I-0.844 J1.345 F3048
G1 X38.469 Y110.829 F3048
G2 X38.342 Y110.773 I-0.703 J1.423 F3048
G1 X38.037 Y110.654 F3048
G2 X37.927 Y110.616 I-0.577 J1.479 F3048
G1 X37.608 Y110.518 F3048
G2 X37.53 Y110.496 I-0.467 J1.517 F3048
G1 X37.2 Y110.413 F3048
G2 X37.135 Y110.398 I-0.388 J1.539 F3048
G1 X36.798 Y110.328 F3048
G2 X36.75 Y110.318 I-0.323 J1.554 F3048
G1 X36.062 Y110.197 F3048
G2 X35.787 Y110.174 I-0.275 J1.564 F3048
G1 X30.994 F3048
G2 X29.407 Y111.761 J1.588 F3048
G1 Y121.092 F3048
G2 X30.994 Y122.679 I1.587 F3048
G1 X35.787 F3048
G2 X35.906 Y122.675 J-1.587 F3048
G1 X36.319 Y122.644 F3048
G2 X36.385 Y122.638 I-0.119 J-1.583 F3048
G1 X36.59 Y122.614 F3048
G2 X36.668 Y122.603 I-0.184 J-1.577 F3048
G1 X36.871 Y122.569 F3048
G2 X36.986 Y122.545 I-0.262 J-1.566 F3048
G1 X37.387 Y122.447 F3048
G2 X37.474 Y122.424 I-0.377 J-1.542 F3048
G1 X37.871 Y122.303 F3048
G2 X38.248 Y122.131 I-0.463 J-1.519 F3048
G1 X38.844 Y121.759 F3048
G2 X38.882 Y121.735 I-0.84 J-1.347 F3048
G1 X39.172 Y121.543 F3048
G2 X39.217 Y121.512 I-0.878 J-1.323 F3048
G1 X39.495 Y121.313 F3048
G2 X39.558 Y121.266 I-0.922 J-1.292 F3048
G1 X39.822 Y121.057 F3048
G2 X39.897 Y120.994 I-0.985 J-1.245 F3048
( MOVEMENT_CUTTING)
( Safe G1 --> G0)
G0 Z3 F300
( *** SECTION end ***)
()
(When using Fusion for Personal Use, the feedrate of rapid)
(moves is reduced to match the feedrate of cutting moves,)
(which can increase machining time. Unrestricted rapid moves)
(are available with a Fusion Subscription.)
( *** SECTION begin ***)
(   X Min: 29.537 - X Max: 161.513)
(   Y Min: 23.743 - Y Max: 205.367)
(   Z Min: -12.438 - Z Max: 15)
( SafeZ retract level: 5)
( boxBottomAdaptive - Milling - Tool: 2 -  flat end mill)
( COMMAND_START_SPINDLE)
( COMMAND_SPINDLE_CLOCKWISE)
( COMMAND_COOLANT_ON)
( >>> WARNING: No matching Coolant channel : Flood requested)
( First G1 --> G0)
Z15 F300
X42.155 Y35.761 F7500
( Safe G1 --> G0)
Z5 F300
G1 Z2.5 F3048
( MOVEMENT_RAMP_HELIX)
X42.255 Y35.709 Z2.496 F3048
X42.357 Y35.664 Z2.492 F3048
X42.463 Y35.626 Z2.488 F3048
X42.571 Y35.596 Z2.484 F3048
X42.681 Y35.574 Z2.48 F3048
X42.793 Y35.56 Z2.476 F3048
X42.905 Y35.554 Z2.473 F3048
X43.017 Y35.555 Z2.469 F3048
X43.128 Y35.565 Z2.465 F3048
X43.239 Y35.583 Z2.461 F3048
X43.348 Y35.608 Z2.457 F3048
X43.456 Y35.641 Z2.453 F3048
X43.56 Y35.681 Z2.449 F3048
X43.662 Y35.729 Z2.445 F3048
X43.76 Y35.784 Z2.441 F3048
X43.853 Y35.846 Z2.437 F3048
X43.942 Y35.914 Z2.433 F3048
X44.026 Y35.988 Z2.429 F3048
X44.105 Y36.068 Z2.426 F3048
X44.177 Y36.154 Z2.422 F3048
X44.244 Y36.244 Z2.418 F3048
X44.304 Y36.339 Z2.414 F3048
X44.357 Y36.438 Z2.41 F3048
X44.403 Y36.54 Z2.406 F3048
X44.441 Y36.646 Z2.402 F3048
X44.472 Y36.753 Z2.398 F3048
X44.495 Y36.863 Z2.394 F3048
X44.51 Y36.974 Z2.39 F3048
X44.518 Y37.086 Z2.386 F3048
X44.517 Y37.198 Z2.382 F3048
X44.509 Y37.31 Z2.379 F3048
X44.492 Y37.421 Z2.375 F3048
X44.468 Y37.53 Z2.371 F3048
X44.436 Y37.637 Z2.367 F3048
X44.397 Y37.742 Z2.363 F3048
X44.35 Y37.844 Z2.359 F3048
X44.296 Y37.942 Z2.355 F3048
X44.235 Y38.036 Z2.351 F3048
X44.168 Y38.126 Z2.347 F3048
X44.095 Y38.211 Z2.343 F3048
X44.016 Y38.29 Z2.339 F3048
X43.931 Y38.363 Z2.335 F3048
X43.841 Y38.43 Z2.332 F3048
X43.747 Y38.491 Z2.328 F3048
X43.649 Y38.545 Z2.324 F3048
X43.547 Y38.592 Z2.32 F3048
X43.442 Y38.631 Z2.316 F3048
X43.335 Y38.663 Z2.312 F3048
X43.225 Y38.687 Z2.308 F3048
X43.115 Y38.704 Z2.304 F3048
X43.003 Y38.712 Z2.3 F3048
X42.891 Y38.713 Z2.296 F3048
X42.779 Y38.705 Z2.292 F3048
X42.668 Y38.69 Z2.288 F3048
X42.558 Y38.667 Z2.285 F3048
X42.451 Y38.636 Z2.281 F3048
X42.346 Y38.598 Z2.277 F3048
X42.244 Y38.552 Z2.273 F3048
X42.145 Y38.499 Z2.269 F3048
X42.05 Y38.439 Z2.265 F3048
X41.96 Y38.373 Z2.261 F3048
X41.875 Y38.3 Z2.257 F3048
X41.795 Y38.222 Z2.253 F3048
X41.721 Y38.138 Z2.249 F3048
X41.653 Y38.049 Z2.245 F3048
X41.591 Y37.956 Z2.241 F3048
X41.537 Y37.858 Z2.238 F3048
X41.489 Y37.757 Z2.234 F3048
X41.449 Y37.653 Z2.23 F3048
X41.416 Y37.546 Z2.226 F3048
X41.391 Y37.437 Z2.222 F3048
X41.373 Y37.326 Z2.218 F3048
X41.364 Y37.215 Z2.214 F3048
X41.362 Y37.103 Z2.21 F3048
X41.368 Y36.991 Z2.206 F3048
X41.382 Y36.88 Z2.202 F3048
X41.405 Y36.771 Z2.198 F3048
X41.434 Y36.663 Z2.194 F3048
X41.472 Y36.557 Z2.191 F3048
X41.516 Y36.455 Z2.187 F3048
X41.568 Y36.356 Z2.183 F3048
X41.627 Y36.26 Z2.179 F3048
X41.692 Y36.17 Z2.175 F3048
X41.764 Y36.084 Z2.171 F3048
X41.842 Y36.003 Z2.167 F3048
X41.925 Y35.928 Z2.163 F3048
X42.013 Y35.86 Z2.159 F3048
X42.105 Y35.797 Z2.155 F3048
X42.202 Y35.742 Z2.151 F3048
X42.303 Y35.693 Z2.147 F3048
X42.407 Y35.652 Z2.144 F3048
X42.513 Y35.618 Z2.14 F3048
X42.622 Y35.591 Z2.136 F3048
X42.732 Y35.573 Z2.132 F3048
X42.843 Y35.562 Z2.128 F3048
X42.955 Y35.56 Z2.124 F3048
X43.067 Y35.565 Z2.12 F3048
X43.178 Y35.578 Z2.116 F3048
X43.288 Y35.599 Z2.112 F3048
X43.396 Y35.628 Z2.108 F3048
X43.501 Y35.664 Z2.104 F3048
X43.604 Y35.708 Z2.1 F3048
X43.704 Y35.759 Z2.096 F3048
X43.799 Y35.816 Z2.093 F3048
X43.891 Y35.881 Z2.089 F3048
X43.977 Y35.951 Z2.085 F3048
X44.058 Y36.028 Z2.081 F3048
X44.134 Y36.11 Z2.077 F3048
X44.204 Y36.198 Z2.073 F3048
X44.267 Y36.29 Z2.069 F3048
X44.323 Y36.386 Z2.065 F3048
X44.373 Y36.487 Z2.061 F3048
X44.415 Y36.59 Z2.057 F3048
X44.45 Y36.696 Z2.053 F3048
X44.477 Y36.804 Z2.049 F3048
X44.497 Y36.914 Z2.046 F3048
X44.509 Y37.025 Z2.042 F3048
X44.512 Y37.137 Z2.038 F3048
X44.508 Y37.248 Z2.034 F3048
X44.496 Y37.359 Z2.03 F3048
X44.476 Y37.469 Z2.026 F3048
X44.449 Y37.577 Z2.022 F3048
X44.414 Y37.683 Z2.018 F3048
X44.371 Y37.786 Z2.014 F3048
X44.321 Y37.886 Z2.01 F3048
X44.264 Y37.982 Z2.006 F3048
X44.201 Y38.074 Z2.002 F3048
X44.131 Y38.161 Z1.999 F3048
X44.055 Y38.243 Z1.995 F3048
X43.974 Y38.319 Z1.991 F3048
X43.887 Y38.39 Z1.987 F3048
X43.796 Y38.454 Z1.983 F3048
X43.7 Y38.511 Z1.979 F3048
X43.6 Y38.562 Z1.975 F3048
X43.498 Y38.605 Z1.971 F3048
X43.392 Y38.641 Z1.967 F3048
X43.284 Y38.669 Z1.963 F3048
X43.174 Y38.69 Z1.959 F3048
X43.063 Y38.702 Z1.955 F3048
X42.952 Y38.707 Z1.952 F3048
X42.84 Y38.704 Z1.948 F3048
X42.729 Y38.693 Z1.944 F3048
X42.62 Y38.675 Z1.94 F3048
X42.511 Y38.648 Z1.936 F3048
X42.405 Y38.614 Z1.932 F3048
X42.302 Y38.572 Z1.928 F3048
X42.202 Y38.524 Z1.924 F3048
X42.105 Y38.468 Z1.92 F3048
X42.013 Y38.405 Z1.916 F3048
X41.925 Y38.336 Z1.912 F3048
X41.842 Y38.261 Z1.908 F3048
X41.765 Y38.181 Z1.905 F3048
X41.694 Y38.095 Z1.901 F3048
X41.629 Y38.004 Z1.897 F3048
X41.571 Y37.909 Z1.893 F3048
X41.52 Y37.81 Z1.889 F3048
X41.476 Y37.708 Z1.885 F3048
X41.439 Y37.603 Z1.881 F3048
X41.409 Y37.495 Z1.877 F3048
X41.388 Y37.386 Z1.873 F3048
X41.374 Y37.275 Z1.869 F3048
X41.368 Y37.164 Z1.865 F3048
X41.37 Y37.053 Z1.861 F3048
X41.38 Y36.941 Z1.858 F3048
X41.397 Y36.831 Z1.854 F3048
X41.423 Y36.723 Z1.85 F3048
X41.456 Y36.616 Z1.846 F3048
X41.497 Y36.513 Z1.842 F3048
X41.544 Y36.412 Z1.838 F3048
X41.599 Y36.315 Z1.834 F3048
X41.661 Y36.222 Z1.83 F3048
X41.729 Y36.134 Z1.826 F3048
X41.803 Y36.051 Z1.822 F3048
X41.882 Y35.973 Z1.818 F3048
X41.967 Y35.901 Z1.814 F3048
X42.057 Y35.836 Z1.811 F3048
X42.152 Y35.776 Z1.807 F3048
X42.25 Y35.724 Z1.803 F3048
X42.352 Y35.679 Z1.799 F3048
X42.456 Y35.641 Z1.795 F3048
X42.564 Y35.611 Z1.791 F3048
X42.673 Y35.588 Z1.787 F3048
X42.783 Y35.573 Z1.783 F3048
X42.894 Y35.566 Z1.779 F3048
X43.005 Y35.567 Z1.775 F3048
X43.116 Y35.576 Z1.771 F3048
X43.227 Y35.593 Z1.767 F3048
X43.335 Y35.617 Z1.763 F3048
X43.442 Y35.649 Z1.76 F3048
X43.546 Y35.688 Z1.756 F3048
X43.647 Y35.735 Z1.752 F3048
X43.744 Y35.789 Z1.748 F3048
X43.838 Y35.85 Z1.744 F3048
X43.927 Y35.917 Z1.74 F3048
X44.011 Y35.99 Z1.736 F3048
X44.089 Y36.069 Z1.732 F3048
X44.162 Y36.153 Z1.728 F3048
X44.228 Y36.242 Z1.724 F3048
X44.288 Y36.336 Z1.72 F3048
X44.341 Y36.434 Z1.716 F3048
X44.387 Y36.535 Z1.713 F3048
X44.426 Y36.639 Z1.709 F3048
X44.458 Y36.746 Z1.705 F3048
X44.481 Y36.855 Z1.701 F3048
X44.497 Y36.965 Z1.697 F3048
X44.505 Y37.076 Z1.693 F3048
Y37.187 Z1.689 F3048
X44.498 Y37.298 Z1.685 F3048
X44.482 Y37.408 Z1.681 F3048
X44.459 Y37.517 Z1.677 F3048
X44.428 Y37.623 Z1.673 F3048
X44.39 Y37.728 Z1.669 F3048
X44.344 Y37.829 Z1.666 F3048
X44.291 Y37.927 Z1.662 F3048
X44.231 Y38.021 Z1.658 F3048
X44.165 Y38.11 Z1.654 F3048
X44.093 Y38.195 Z1.65 F3048
X44.015 Y38.274 Z1.646 F3048
X43.931 Y38.347 Z1.642 F3048
X43.843 Y38.415 Z1.638 F3048
X43.75 Y38.475 Z1.634 F3048
X43.652 Y38.53 Z1.63 F3048
X43.552 Y38.577 Z1.626 F3048
X43.448 Y38.617 Z1.622 F3048
X43.342 Y38.649 Z1.619 F3048
X43.233 Y38.674 Z1.615 F3048
X43.124 Y38.691 Z1.611 F3048
X43.013 Y38.7 Z1.607 F3048
X42.902 Y38.701 Z1.603 F3048
X42.791 Y38.694 Z1.599 F3048
X42.681 Y38.68 Z1.595 F3048
X42.572 Y38.658 Z1.591 F3048
X42.465 Y38.628 Z1.587 F3048
X42.36 Y38.59 Z1.583 F3048
X42.259 Y38.546 Z1.579 F3048
X42.16 Y38.494 Z1.575 F3048
X42.066 Y38.435 Z1.572 F3048
X41.976 Y38.37 Z1.568 F3048
X41.891 Y38.299 Z1.564 F3048
X41.811 Y38.221 Z1.56 F3048
X41.737 Y38.139 Z1.556 F3048
X41.669 Y38.051 Z1.552 F3048
X41.607 Y37.959 Z1.548 F3048
X41.552 Y37.862 Z1.544 F3048
X41.504 Y37.762 Z1.54 F3048
X41.464 Y37.659 Z1.536 F3048
X41.43 Y37.553 Z1.532 F3048
X41.404 Y37.445 Z1.528 F3048
X41.386 Y37.335 Z1.525 F3048
X41.376 Y37.224 Z1.521 F3048
X41.374 Y37.113 Z1.517 F3048
X41.379 Y37.002 Z1.513 F3048
X41.393 Y36.892 Z1.509 F3048
X41.414 Y36.783 Z1.505 F3048
X41.443 Y36.676 Z1.501 F3048
X41.479 Y36.571 Z1.497 F3048
X41.523 Y36.469 Z1.493 F3048
X41.573 Y36.371 Z1.489 F3048
X41.631 Y36.276 Z1.485 F3048
X41.695 Y36.186 Z1.481 F3048
X41.766 Y36.1 Z1.478 F3048
X41.842 Y36.019 Z1.474 F3048
X41.924 Y35.945 Z1.47 F3048
X42.011 Y35.876 Z1.466 F3048
X42.103 Y35.813 Z1.462 F3048
X42.199 Y35.757 Z1.458 F3048
X42.298 Y35.708 Z1.454 F3048
X42.401 Y35.667 Z1.45 F3048
X42.506 Y35.632 Z1.446 F3048
X42.614 Y35.606 Z1.442 F3048
X42.723 Y35.587 Z1.438 F3048
X42.834 Y35.575 Z1.434 F3048
X42.945 Y35.572 Z1.431 F3048
X43.055 Y35.576 Z1.427 F3048
X43.166 Y35.589 Z1.423 F3048
X43.275 Y35.609 Z1.419 F3048
X43.382 Y35.636 Z1.415 F3048
X43.487 Y35.672 Z1.411 F3048
X43.59 Y35.714 Z1.407 F3048
X43.689 Y35.764 Z1.403 F3048
X43.784 Y35.821 Z1.399 F3048
X43.875 Y35.884 Z1.395 F3048
X43.961 Y35.954 Z1.391 F3048
X44.042 Y36.029 Z1.387 F3048
X44.118 Y36.11 Z1.383 F3048
X44.188 Y36.196 Z1.38 F3048
X44.251 Y36.287 Z1.376 F3048
X44.308 Y36.383 Z1.372 F3048
X44.357 Y36.482 Z1.368 F3048
X44.4 Y36.584 Z1.364 F3048
X44.435 Y36.689 Z1.36 F3048
X44.463 Y36.796 Z1.356 F3048
X44.483 Y36.905 Z1.352 F3048
X44.496 Y37.015 Z1.348 F3048
X44.5 Y37.126 Z1.344 F3048
X44.497 Y37.237 Z1.34 F3048
X44.486 Y37.347 Z1.336 F3048
X44.467 Y37.456 Z1.333 F3048
X44.44 Y37.564 Z1.329 F3048
X44.406 Y37.669 Z1.325 F3048
X44.364 Y37.772 Z1.321 F3048
X44.315 Y37.871 Z1.317 F3048
X44.26 Y37.967 Z1.313 F3048
X44.197 Y38.058 Z1.309 F3048
X44.128 Y38.145 Z1.305 F3048
X44.054 Y38.227 Z1.301 F3048
X43.973 Y38.303 Z1.297 F3048
X43.888 Y38.374 Z1.293 F3048
X43.798 Y38.438 Z1.289 F3048
X43.703 Y38.496 Z1.286 F3048
X43.605 Y38.546 Z1.282 F3048
X43.503 Y38.59 Z1.278 F3048
X43.399 Y38.626 Z1.274 F3048
X43.292 Y38.655 Z1.27 F3048
X43.183 Y38.676 Z1.266 F3048
X43.073 Y38.69 Z1.262 F3048
X42.963 Y38.695 Z1.258 F3048
X42.852 Y38.693 Z1.254 F3048
X42.742 Y38.683 Z1.25 F3048
X42.633 Y38.665 Z1.246 F3048
X42.525 Y38.639 Z1.242 F3048
X42.419 Y38.606 Z1.239 F3048
X42.316 Y38.566 Z1.235 F3048
X42.217 Y38.518 Z1.231 F3048
X42.12 Y38.463 Z1.227 F3048
X42.028 Y38.402 Z1.223 F3048
X41.941 Y38.334 Z1.219 F3048
X41.858 Y38.26 Z1.215 F3048
X41.781 Y38.181 Z1.211 F3048
X41.71 Y38.096 Z1.207 F3048
X41.645 Y38.006 Z1.203 F3048
X41.587 Y37.912 Z1.199 F3048
X41.535 Y37.814 Z1.195 F3048
X41.491 Y37.713 Z1.192 F3048
X41.453 Y37.609 Z1.188 F3048
X41.423 Y37.502 Z1.184 F3048
X41.401 Y37.394 Z1.18 F3048
X41.387 Y37.284 Z1.176 F3048
X41.38 Y37.174 Z1.172 F3048
X41.381 Y37.064 Z1.168 F3048
X41.39 Y36.953 Z1.164 F3048
X41.407 Y36.844 Z1.16 F3048
X41.432 Y36.736 Z1.156 F3048
X41.464 Y36.631 Z1.152 F3048
X41.503 Y36.527 Z1.148 F3048
X41.55 Y36.427 Z1.145 F3048
X41.604 Y36.331 Z1.141 F3048
X41.664 Y36.238 Z1.137 F3048
X41.731 Y36.15 Z1.133 F3048
X41.804 Y36.067 Z1.129 F3048
X41.883 Y35.989 Z1.125 F3048
X41.967 Y35.917 Z1.121 F3048
X42.055 Y35.852 Z1.117 F3048
X42.149 Y35.792 Z1.113 F3048
X42.246 Y35.74 Z1.109 F3048
X42.347 Y35.694 Z1.105 F3048
X42.45 Y35.656 Z1.101 F3048
X42.556 Y35.625 Z1.098 F3048
X42.665 Y35.602 Z1.094 F3048
X42.774 Y35.586 Z1.09 F3048
X42.884 Y35.579 Z1.086 F3048
X42.995 Z1.082 F3048
X43.105 Y35.587 Z1.078 F3048
X43.214 Y35.603 Z1.074 F3048
X43.322 Y35.626 Z1.07 F3048
X43.428 Y35.657 Z1.066 F3048
X43.532 Y35.696 Z1.062 F3048
X43.632 Y35.741 Z1.058 F3048
X43.729 Y35.794 Z1.054 F3048
X43.822 Y35.853 Z1.05 F3048
X43.911 Y35.919 Z1.047 F3048
X43.994 Y35.991 Z1.043 F3048
X44.073 Y36.069 Z1.039 F3048
X44.145 Y36.152 Z1.035 F3048
X44.212 Y36.24 Z1.031 F3048
X44.272 Y36.333 Z1.027 F3048
X44.326 Y36.43 Z1.023 F3048
X44.372 Y36.53 Z1.019 F3048
X44.411 Y36.633 Z1.015 F3048
X44.443 Y36.739 Z1.011 F3048
X44.467 Y36.846 Z1.007 F3048
X44.484 Y36.955 Z1.003 F3048
X44.493 Y37.066 Z1 F3048
X44.494 Y37.176 Z0.996 F3048
X44.487 Y37.286 Z0.992 F3048
X44.472 Y37.396 Z0.988 F3048
X44.45 Y37.504 Z0.984 F3048
X44.42 Y37.61 Z0.98 F3048
X44.382 Y37.714 Z0.976 F3048
X44.337 Y37.815 Z0.972 F3048
X44.286 Y37.912 Z0.968 F3048
X44.227 Y38.006 Z0.964 F3048
X44.162 Y38.095 Z0.96 F3048
X44.091 Y38.179 Z0.956 F3048
X44.014 Y38.258 Z0.953 F3048
X43.932 Y38.331 Z0.949 F3048
X43.844 Y38.399 Z0.945 F3048
X43.753 Y38.46 Z0.941 F3048
X43.657 Y38.514 Z0.937 F3048
X43.557 Y38.561 Z0.933 F3048
X43.454 Y38.602 Z0.929 F3048
X43.349 Y38.634 Z0.925 F3048
X43.242 Y38.66 Z0.921 F3048
X43.133 Y38.677 Z0.917 F3048
X43.023 Y38.687 Z0.913 F3048
X42.913 Y38.689 Z0.909 F3048
X42.803 Y38.683 Z0.906 F3048
X42.693 Y38.67 Z0.902 F3048
X42.585 Y38.648 Z0.898 F3048
X42.479 Y38.619 Z0.894 F3048
X42.375 Y38.583 Z0.89 F3048
X42.273 Y38.539 Z0.886 F3048
X42.176 Y38.488 Z0.882 F3048
X42.081 Y38.431 Z0.878 F3048
X41.992 Y38.367 Z0.874 F3048
X41.907 Y38.296 Z0.87 F3048
X41.827 Y38.22 Z0.866 F3048
X41.753 Y38.139 Z0.862 F3048
X41.685 Y38.052 Z0.859 F3048
X41.623 Y37.961 Z0.855 F3048
X41.568 Y37.865 Z0.851 F3048
X41.519 Y37.766 Z0.847 F3048
X41.478 Y37.664 Z0.843 F3048
X41.445 Y37.56 Z0.839 F3048
X41.418 Y37.453 Z0.835 F3048
X41.4 Y37.344 Z0.831 F3048
X41.389 Y37.234 Z0.827 F3048
X41.386 Y37.124 Z0.823 F3048
X41.39 Y37.014 Z0.819 F3048
X41.403 Y36.905 Z0.815 F3048
X41.423 Y36.797 Z0.812 F3048
X41.451 Y36.69 Z0.808 F3048
X41.486 Y36.586 Z0.804 F3048
X41.529 Y36.484 Z0.8 F3048
X41.579 Y36.386 Z0.796 F3048
X41.635 Y36.292 Z0.792 F3048
X41.699 Y36.201 Z0.788 F3048
X41.768 Y36.116 Z0.784 F3048
X41.843 Y36.035 Z0.78 F3048
X41.924 Y35.961 Z0.776 F3048
X42.01 Y35.892 Z0.772 F3048
X42.101 Y35.829 Z0.768 F3048
X42.195 Y35.773 Z0.765 F3048
X42.294 Y35.724 Z0.761 F3048
X42.396 Y35.682 Z0.757 F3048
X42.5 Y35.647 Z0.753 F3048
X42.607 Y35.62 Z0.749 F3048
X42.715 Y35.6 Z0.745 F3048
X42.824 Y35.588 Z0.741 F3048
X42.934 Y35.584 Z0.737 F3048
X43.044 Y35.587 Z0.733 F3048
X43.154 Y35.599 Z0.729 F3048
X43.262 Y35.618 Z0.725 F3048
X43.369 Y35.645 Z0.721 F3048
X43.473 Y35.679 Z0.718 F3048
X43.575 Y35.721 Z0.714 F3048
X43.674 Y35.77 Z0.71 F3048
X43.768 Y35.825 Z0.706 F3048
X43.859 Y35.887 Z0.702 F3048
X43.945 Y35.956 Z0.698 F3048
X44.026 Y36.03 Z0.694 F3048
X44.102 Y36.11 Z0.69 F3048
X44.171 Y36.195 Z0.686 F3048
X44.235 Y36.285 Z0.682 F3048
X44.292 Y36.379 Z0.678 F3048
X44.342 Y36.477 Z0.674 F3048
X44.385 Y36.578 Z0.67 F3048
X44.421 Y36.682 Z0.667 F3048
X44.449 Y36.789 Z0.663 F3048
X44.47 Y36.897 Z0.659 F3048
X44.483 Y37.006 Z0.655 F3048
X44.488 Y37.116 Z0.651 F3048
X44.485 Y37.226 Z0.647 F3048
X44.475 Y37.335 Z0.643 F3048
X44.457 Y37.444 Z0.639 F3048
X44.431 Y37.551 Z0.635 F3048
X44.398 Y37.655 Z0.631 F3048
X44.357 Y37.757 Z0.627 F3048
X44.31 Y37.856 Z0.623 F3048
X44.255 Y37.952 Z0.62 F3048
X44.194 Y38.043 Z0.616 F3048
X44.126 Y38.129 Z0.612 F3048
X44.053 Y38.211 Z0.608 F3048
X43.974 Y38.287 Z0.604 F3048
X43.889 Y38.358 Z0.6 F3048
X43.8 Y38.422 Z0.596 F3048
X43.707 Y38.48 Z0.592 F3048
X43.609 Y38.531 Z0.588 F3048
X43.509 Y38.575 Z0.584 F3048
X43.405 Y38.611 Z0.58 F3048
X43.299 Y38.641 Z0.576 F3048
X43.192 Y38.662 Z0.573 F3048
X43.083 Y38.677 Z0.569 F3048
X42.973 Y38.683 Z0.565 F3048
X42.863 Y38.681 Z0.561 F3048
X42.754 Y38.672 Z0.557 F3048
X42.645 Y38.655 Z0.553 F3048
X42.538 Y38.63 Z0.549 F3048
X42.433 Y38.598 Z0.545 F3048
X42.331 Y38.558 Z0.541 F3048
X42.231 Y38.512 Z0.537 F3048
X42.135 Y38.458 Z0.533 F3048
X42.044 Y38.398 Z0.529 F3048
X41.956 Y38.331 Z0.526 F3048
X41.874 Y38.258 Z0.522 F3048
X41.797 Y38.18 Z0.518 F3048
X41.726 Y38.096 Z0.514 F3048
X41.661 Y38.008 Z0.51 F3048
X41.602 Y37.915 Z0.506 F3048
X41.551 Y37.819 Z0.502 F3048
X41.506 Y37.719 Z0.498 F3048
X41.468 Y37.616 Z0.494 F3048
X41.438 Y37.51 Z0.49 F3048
X41.415 Y37.403 Z0.486 F3048
X41.4 Y37.294 Z0.482 F3048
X41.393 Y37.185 Z0.479 F3048
Y37.075 Z0.475 F3048
X41.401 Y36.965 Z0.471 F3048
X41.417 Y36.857 Z0.467 F3048
X41.441 Y36.75 Z0.463 F3048
X41.472 Y36.645 Z0.459 F3048
X41.511 Y36.542 Z0.455 F3048
X41.556 Y36.442 Z0.451 F3048
X41.609 Y36.346 Z0.447 F3048
X41.668 Y36.254 Z0.443 F3048
X41.734 Y36.166 Z0.439 F3048
X41.806 Y36.083 Z0.435 F3048
X41.883 Y36.005 Z0.432 F3048
X41.966 Y35.933 Z0.428 F3048
X42.054 Y35.867 Z0.424 F3048
X42.146 Y35.808 Z0.42 F3048
X42.242 Y35.755 Z0.416 F3048
X42.342 Y35.709 Z0.412 F3048
X42.444 Y35.671 Z0.408 F3048
X42.549 Y35.639 Z0.404 F3048
X42.656 Y35.616 Z0.4 F3048
X42.765 Y35.599 Z0.396 F3048
X42.874 Y35.591 Z0.392 F3048
X42.984 Z0.388 F3048
X43.093 Y35.598 Z0.385 F3048
X43.202 Y35.613 Z0.381 F3048
X43.309 Y35.635 Z0.377 F3048
X43.414 Y35.665 Z0.373 F3048
X43.517 Y35.703 Z0.369 F3048
X43.617 Y35.747 Z0.365 F3048
X43.714 Y35.799 Z0.361 F3048
X43.807 Y35.858 Z0.357 F3048
X43.895 Y35.922 Z0.353 F3048
X43.978 Y35.993 Z0.349 F3048
X44.057 Y36.07 Z0.345 F3048
X44.129 Y36.152 Z0.341 F3048
X44.196 Y36.239 Z0.337 F3048
X44.256 Y36.33 Z0.334 F3048
X44.31 Y36.426 Z0.33 F3048
X44.357 Y36.525 Z0.326 F3048
X44.396 Y36.627 Z0.322 F3048
X44.429 Y36.732 Z0.318 F3048
X44.454 Y36.839 Z0.314 F3048
X44.471 Y36.947 Z0.31 F3048
X44.48 Y37.056 Z0.306 F3048
X44.482 Y37.166 Z0.302 F3048
X44.476 Y37.275 Z0.298 F3048
X44.462 Y37.383 Z0.294 F3048
X44.44 Y37.491 Z0.29 F3048
X44.411 Y37.596 Z0.287 F3048
X44.375 Y37.699 Z0.283 F3048
X44.331 Y37.8 Z0.279 F3048
X44.281 Y37.897 Z0.275 F3048
X44.223 Y37.99 Z0.271 F3048
X44.159 Y38.079 Z0.267 F3048
X44.089 Y38.163 Z0.263 F3048
X44.013 Y38.242 Z0.259 F3048
X43.932 Y38.315 Z0.255 F3048
X43.846 Y38.383 Z0.251 F3048
X43.755 Y38.444 Z0.247 F3048
X43.66 Y38.498 Z0.243 F3048
X43.562 Y38.546 Z0.24 F3048
X43.46 Y38.587 Z0.236 F3048
X43.356 Y38.62 Z0.232 F3048
X43.249 Y38.646 Z0.228 F3048
X43.142 Y38.664 Z0.224 F3048
X43.033 Y38.674 Z0.22 F3048
X42.923 Y38.677 Z0.216 F3048
X42.814 Y38.672 Z0.212 F3048
X42.705 Y38.659 Z0.208 F3048
X42.598 Y38.639 Z0.204 F3048
X42.492 Y38.611 Z0.2 F3048
X42.388 Y38.575 Z0.196 F3048
X42.288 Y38.533 Z0.193 F3048
X42.19 Y38.483 Z0.189 F3048
X42.097 Y38.426 Z0.185 F3048
X42.007 Y38.364 Z0.181 F3048
X41.923 Y38.294 Z0.177 F3048
X41.843 Y38.219 Z0.173 F3048
X41.769 Y38.139 Z0.169 F3048
X41.701 Y38.054 Z0.165 F3048
X41.639 Y37.964 Z0.161 F3048
X41.584 Y37.869 Z0.157 F3048
X41.535 Y37.771 Z0.153 F3048
X41.493 Y37.67 Z0.149 F3048
X41.459 Y37.566 Z0.146 F3048
X41.432 Y37.46 Z0.142 F3048
X41.413 Y37.353 Z0.138 F3048
X41.402 Y37.244 Z0.134 F3048
X41.398 Y37.135 Z0.13 F3048
X41.402 Y37.026 Z0.126 F3048
X41.414 Y36.917 Z0.122 F3048
X41.433 Y36.809 Z0.118 F3048
X41.46 Y36.703 Z0.114 F3048
X41.494 Y36.6 Z0.11 F3048
X41.536 Y36.499 Z0.106 F3048
X41.585 Y36.401 Z0.102 F3048
X41.64 Y36.307 Z0.099 F3048
X41.702 Y36.217 Z0.095 F3048
X41.771 Y36.131 Z0.091 F3048
X41.845 Y36.051 Z0.087 F3048
X41.924 Y35.976 Z0.083 F3048
X42.009 Y35.907 Z0.079 F3048
X42.098 Y35.845 Z0.075 F3048
X42.192 Y35.788 Z0.071 F3048
X42.289 Y35.739 Z0.067 F3048
X42.39 Y35.697 Z0.063 F3048
X42.493 Y35.661 Z0.059 F3048
X42.599 Y35.634 Z0.055 F3048
X42.706 Y35.613 Z0.052 F3048
X42.815 Y35.601 Z0.048 F3048
X42.924 Y35.596 Z0.044 F3048
X43.033 Y35.599 Z0.04 F3048
X43.141 Y35.609 Z0.036 F3048
X43.249 Y35.628 Z0.032 F3048
X43.355 Y35.654 Z0.028 F3048
X43.459 Y35.687 Z0.024 F3048
X43.56 Y35.728 Z0.02 F3048
X43.659 Y35.775 Z0.016 F3048
X43.753 Y35.83 Z0.012 F3048
X43.844 Y35.891 Z0.008 F3048
X43.929 Y35.958 Z0.005 F3048
X44.01 Y36.032 Z0.001 F3048
X44.086 Y36.111 Z-0.003 F3048
X44.156 Y36.195 Z-0.007 F3048
X44.219 Y36.283 Z-0.011 F3048
X44.276 Y36.376 Z-0.015 F3048
X44.327 Y36.473 Z-0.019 F3048
X44.37 Y36.573 Z-0.023 F3048
X44.406 Y36.676 Z-0.027 F3048
X44.435 Y36.781 Z-0.031 F3048
X44.456 Y36.888 Z-0.035 F3048
X44.47 Y36.997 Z-0.039 F3048
X44.476 Y37.105 Z-0.043 F3048
X44.474 Y37.214 Z-0.046 F3048
X44.464 Y37.323 Z-0.05 F3048
X44.447 Y37.431 Z-0.054 F3048
X44.422 Y37.537 Z-0.058 F3048
X44.39 Y37.641 Z-0.062 F3048
X44.35 Y37.743 Z-0.066 F3048
X44.304 Y37.841 Z-0.07 F3048
X44.25 Y37.936 Z-0.074 F3048
X44.19 Y38.027 Z-0.078 F3048
X44.124 Y38.114 Z-0.082 F3048
X44.051 Y38.195 Z-0.086 F3048
X43.973 Y38.271 Z-0.09 F3048
X43.89 Y38.342 Z-0.093 F3048
X43.802 Y38.406 Z-0.097 F3048
X43.71 Y38.464 Z-0.101 F3048
X43.613 Y38.515 Z-0.105 F3048
X43.514 Y38.56 Z-0.109 F3048
X43.411 Y38.597 Z-0.113 F3048
X43.306 Y38.627 Z-0.117 F3048
X43.2 Y38.649 Z-0.121 F3048
X43.091 Y38.663 Z-0.125 F3048
X42.983 Y38.67 Z-0.129 F3048
X42.874 Z-0.133 F3048
X42.765 Y38.661 Z-0.137 F3048
X42.657 Y38.645 Z-0.14 F3048
X42.551 Y38.621 Z-0.144 F3048
X42.447 Y38.59 Z-0.148 F3048
X42.345 Y38.551 Z-0.152 F3048
X42.246 Y38.506 Z-0.156 F3048
X42.151 Y38.453 Z-0.16 F3048
X42.059 Y38.394 Z-0.164 F3048
X41.972 Y38.328 Z-0.168 F3048
X41.89 Y38.257 Z-0.172 F3048
X41.813 Y38.18 Z-0.176 F3048
X41.742 Y38.097 Z-0.18 F3048
X41.677 Y38.01 Z-0.184 F3048
X41.618 Y37.918 Z-0.187 F3048
X41.566 Y37.823 Z-0.191 F3048
X41.521 Y37.724 Z-0.195 F3048
X41.483 Y37.622 Z-0.199 F3048
X41.452 Y37.517 Z-0.203 F3048
X41.429 Y37.411 Z-0.207 F3048
X41.413 Y37.303 Z-0.211 F3048
X41.405 Y37.194 Z-0.215 F3048
Y37.086 Z-0.219 F3048
X41.412 Y36.977 Z-0.223 F3048
X41.427 Y36.869 Z-0.227 F3048
X41.45 Y36.763 Z-0.231 F3048
X41.48 Y36.658 Z-0.234 F3048
X41.518 Y36.556 Z-0.238 F3048
X41.563 Y36.456 Z-0.242 F3048
X41.614 Y36.361 Z-0.246 F3048
X41.672 Y36.269 Z-0.25 F3048
X41.737 Y36.181 Z-0.254 F3048
X41.808 Y36.099 Z-0.258 F3048
X41.884 Y36.021 Z-0.262 F3048
X41.966 Y35.949 Z-0.266 F3048
X42.052 Y35.883 Z-0.27 F3048
X42.143 Y35.824 Z-0.274 F3048
X42.238 Y35.771 Z-0.278 F3048
X42.337 Y35.725 Z-0.281 F3048
X42.438 Y35.686 Z-0.285 F3048
X42.542 Y35.654 Z-0.289 F3048
X42.648 Y35.63 Z-0.293 F3048
X42.756 Y35.613 Z-0.297 F3048
X42.864 Y35.604 Z-0.301 F3048
X42.973 Y35.602 Z-0.305 F3048
X43.081 Y35.609 Z-0.309 F3048
X43.189 Y35.623 Z-0.313 F3048
X43.296 Y35.645 Z-0.317 F3048
X43.401 Y35.674 Z-0.321 F3048
X43.503 Y35.71 Z-0.325 F3048
X43.603 Y35.754 Z-0.328 F3048
X43.699 Y35.805 Z-0.332 F3048
X43.791 Y35.862 Z-0.336 F3048
X43.88 Y35.926 Z-0.34 F3048
X43.963 Y35.996 Z-0.344 F3048
X44.041 Y36.071 Z-0.348 F3048
X44.114 Y36.152 Z-0.352 F3048
X44.18 Y36.238 Z-0.356 F3048
X44.241 Y36.328 Z-0.36 F3048
X44.295 Y36.422 Z-0.364 F3048
X44.342 Y36.52 Z-0.368 F3048
X44.382 Y36.621 Z-0.372 F3048
X44.414 Y36.725 Z-0.376 F3048
X44.44 Y36.831 Z-0.379 F3048
X44.457 Y36.938 Z-0.383 F3048
X44.467 Y37.046 Z-0.387 F3048
X44.47 Y37.155 Z-0.391 F3048
X44.465 Y37.263 Z-0.395 F3048
X44.452 Y37.371 Z-0.399 F3048
X44.431 Y37.478 Z-0.403 F3048
X44.403 Y37.583 Z-0.407 F3048
X44.367 Y37.685 Z-0.411 F3048
X44.325 Y37.785 Z-0.415 F3048
X44.275 Y37.882 Z-0.419 F3048
X44.219 Y37.975 Z-0.423 F3048
X44.156 Y38.063 Z-0.426 F3048
X44.087 Y38.147 Z-0.43 F3048
X44.012 Y38.226 Z-0.434 F3048
X43.932 Y38.299 Z-0.438 F3048
X43.847 Y38.367 Z-0.442 F3048
X43.757 Y38.428 Z-0.446 F3048
X43.663 Y38.483 Z-0.45 F3048
X43.566 Y38.531 Z-0.454 F3048
X43.465 Y38.572 Z-0.458 F3048
X43.362 Y38.605 Z-0.462 F3048
X43.257 Y38.632 Z-0.466 F3048
X43.15 Y38.651 Z-0.47 F3048
X43.042 Y38.662 Z-0.473 F3048
X42.934 Y38.665 Z-0.477 F3048
X42.825 Y38.661 Z-0.481 F3048
X42.717 Y38.649 Z-0.485 F3048
X42.611 Y38.629 Z-0.489 F3048
X42.506 Y38.602 Z-0.493 F3048
X42.403 Y38.568 Z-0.497 F3048
X42.302 Y38.526 Z-0.501 F3048
X42.205 Y38.478 Z-0.505 F3048
X42.112 Y38.422 Z-0.509 F3048
X42.023 Y38.36 Z-0.513 F3048
X41.939 Y38.292 Z-0.517 F3048
X41.859 Y38.218 Z-0.52 F3048
X41.785 Y38.139 Z-0.524 F3048
X41.717 Y38.055 Z-0.528 F3048
X41.655 Y37.966 Z-0.532 F3048
X41.599 Y37.873 Z-0.536 F3048
X41.55 Y37.776 Z-0.54 F3048
X41.508 Y37.676 Z-0.544 F3048
X41.474 Y37.573 Z-0.548 F3048
X41.446 Y37.468 Z-0.552 F3048
X41.427 Y37.361 Z-0.556 F3048
X41.415 Y37.253 Z-0.56 F3048
X41.41 Y37.145 Z-0.564 F3048
X41.413 Y37.036 Z-0.567 F3048
X41.424 Y36.928 Z-0.571 F3048
X41.443 Y36.822 Z-0.575 F3048
X41.469 Y36.717 Z-0.579 F3048
X41.502 Y36.613 Z-0.583 F3048
X41.543 Y36.513 Z-0.587 F3048
X41.59 Y36.416 Z-0.591 F3048
X41.645 Y36.322 Z-0.595 F3048
X41.706 Y36.232 Z-0.599 F3048
X41.773 Y36.147 Z-0.603 F3048
X41.846 Y36.067 Z-0.607 F3048
X41.924 Y35.992 Z-0.611 F3048
X42.008 Y35.924 Z-0.614 F3048
X42.096 Y35.861 Z-0.618 F3048
X42.189 Y35.804 Z-0.622 F3048
X42.285 Y35.755 Z-0.626 F3048
X42.384 Y35.712 Z-0.63 F3048
X42.487 Y35.676 Z-0.634 F3048
X42.591 Y35.648 Z-0.638 F3048
X42.698 Y35.627 Z-0.642 F3048
X42.805 Y35.614 Z-0.646 F3048
X42.914 Y35.608 Z-0.65 F3048
X43.022 Y35.61 Z-0.654 F3048
X43.13 Y35.62 Z-0.658 F3048
X43.237 Y35.638 Z-0.661 F3048
X43.342 Y35.663 Z-0.665 F3048
X43.446 Y35.695 Z-0.669 F3048
X43.546 Y35.735 Z-0.673 F3048
X43.644 Y35.781 Z-0.677 F3048
X43.738 Y35.835 Z-0.681 F3048
X43.828 Y35.895 Z-0.685 F3048
X43.914 Y35.961 Z-0.689 F3048
X43.995 Y36.033 Z-0.693 F3048
X44.07 Y36.111 Z-0.697 F3048
X44.14 Y36.194 Z-0.701 F3048
X44.203 Y36.281 Z-0.705 F3048
X44.261 Y36.373 Z-0.708 F3048
X44.311 Y36.469 Z-0.712 F3048
X44.355 Y36.568 Z-0.716 F3048
X44.392 Y36.67 Z-0.72 F3048
X44.421 Y36.774 Z-0.724 F3048
X44.443 Y36.88 Z-0.728 F3048
X44.457 Y36.987 Z-0.732 F3048
X44.463 Y37.095 Z-0.736 F3048
X44.462 Y37.203 Z-0.74 F3048
X44.454 Y37.311 Z-0.744 F3048
X44.437 Y37.418 Z-0.748 F3048
X44.413 Y37.524 Z-0.752 F3048
X44.382 Y37.627 Z-0.756 F3048
X44.343 Y37.728 Z-0.759 F3048
X44.298 Y37.827 Z-0.763 F3048
X44.245 Y37.921 Z-0.767 F3048
X44.186 Y38.012 Z-0.771 F3048
X44.121 Y38.098 Z-0.775 F3048
X44.049 Y38.179 Z-0.779 F3048
X43.972 Y38.256 Z-0.783 F3048
X43.89 Y38.326 Z-0.787 F3048
X43.803 Y38.391 Z-0.791 F3048
X43.712 Y38.449 Z-0.795 F3048
X43.617 Y38.5 Z-0.799 F3048
X43.519 Y38.545 Z-0.803 F3048
X43.417 Y38.582 Z-0.806 F3048
X43.313 Y38.612 Z-0.81 F3048
X43.208 Y38.635 Z-0.814 F3048
X43.101 Y38.65 Z-0.818 F3048
X42.993 Y38.658 Z-0.822 F3048
X42.885 Z-0.826 F3048
X42.777 Y38.65 Z-0.83 F3048
X42.67 Y38.635 Z-0.834 F3048
X42.564 Y38.612 Z-0.838 F3048
X42.461 Y38.582 Z-0.842 F3048
X42.359 Y38.544 Z-0.846 F3048
X42.261 Y38.5 Z-0.85 F3048
X42.166 Y38.448 Z-0.853 F3048
X42.075 Y38.39 Z-0.857 F3048
X41.988 Y38.325 Z-0.861 F3048
X41.906 Y38.255 Z-0.865 F3048
X41.829 Y38.179 Z-0.869 F3048
X41.758 Y38.098 Z-0.873 F3048
X41.693 Y38.011 Z-0.877 F3048
X41.634 Y37.921 Z-0.881 F3048
X41.582 Y37.826 Z-0.885 F3048
X41.536 Y37.728 Z-0.889 F3048
X41.497 Y37.627 Z-0.893 F3048
X41.466 Y37.524 Z-0.897 F3048
X41.442 Y37.418 Z-0.9 F3048
X41.426 Y37.312 Z-0.904 F3048
X41.418 Y37.204 Z-0.908 F3048
X41.416 Y37.096 Z-0.912 F3048
X41.423 Y36.988 Z-0.916 F3048
X41.437 Y36.881 Z-0.92 F3048
X41.459 Y36.776 Z-0.924 F3048
X41.489 Y36.672 Z-0.928 F3048
X41.525 Y36.57 Z-0.932 F3048
X41.569 Y36.471 Z-0.936 F3048
X41.619 Y36.376 Z-0.94 F3048
X41.676 Y36.284 Z-0.944 F3048
X41.74 Y36.197 Z-0.947 F3048
X41.81 Y36.115 Z-0.951 F3048
X41.885 Y36.037 Z-0.955 F3048
X41.965 Y35.965 Z-0.959 F3048
X42.051 Y35.899 Z-0.963 F3048
X42.141 Y35.84 Z-0.967 F3048
X42.235 Y35.786 Z-0.971 F3048
X42.332 Y35.74 Z-0.975 F3048
X42.433 Y35.7 Z-0.979 F3048
X42.536 Y35.668 Z-0.983 F3048
X42.641 Y35.643 Z-0.987 F3048
X42.747 Y35.626 Z-0.991 F3048
X42.855 Y35.616 Z-0.994 F3048
X42.963 Y35.614 Z-0.998 F3048
X43.07 Y35.62 Z-1.002 F3048
X43.178 Y35.633 Z-1.006 F3048
X43.284 Y35.654 Z-1.01 F3048
X43.388 Y35.682 Z-1.014 F3048
X43.489 Y35.718 Z-1.018 F3048
X43.588 Y35.76 Z-1.022 F3048
X43.684 Y35.81 Z-1.026 F3048
X43.776 Y35.866 Z-1.03 F3048
X43.864 Y35.929 Z-1.034 F3048
X43.947 Y35.997 Z-1.038 F3048
X44.025 Y36.072 Z-1.041 F3048
X44.098 Y36.152 Z-1.045 F3048
X44.164 Y36.236 Z-1.049 F3048
X44.225 Y36.325 Z-1.053 F3048
X44.279 Y36.419 Z-1.057 F3048
X44.326 Y36.516 Z-1.061 F3048
X44.367 Y36.616 Z-1.065 F3048
X44.4 Y36.718 Z-1.069 F3048
X44.426 Y36.823 Z-1.073 F3048
X44.444 Y36.929 Z-1.077 F3048
X44.455 Y37.036 Z-1.081 F3048
X44.458 Y37.144 Z-1.085 F3048
X44.453 Y37.252 Z-1.089 F3048
X44.441 Y37.359 Z-1.092 F3048
X44.421 Y37.465 Z-1.096 F3048
X44.394 Y37.569 Z-1.1 F3048
X44.36 Y37.671 Z-1.104 F3048
X44.318 Y37.771 Z-1.108 F3048
X44.269 Y37.867 Z-1.112 F3048
X44.214 Y37.96 Z-1.116 F3048
X44.152 Y38.048 Z-1.12 F3048
X44.084 Y38.132 Z-1.124 F3048
X44.011 Y38.21 Z-1.128 F3048
X43.932 Y38.284 Z-1.132 F3048
X43.848 Y38.351 Z-1.136 F3048
X43.759 Y38.412 Z-1.139 F3048
X43.667 Y38.467 Z-1.143 F3048
X43.571 Y38.516 Z-1.147 F3048
X43.471 Y38.557 Z-1.151 F3048
X43.369 Y38.591 Z-1.155 F3048
X43.265 Y38.618 Z-1.159 F3048
X43.159 Y38.637 Z-1.163 F3048
X43.052 Y38.649 Z-1.167 F3048
X42.944 Y38.653 Z-1.171 F3048
X42.836 Y38.649 Z-1.175 F3048
X42.729 Y38.638 Z-1.179 F3048
X42.623 Y38.62 Z-1.183 F3048
X42.519 Y38.593 Z-1.186 F3048
X42.417 Y38.56 Z-1.19 F3048
X42.317 Y38.519 Z-1.194 F3048
X42.22 Y38.472 Z-1.198 F3048
X42.127 Y38.417 Z-1.202 F3048
X42.038 Y38.356 Z-1.206 F3048
X41.954 Y38.29 Z-1.21 F3048
X41.875 Y38.217 Z-1.214 F3048
X41.801 Y38.139 Z-1.218 F3048
X41.732 Y38.055 Z-1.222 F3048
X41.67 Y37.967 Z-1.226 F3048
X41.614 Y37.875 Z-1.23 F3048
X41.565 Y37.78 Z-1.233 F3048
X41.523 Y37.681 Z-1.237 F3048
X41.488 Y37.579 Z-1.241 F3048
X41.46 Y37.475 Z-1.245 F3048
X41.44 Y37.369 Z-1.249 F3048
X41.427 Y37.263 Z-1.253 F3048
X41.422 Y37.155 Z-1.257 F3048
X41.425 Y37.048 Z-1.261 F3048
X41.435 Y36.941 Z-1.265 F3048
X41.452 Y36.835 Z-1.269 F3048
X41.477 Y36.73 Z-1.273 F3048
X41.51 Y36.627 Z-1.277 F3048
X41.55 Y36.528 Z-1.28 F3048
X41.596 Y36.431 Z-1.284 F3048
X41.65 Y36.337 Z-1.288 F3048
X41.709 Y36.248 Z-1.292 F3048
X41.775 Y36.163 Z-1.296 F3048
X41.847 Y36.083 Z-1.3 F3048
X41.925 Y36.008 Z-1.304 F3048
X42.007 Y35.939 Z-1.308 F3048
X42.094 Y35.876 Z-1.312 F3048
X42.186 Y35.82 Z-1.316 F3048
X42.281 Y35.77 Z-1.32 F3048
X42.38 Y35.727 Z-1.324 F3048
X42.481 Y35.691 Z-1.327 F3048
X42.585 Y35.662 Z-1.331 F3048
X42.69 Y35.641 Z-1.335 F3048
X42.797 Y35.627 Z-1.339 F3048
X42.904 Y35.621 Z-1.343 F3048
X43.011 Y35.622 Z-1.347 F3048
X43.118 Y35.631 Z-1.351 F3048
X43.224 Y35.648 Z-1.355 F3048
X43.329 Y35.672 Z-1.359 F3048
X43.432 Y35.703 Z-1.363 F3048
X43.532 Y35.742 Z-1.367 F3048
X43.629 Y35.787 Z-1.371 F3048
X43.723 Y35.84 Z-1.374 F3048
X43.813 Y35.899 Z-1.378 F3048
X43.898 Y35.964 Z-1.382 F3048
X43.979 Y36.035 Z-1.386 F3048
X44.054 Y36.111 Z-1.39 F3048
X44.124 Y36.193 Z-1.394 F3048
X44.187 Y36.28 Z-1.398 F3048
X44.245 Y36.37 Z-1.402 F3048
X44.296 Y36.465 Z-1.406 F3048
X44.34 Y36.563 Z-1.41 F3048
X44.377 Y36.664 Z-1.414 F3048
X44.407 Y36.767 Z-1.418 F3048
X44.429 Y36.872 Z-1.421 F3048
X44.444 Y36.978 Z-1.425 F3048
X44.451 Y37.086 Z-1.429 F3048
Y37.193 Z-1.433 F3048
X44.443 Y37.3 Z-1.437 F3048
X44.427 Y37.406 Z-1.441 F3048
X44.404 Y37.511 Z-1.445 F3048
X44.374 Y37.614 Z-1.449 F3048
X44.336 Y37.715 Z-1.453 F3048
X44.291 Y37.812 Z-1.457 F3048
X44.24 Y37.906 Z-1.461 F3048
X44.182 Y37.997 Z-1.465 F3048
X44.118 Y38.083 Z-1.469 F3048
X44.048 Y38.164 Z-1.472 F3048
X43.972 Y38.24 Z-1.476 F3048
X43.891 Y38.31 Z-1.48 F3048
X43.805 Y38.375 Z-1.484 F3048
X43.715 Y38.433 Z-1.488 F3048
X43.621 Y38.485 Z-1.492 F3048
X43.524 Y38.529 Z-1.496 F3048
X43.423 Y38.567 Z-1.5 F3048
X43.321 Y38.598 Z-1.504 F3048
X43.216 Y38.621 Z-1.508 F3048
X43.11 Y38.637 Z-1.512 F3048
X43.003 Y38.645 Z-1.516 F3048
X42.896 Y38.646 Z-1.519 F3048
X42.788 Y38.639 Z-1.523 F3048
X42.682 Y38.625 Z-1.527 F3048
X42.577 Y38.603 Z-1.531 F3048
X42.474 Y38.573 Z-1.535 F3048
X42.373 Y38.537 Z-1.539 F3048
X42.275 Y38.493 Z-1.543 F3048
X42.181 Y38.443 Z-1.547 F3048
X42.09 Y38.385 Z-1.551 F3048
X42.003 Y38.322 Z-1.555 F3048
X41.921 Y38.253 Z-1.559 F3048
X41.845 Y38.178 Z-1.563 F3048
X41.774 Y38.098 Z-1.566 F3048
X41.708 Y38.013 Z-1.57 F3048
X41.649 Y37.923 Z-1.574 F3048
X41.597 Y37.83 Z-1.578 F3048
X41.551 Y37.733 Z-1.582 F3048
X41.512 Y37.633 Z-1.586 F3048
X41.481 Y37.531 Z-1.59 F3048
X41.456 Y37.426 Z-1.594 F3048
X41.439 Y37.321 Z-1.598 F3048
X41.43 Y37.214 Z-1.602 F3048
X41.428 Y37.107 Z-1.606 F3048
X41.434 Y37 Z-1.61 F3048
X41.448 Y36.894 Z-1.613 F3048
X41.469 Y36.788 Z-1.617 F3048
X41.497 Y36.685 Z-1.621 F3048
X41.533 Y36.584 Z-1.625 F3048
X41.575 Y36.486 Z-1.629 F3048
X41.625 Y36.391 Z-1.633 F3048
X41.681 Y36.3 Z-1.637 F3048
X41.743 Y36.213 Z-1.641 F3048
X41.812 Y36.13 Z-1.645 F3048
X41.886 Y36.053 Z-1.649 F3048
X41.966 Y35.981 Z-1.653 F3048
X42.05 Y35.915 Z-1.657 F3048
X42.139 Y35.855 Z-1.66 F3048
X42.232 Y35.802 Z-1.664 F3048
X42.328 Y35.755 Z-1.668 F3048
X42.427 Y35.715 Z-1.672 F3048
X42.529 Y35.682 Z-1.676 F3048
X42.633 Y35.657 Z-1.68 F3048
X42.739 Y35.639 Z-1.684 F3048
X42.845 Y35.629 Z-1.688 F3048
X42.952 Y35.626 Z-1.692 F3048
X43.059 Y35.631 Z-1.696 F3048
X43.165 Y35.643 Z-1.7 F3048
X43.27 Y35.663 Z-1.704 F3048
X43.374 Y35.691 Z-1.707 F3048
X43.475 Y35.725 Z-1.711 F3048
X43.574 Y35.767 Z-1.715 F3048
X43.669 Y35.815 Z-1.719 F3048
X43.761 Y35.871 Z-1.723 F3048
X43.848 Y35.932 Z-1.727 F3048
X43.931 Y36 Z-1.731 F3048
X44.009 Y36.073 Z-1.735 F3048
X44.082 Y36.152 Z-1.739 F3048
X44.148 Y36.235 Z-1.743 F3048
X44.209 Y36.323 Z-1.747 F3048
X44.263 Y36.416 Z-1.751 F3048
X44.311 Y36.511 Z-1.754 F3048
X44.352 Y36.61 Z-1.758 F3048
X44.385 Y36.712 Z-1.762 F3048
X44.412 Y36.816 Z-1.766 F3048
X44.431 Y36.921 Z-1.77 F3048
X44.442 Y37.027 Z-1.774 F3048
X44.446 Y37.134 Z-1.778 F3048
G3 X41.429 I-1.508 F3048
X44.446 I1.508 F3048
( MOVEMENT_CUTTING)
G1 X44.45 Y37.295 F3048
X44.635 Y37.877 F3048
X44.667 Y38.023 F3048
X44.674 Y38.173 F3048
X44.659 Y38.323 F3048
X44.625 Y38.469 F3048
X44.574 Y38.61 F3048
X44.509 Y38.745 F3048
X44.43 Y38.872 F3048
X44.335 Y38.998 F3048
X44.222 Y39.12 F3048
X44.094 Y39.235 F3048
X43.949 Y39.342 F3048
X43.788 Y39.439 F3048
X43.614 Y39.522 F3048
X43.426 Y39.591 F3048
X43.227 Y39.643 F3048
X43.018 Y39.677 F3048
X42.803 Y39.691 F3048
X42.583 Y39.684 F3048
X42.36 Y39.656 F3048
X42.137 Y39.607 F3048
X41.917 Y39.535 F3048
X41.702 Y39.441 F3048
X41.495 Y39.326 F3048
X41.297 Y39.191 F3048
X41.112 Y39.036 F3048
X40.941 Y38.863 F3048
X40.787 Y38.674 F3048
X40.65 Y38.469 F3048
X40.533 Y38.252 F3048
X40.436 Y38.023 F3048
X40.362 Y37.786 F3048
X40.31 Y37.542 F3048
X40.282 Y37.293 F3048
X40.278 Y37.042 F3048
X40.297 Y36.792 F3048
X40.34 Y36.544 F3048
X40.407 Y36.301 F3048
X40.496 Y36.065 F3048
X40.608 Y35.838 F3048
X40.74 Y35.623 F3048
X40.893 Y35.422 F3048
X41.064 Y35.235 F3048
X41.253 Y35.066 F3048
X41.456 Y34.915 F3048
X41.674 Y34.784 F3048
X41.902 Y34.675 F3048
X42.14 Y34.588 F3048
X42.386 Y34.523 F3048
X42.636 Y34.482 F3048
X42.889 Y34.466 F3048
X43.143 Y34.473 F3048
X43.395 Y34.505 F3048
X43.642 Y34.56 F3048
X43.884 Y34.638 F3048
X44.117 Y34.739 F3048
X44.339 Y34.862 F3048
X44.549 Y35.006 F3048
X44.743 Y35.168 F3048
X44.922 Y35.349 F3048
X45.083 Y35.545 F3048
X45.277 Y35.835 F3048
X45.563 Y36.366 F3048
X45.724 Y36.746 F3048
X45.828 Y37.077 F3048
X45.893 Y37.385 F3048
X45.927 Y37.68 F3048
X45.932 Y37.967 F3048
X45.911 Y38.247 F3048
X45.863 Y38.522 F3048
X45.79 Y38.791 F3048
X45.691 Y39.053 F3048
X45.566 Y39.306 F3048
X45.417 Y39.549 F3048
X45.242 Y39.779 F3048
X45.045 Y39.995 F3048
X44.824 Y40.193 F3048
X44.582 Y40.373 F3048
X44.321 Y40.531 F3048
X44.04 Y40.665 F3048
X43.743 Y40.774 F3048
X43.432 Y40.856 F3048
X43.109 Y40.909 F3048
X42.778 Y40.931 F3048
X42.442 Y40.922 F3048
X42.104 Y40.88 F3048
X41.768 Y40.805 F3048
X41.437 Y40.698 F3048
X41.115 Y40.558 F3048
X40.805 Y40.387 F3048
X40.51 Y40.186 F3048
X40.234 Y39.956 F3048
X39.98 Y39.7 F3048
X39.75 Y39.419 F3048
X39.547 Y39.116 F3048
X39.373 Y38.794 F3048
X39.229 Y38.455 F3048
X39.119 Y38.103 F3048
X39.041 Y37.741 F3048
X38.999 Y37.373 F3048
X38.992 Y37.001 F3048
X39.02 Y36.63 F3048
X39.083 Y36.262 F3048
X39.181 Y35.902 F3048
X39.313 Y35.552 F3048
X39.478 Y35.216 F3048
X39.674 Y34.896 F3048
X39.9 Y34.597 F3048
X40.154 Y34.32 F3048
X40.433 Y34.068 F3048
X40.735 Y33.844 F3048
X41.056 Y33.65 F3048
X41.395 Y33.487 F3048
X41.748 Y33.357 F3048
X42.112 Y33.261 F3048
X42.484 Y33.2 F3048
X42.859 Y33.174 F3048
X43.236 Y33.184 F3048
X43.61 Y33.23 F3048
X43.978 Y33.312 F3048
X44.336 Y33.428 F3048
X44.682 Y33.577 F3048
X45.012 Y33.759 F3048
X45.327 Y33.974 F3048
X45.635 Y34.23 F3048
X45.975 Y34.573 F3048
X46.29 Y34.957 F3048
X46.566 Y35.367 F3048
X46.795 Y35.789 F3048
X46.977 Y36.219 F3048
X47.113 Y36.651 F3048
X47.206 Y37.083 F3048
X47.256 Y37.512 F3048
X47.265 Y37.938 F3048
X47.233 Y38.357 F3048
X47.163 Y38.768 F3048
X47.054 Y39.169 F3048
X46.908 Y39.558 F3048
X46.725 Y39.932 F3048
X46.506 Y40.287 F3048
X46.254 Y40.622 F3048
X45.969 Y40.934 F3048
X45.652 Y41.22 F3048
X45.307 Y41.477 F3048
X44.935 Y41.702 F3048
X44.539 Y41.893 F3048
X44.123 Y42.047 F3048
X43.689 Y42.162 F3048
X43.241 Y42.236 F3048
X42.784 Y42.267 F3048
X42.321 Y42.255 F3048
X41.858 Y42.198 F3048
X41.398 Y42.097 F3048
X40.947 Y41.951 F3048
X40.508 Y41.762 F3048
X40.087 Y41.531 F3048
X39.687 Y41.259 F3048
X39.313 Y40.948 F3048
X38.968 Y40.602 F3048
X38.657 Y40.223 F3048
X38.382 Y39.814 F3048
X38.146 Y39.38 F3048
X37.952 Y38.924 F3048
X37.802 Y38.45 F3048
X37.697 Y37.962 F3048
X37.639 Y37.466 F3048
X37.628 Y36.966 F3048
X37.665 Y36.466 F3048
X37.75 Y35.971 F3048
X37.881 Y35.486 F3048
X38.058 Y35.014 F3048
X38.279 Y34.562 F3048
X38.543 Y34.131 F3048
X38.846 Y33.728 F3048
X39.187 Y33.355 F3048
X39.561 Y33.016 F3048
X39.967 Y32.714 F3048
X40.399 Y32.451 F3048
X40.855 Y32.231 F3048
X41.329 Y32.055 F3048
X41.819 Y31.925 F3048
X42.318 Y31.842 F3048
X42.824 Y31.807 F3048
X43.33 Y31.82 F3048
X43.833 Y31.881 F3048
X44.328 Y31.99 F3048
X44.811 Y32.146 F3048
X45.281 Y32.348 F3048
X45.737 Y32.598 F3048
X46.188 Y32.905 F3048
X46.63 Y33.271 F3048
X47.047 Y33.689 F3048
X47.428 Y34.152 F3048
X47.762 Y34.648 F3048
X48.047 Y35.17 F3048
X48.277 Y35.711 F3048
X48.453 Y36.264 F3048
X48.574 Y36.824 F3048
X48.64 Y37.386 F3048
X48.652 Y37.946 F3048
X48.612 Y38.501 F3048
X48.519 Y39.046 F3048
X48.376 Y39.578 F3048
X48.183 Y40.094 F3048
X47.942 Y40.589 F3048
X47.654 Y41.059 F3048
X47.321 Y41.502 F3048
X46.946 Y41.914 F3048
X46.531 Y42.29 F3048
X46.08 Y42.627 F3048
X45.594 Y42.922 F3048
X45.079 Y43.171 F3048
X44.538 Y43.372 F3048
X43.977 Y43.522 F3048
X43.399 Y43.619 F3048
X42.81 Y43.66 F3048
X42.215 Y43.645 F3048
X41.62 Y43.573 F3048
X41.031 Y43.445 F3048
X40.454 Y43.259 F3048
X39.893 Y43.019 F3048
X39.356 Y42.724 F3048
X38.846 Y42.378 F3048
X38.369 Y41.984 F3048
X37.93 Y41.545 F3048
X37.534 Y41.064 F3048
X37.184 Y40.545 F3048
X36.884 Y39.995 F3048
X36.637 Y39.417 F3048
X36.445 Y38.816 F3048
X36.312 Y38.199 F3048
X36.237 Y37.57 F3048
X36.222 Y36.937 F3048
X36.268 Y36.304 F3048
X36.374 Y35.677 F3048
X36.539 Y35.062 F3048
X36.762 Y34.466 F3048
X37.041 Y33.892 F3048
X37.373 Y33.348 F3048
X37.756 Y32.837 F3048
X38.186 Y32.364 F3048
X38.659 Y31.934 F3048
X39.171 Y31.551 F3048
X39.718 Y31.219 F3048
X40.293 Y30.939 F3048
X40.893 Y30.716 F3048
X41.512 Y30.551 F3048
X42.143 Y30.445 F3048
X42.782 Y30.399 F3048
X43.422 Y30.415 F3048
X44.059 Y30.491 F3048
X44.686 Y30.627 F3048
X45.298 Y30.823 F3048
X45.888 Y31.076 F3048
X46.453 Y31.381 F3048
X46.988 Y31.736 F3048
X47.491 Y32.137 F3048
X47.956 Y32.579 F3048
X48.382 Y33.06 F3048
X48.764 Y33.575 F3048
X49.102 Y34.122 F3048
X49.393 Y34.694 F3048
X49.635 Y35.289 F3048
X49.826 Y35.902 F3048
X49.964 Y36.529 F3048
X50.048 Y37.166 F3048
X50.076 Y37.807 F3048
X50.047 Y38.449 F3048
X49.961 Y39.085 F3048
X49.819 Y39.712 F3048
X49.621 Y40.323 F3048
X49.369 Y40.913 F3048
X49.066 Y41.479 F3048
X48.714 Y42.016 F3048
X48.315 Y42.52 F3048
X47.875 Y42.987 F3048
X47.395 Y43.414 F3048
X46.879 Y43.797 F3048
X46.333 Y44.135 F3048
X45.76 Y44.424 F3048
X45.164 Y44.663 F3048
X44.549 Y44.849 F3048
X43.921 Y44.981 F3048
X43.283 Y45.059 F3048
X42.641 Y45.083 F3048
X42 Y45.054 F3048
X41.363 Y44.972 F3048
X40.735 Y44.839 F3048
X40.12 Y44.655 F3048
X39.522 Y44.419 F3048
X38.947 Y44.134 F3048
X38.396 Y43.803 F3048
X37.875 Y43.429 F3048
X37.384 Y43.014 F3048
X36.928 Y42.562 F3048
X36.509 Y42.075 F3048
X36.133 Y41.555 F3048
X35.801 Y41.005 F3048
X35.513 Y40.431 F3048
X35.272 Y39.836 F3048
X35.077 Y39.224 F3048
X34.931 Y38.599 F3048
X34.837 Y37.963 F3048
X34.795 Y37.323 F3048
X34.804 Y36.681 F3048
X34.863 Y36.041 F3048
X34.971 Y35.408 F3048
X35.128 Y34.785 F3048
X35.336 Y34.178 F3048
X35.592 Y33.589 F3048
X35.893 Y33.022 F3048
X36.238 Y32.48 F3048
X36.623 Y31.966 F3048
X37.047 Y31.483 F3048
X37.509 Y31.038 F3048
X38.006 Y30.631 F3048
X38.532 Y30.263 F3048
X39.086 Y29.938 F3048
X39.663 Y29.655 F3048
X40.26 Y29.419 F3048
X40.875 Y29.233 F3048
X41.502 Y29.097 F3048
X42.138 Y29.009 F3048
X42.779 Y28.971 F3048
X43.421 Y28.981 F3048
X44.061 Y29.044 F3048
X44.693 Y29.158 F3048
X45.314 Y29.322 F3048
X45.92 Y29.532 F3048
X46.509 Y29.788 F3048
X47.078 Y30.086 F3048
X47.622 Y30.427 F3048
X48.138 Y30.809 F3048
X48.625 Y31.228 F3048
X49.081 Y31.68 F3048
X49.503 Y32.164 F3048
X49.891 Y32.676 F3048
X50.24 Y33.215 F3048
X50.549 Y33.778 F3048
X50.817 Y34.362 F3048
X51.043 Y34.963 F3048
X51.226 Y35.578 F3048
X51.366 Y36.205 F3048
X51.461 Y36.84 F3048
X51.507 Y37.481 F3048
X51.505 Y38.123 F3048
X51.456 Y38.763 F3048
X51.361 Y39.398 F3048
X51.22 Y40.025 F3048
X51.033 Y40.639 F3048
X50.798 Y41.237 F3048
X50.52 Y41.816 F3048
X50.2 Y42.372 F3048
X49.84 Y42.904 F3048
X49.443 Y43.409 F3048
X49.011 Y43.884 F3048
X48.543 Y44.324 F3048
X48.044 Y44.728 F3048
X47.517 Y45.096 F3048
X46.966 Y45.425 F3048
X46.393 Y45.714 F3048
X45.8 Y45.962 F3048
X45.19 Y46.164 F3048
X44.568 Y46.32 F3048
X43.935 Y46.431 F3048
X43.296 Y46.498 F3048
X42.655 Y46.521 F3048
X42.013 Y46.5 F3048
X41.374 Y46.433 F3048
X40.742 Y46.32 F3048
X40.119 Y46.163 F3048
X39.509 Y45.963 F3048
X38.914 Y45.722 F3048
X38.336 Y45.441 F3048
X37.78 Y45.121 F3048
X37.247 Y44.761 F3048
X36.741 Y44.366 F3048
X36.263 Y43.938 F3048
X35.814 Y43.479 F3048
X35.397 Y42.99 F3048
X35.015 Y42.474 F3048
X34.67 Y41.933 F3048
X34.363 Y41.368 F3048
X34.095 Y40.785 F3048
X33.866 Y40.185 F3048
X33.677 Y39.571 F3048
X33.53 Y38.946 F3048
X33.426 Y38.312 F3048
X33.366 Y37.673 F3048
X33.351 Y37.031 F3048
X33.378 Y36.389 F3048
X33.447 Y35.751 F3048
X33.558 Y35.118 F3048
X33.71 Y34.494 F3048
X33.906 Y33.883 F3048
X34.143 Y33.286 F3048
X34.421 Y32.707 F3048
X34.735 Y32.147 F3048
X35.086 Y31.609 F3048
X35.471 Y31.095 F3048
X35.889 Y30.608 F3048
X36.341 Y30.151 F3048
X36.823 Y29.727 F3048
X37.332 Y29.336 F3048
X37.866 Y28.978 F3048
X38.421 Y28.656 F3048
X38.997 Y28.371 F3048
X39.59 Y28.126 F3048
X40.2 Y27.923 F3048
X40.821 Y27.762 F3048
X41.452 Y27.643 F3048
X42.09 Y27.565 F3048
X42.731 Y27.528 F3048
X43.373 Y27.533 F3048
X44.013 Y27.583 F3048
X44.648 Y27.677 F3048
X45.276 Y27.814 F3048
X45.893 Y27.991 F3048
X46.498 Y28.208 F3048
X47.087 Y28.462 F3048
X47.66 Y28.754 F3048
X48.211 Y29.083 F3048
X48.74 Y29.447 F3048
X49.244 Y29.845 F3048
X49.722 Y30.273 F3048
X50.174 Y30.73 F3048
X50.597 Y31.213 F3048
X50.991 Y31.721 F3048
X51.351 Y32.252 F3048
X51.676 Y32.806 F3048
X51.966 Y33.379 F3048
X52.221 Y33.968 F3048
X52.44 Y34.572 F3048
X52.623 Y35.188 F3048
X52.768 Y35.813 F3048
X52.873 Y36.447 F3048
X52.936 Y37.086 F3048
X52.959 Y37.728 F3048
X52.941 Y38.37 F3048
X52.884 Y39.009 F3048
X52.787 Y39.644 F3048
X52.652 Y40.272 F3048
X52.475 Y40.889 F3048
X52.258 Y41.494 F3048
X52.003 Y42.083 F3048
X51.71 Y42.655 F3048
X51.383 Y43.207 F3048
X51.023 Y43.739 F3048
X50.631 Y44.248 F3048
X50.207 Y44.73 F3048
X49.752 Y45.183 F3048
X49.269 Y45.606 F3048
X48.76 Y45.998 F3048
X48.229 Y46.359 F3048
X47.677 Y46.687 F3048
X47.106 Y46.981 F3048
X46.518 Y47.238 F3048
X45.914 Y47.456 F3048
X45.297 Y47.636 F3048
X44.67 Y47.777 F3048
X44.036 Y47.879 F3048
X43.398 Y47.944 F3048
X42.756 Y47.972 F3048
X42.114 Y47.96 F3048
X41.474 Y47.908 F3048
X40.838 Y47.816 F3048
X40.209 Y47.686 F3048
X39.589 Y47.518 F3048
X38.981 Y47.314 F3048
X38.384 Y47.075 F3048
X37.803 Y46.801 F3048
X37.241 Y46.492 F3048
X36.698 Y46.149 F3048
X36.177 Y45.773 F3048
X35.679 Y45.368 F3048
X35.205 Y44.935 F3048
X34.757 Y44.474 F3048
X34.336 Y43.989 F3048
X33.945 Y43.48 F3048
X33.587 Y42.947 F3048
X33.261 Y42.393 F3048
X32.969 Y41.822 F3048
X32.709 Y41.234 F3048
X32.484 Y40.633 F3048
X32.293 Y40.02 F3048
X32.138 Y39.397 F3048
X32.022 Y38.765 F3048
X31.944 Y38.128 F3048
X31.904 Y37.487 F3048
X31.902 Y36.844 F3048
X31.935 Y36.203 F3048
X32.006 Y35.565 F3048
X32.112 Y34.931 F3048
X32.254 Y34.305 F3048
X32.436 Y33.689 F3048
X32.654 Y33.085 F3048
X32.907 Y32.495 F3048
X33.193 Y31.92 F3048
X33.512 Y31.363 F3048
X33.861 Y30.824 F3048
X34.24 Y30.305 F3048
X34.65 Y29.811 F3048
X35.089 Y29.342 F3048
X35.555 Y28.901 F3048
X36.046 Y28.487 F3048
X36.56 Y28.102 F3048
X37.095 Y27.746 F3048
X37.649 Y27.421 F3048
X38.22 Y27.128 F3048
X38.808 Y26.87 F3048
X39.411 Y26.649 F3048
X40.026 Y26.463 F3048
X40.65 Y26.313 F3048
X41.282 Y26.199 F3048
X41.92 Y26.12 F3048
X42.56 Y26.077 F3048
X43.203 Y26.072 F3048
X43.844 Y26.107 F3048
X44.482 Y26.179 F3048
X45.115 Y26.288 F3048
X45.74 Y26.433 F3048
X46.357 Y26.613 F3048
X46.962 Y26.827 F3048
X47.555 Y27.074 F3048
X48.133 Y27.355 F3048
X48.693 Y27.669 F3048
X49.234 Y28.015 F3048
X49.755 Y28.39 F3048
X50.255 Y28.794 F3048
X50.732 Y29.223 F3048
X51.186 Y29.677 F3048
X51.616 Y30.155 F3048
X52.018 Y30.656 F3048
X52.391 Y31.178 F3048
X52.734 Y31.721 F3048
X53.048 Y32.281 F3048
X53.331 Y32.858 F3048
X53.583 Y33.448 F3048
X53.804 Y34.051 F3048
X53.994 Y34.665 F3048
X54.149 Y35.288 F3048
X54.269 Y35.919 F3048
X54.353 Y36.555 F3048
X54.401 Y37.196 F3048
X54.415 Y37.838 F3048
X54.394 Y38.48 F3048
X54.338 Y39.119 F3048
X54.249 Y39.755 F3048
X54.124 Y40.385 F3048
X53.962 Y41.007 F3048
X53.765 Y41.618 F3048
X53.535 Y42.217 F3048
X53.271 Y42.803 F3048
X52.977 Y43.374 F3048
X52.652 Y43.928 F3048
X52.298 Y44.464 F3048
X51.915 Y44.979 F3048
X51.502 Y45.471 F3048
X51.063 Y45.939 F3048
X50.598 Y46.382 F3048
X50.109 Y46.799 F3048
X49.599 Y47.19 F3048
X49.07 Y47.552 F3048
X48.521 Y47.887 F3048
X47.956 Y48.191 F3048
X47.373 Y48.461 F3048
X46.777 Y48.699 F3048
X46.168 Y48.903 F3048
X45.549 Y49.074 F3048
X44.922 Y49.212 F3048
X44.288 Y49.317 F3048
X43.65 Y49.39 F3048
X43.009 Y49.428 F3048
X42.367 Y49.43 F3048
X41.725 Y49.397 F3048
X41.087 Y49.329 F3048
X40.453 Y49.228 F3048
X39.825 Y49.093 F3048
X39.205 Y48.926 F3048
X38.594 Y48.728 F3048
X37.994 Y48.498 F3048
X37.408 Y48.236 F3048
X36.837 Y47.942 F3048
X36.283 Y47.617 F3048
X35.746 Y47.265 F3048
X35.228 Y46.885 F3048
X34.731 Y46.479 F3048
X34.255 Y46.048 F3048
X33.801 Y45.594 F3048
X33.372 Y45.116 F3048
X32.969 Y44.615 F3048
X32.594 Y44.094 F3048
X32.247 Y43.554 F3048
X31.928 Y42.997 F3048
X31.638 Y42.424 F3048
X31.377 Y41.837 F3048
X31.146 Y41.238 F3048
X30.946 Y40.627 F3048
X30.779 Y40.007 F3048
X30.645 Y39.379 F3048
X30.545 Y38.745 F3048
X30.477 Y38.106 F3048
X30.443 Y37.465 F3048
X30.441 Y36.823 F3048
X30.471 Y36.181 F3048
X30.532 Y35.542 F3048
X30.627 Y34.907 F3048
X30.756 Y34.278 F3048
X30.918 Y33.657 F3048
X31.113 Y33.044 F3048
X31.338 Y32.443 F3048
X31.594 Y31.854 F3048
X31.879 Y31.279 F3048
X32.192 Y30.718 F3048
X32.533 Y30.174 F3048
X32.902 Y29.648 F3048
X33.299 Y29.143 F3048
X33.722 Y28.66 F3048
X34.169 Y28.199 F3048
X34.639 Y27.762 F3048
X35.131 Y27.348 F3048
X35.642 Y26.96 F3048
X36.172 Y26.598 F3048
X36.72 Y26.263 F3048
X37.286 Y25.958 F3048
X37.866 Y25.683 F3048
X38.46 Y25.439 F3048
X39.066 Y25.226 F3048
X39.682 Y25.044 F3048
X40.306 Y24.893 F3048
X40.937 Y24.773 F3048
X41.573 Y24.684 F3048
X42.213 Y24.629 F3048
X42.854 Y24.608 F3048
X43.496 Y24.621 F3048
X44.137 Y24.667 F3048
X44.774 Y24.746 F3048
X45.407 Y24.857 F3048
X46.033 Y24.999 F3048
X46.652 Y25.171 F3048
X47.261 Y25.374 F3048
X47.859 Y25.609 F3048
X48.444 Y25.874 F3048
X49.014 Y26.169 F3048
X49.569 Y26.491 F3048
X50.108 Y26.841 F3048
X50.629 Y27.217 F3048
X51.131 Y27.617 F3048
X51.614 Y28.04 F3048
X52.076 Y28.486 F3048
X52.515 Y28.955 F3048
X52.93 Y29.445 F3048
X53.321 Y29.955 F3048
X53.686 Y30.483 F3048
X54.025 Y31.028 F3048
X54.338 Y31.589 F3048
X54.625 Y32.164 F3048
X54.884 Y32.751 F3048
X55.115 Y33.35 F3048
X55.317 Y33.96 F3048
X55.488 Y34.579 F3048
X55.628 Y35.206 F3048
X55.737 Y35.839 F3048
X55.815 Y36.476 F3048
X55.863 Y37.117 F3048
X55.88 Y37.759 F3048
X55.866 Y38.401 F3048
X55.822 Y39.041 F3048
X55.745 Y39.679 F3048
X55.636 Y40.312 F3048
X55.495 Y40.938 F3048
X55.324 Y41.557 F3048
X55.122 Y42.167 F3048
X54.891 Y42.766 F3048
X54.631 Y43.353 F3048
X54.344 Y43.928 F3048
X54.029 Y44.487 F3048
X53.686 Y45.03 F3048
X53.317 Y45.556 F3048
X52.921 Y46.062 F3048
X52.861 Y46.131 F3048
X52.852 Y46.14 F3048
X52.822 Y46.171 F3048
X51.508 Y47.431 F3048
X51.217 Y47.658 F3048
X49.854 Y48.599 F3048
X49.757 Y48.661 F3048
X49.612 Y48.747 F3048
X49.466 Y48.829 F3048
X47.798 Y49.62 F3048
X47.715 Y49.653 F3048
X47.569 Y49.703 F3048
X47.423 Y49.748 F3048
X46.11 Y50.128 F3048
X45.964 Y50.168 F3048
X45.526 Y50.281 F3048
X45.234 Y50.317 F3048
X43.629 Y50.512 F3048
X43.483 Y50.522 F3048
X43.046 Y50.513 F3048
X41.587 Y50.454 F3048
X41.441 Y50.439 F3048
X41.149 Y50.4 F3048
X41.003 Y50.378 F3048
X39.69 Y50.11 F3048
X39.544 Y50.08 F3048
X39.106 Y49.966 F3048
X38.96 Y49.918 F3048
X37.647 Y49.42 F3048
X37.501 Y49.361 F3048
X37.063 Y49.172 F3048
X36.826 Y49.036 F3048
X35.563 Y48.307 F3048
X35.313 Y48.156 F3048
X35.167 Y48.041 F3048
X33.853 Y46.969 F3048
X33.708 Y46.838 F3048
X33.56 Y46.702 F3048
X32.655 Y45.68 F3048
X32.527 Y45.534 F3048
X32.248 Y45.213 F3048
X32.161 Y45.096 F3048
X31.146 Y43.491 F3048
X31.081 Y43.386 F3048
X30.997 Y43.199 F3048
X30.934 Y43.053 F3048
X30.352 Y41.687 F3048
X30.267 Y41.448 F3048
X30.206 Y41.274 F3048
X30.166 Y41.156 F3048
X29.806 Y39.697 F3048
X29.713 Y39.259 F3048
X29.69 Y39.113 F3048
X29.537 Y37.216 F3048
X29.543 Y37.07 F3048
X29.561 Y36.779 F3048
X29.571 Y36.633 F3048
X29.677 Y35.319 F3048
X29.692 Y35.173 F3048
X29.769 Y34.736 F3048
X29.801 Y34.59 F3048
X30.125 Y33.276 F3048
X30.166 Y33.13 F3048
X30.257 Y32.839 F3048
X30.304 Y32.693 F3048
X30.935 Y31.211 F3048
X31.081 Y30.882 F3048
X31.135 Y30.796 F3048
X32.103 Y29.265 F3048
X32.155 Y29.19 F3048
X32.54 Y28.718 F3048
X33.562 Y27.565 F3048
X33.708 Y27.434 F3048
X33.867 Y27.293 F3048
X33.999 Y27.18 F3048
X35.111 Y26.272 F3048
X35.167 Y26.228 F3048
X35.536 Y25.98 F3048
X35.604 Y25.937 F3048
X37.046 Y25.104 F3048
X37.063 Y25.096 F3048
X37.501 Y24.907 F3048
X37.647 Y24.848 F3048
X38.96 Y24.35 F3048
X39.106 Y24.298 F3048
X39.252 Y24.252 F3048
X39.341 Y24.229 F3048
X41.003 Y23.89 F3048
X41.149 Y23.868 F3048
X41.441 Y23.829 F3048
X41.587 Y23.814 F3048
X43.337 Y23.743 F3048
X43.483 F3048
X43.629 Y23.756 F3048
X45.38 Y23.969 F3048
X45.526 Y23.987 F3048
X45.964 Y24.1 F3048
X46.11 Y24.14 F3048
X47.426 Y24.521 F3048
X47.569 Y24.568 F3048
X48.007 Y24.747 F3048
X49.466 Y25.439 F3048
X49.612 Y25.524 F3048
X49.903 Y25.707 F3048
X50.049 Y25.804 F3048
X51.362 Y26.711 F3048
X51.508 Y26.837 F3048
X52.896 Y28.169 F3048
X52.967 Y28.242 F3048
X53.027 Y28.315 F3048
X54.014 Y29.628 F3048
X54.117 Y29.774 F3048
X54.397 Y30.212 F3048
X54.426 Y30.267 F3048
X55.164 Y31.671 F3048
X55.226 Y31.817 F3048
X55.342 Y32.109 F3048
X55.398 Y32.255 F3048
X55.836 Y33.568 F3048
X55.886 Y33.722 F3048
X55.958 Y34.006 F3048
X55.993 Y34.152 F3048
X56.23 Y35.611 F3048
X56.25 Y35.757 F3048
X56.301 Y36.195 F3048
X56.302 Y36.924 F3048
Y38.092 F3048
X56.294 Y38.238 F3048
X56.226 Y38.676 F3048
X55.99 Y40.135 F3048
X55.953 Y40.281 F3048
X55.873 Y40.573 F3048
X55.83 Y40.719 F3048
X55.392 Y42.032 F3048
X55.341 Y42.178 F3048
X55.149 Y42.616 F3048
X55.077 Y42.762 F3048
X54.388 Y44.075 F3048
X54.301 Y44.221 F3048
X53.989 Y44.674 F3048
X53.013 Y45.972 F3048
X52.967 Y46.022 F3048
X52.852 Y46.14 F3048
( MOVEMENT_LEAD_OUT)
G3 X52.634 Y46.227 I-0.218 J-0.231 F3048
X52.425 Y46.149 J-0.318 F3048
G1 X52.402 Y46.115 Z-1.775 F3048
X52.379 Y46.082 Z-1.767 F3048
X52.357 Y46.05 Z-1.754 F3048
X52.336 Y46.02 Z-1.736 F3048
X52.33 Y45.987 Z-1.714 F3048
X52.325 Y45.958 Z-1.688 F3048
X52.32 Y45.932 Z-1.659 F3048
X52.316 Y45.909 Z-1.626 F3048
X52.318 Y45.889 Z-1.587 F3048
X52.319 Y45.875 Z-1.546 F3048
Y45.866 Z-1.504 F3048
X52.32 Y45.863 Z-1.461 F3048
( MOVEMENT_CUTTING)
( Safe G1 --> G0)
G0 Z5 F300
( Safe G1 --> G0)
X42.155 Y35.761 F7500
G1 Z0.722 F3048
( MOVEMENT_RAMP_HELIX)
X42.255 Y35.709 Z0.718 F3048
X42.357 Y35.664 Z0.714 F3048
X42.463 Y35.626 Z0.71 F3048
X42.571 Y35.596 Z0.706 F3048
X42.681 Y35.574 Z0.702 F3048
X42.793 Y35.56 Z0.698 F3048
X42.905 Y35.554 Z0.695 F3048
X43.017 Y35.555 Z0.691 F3048
X43.128 Y35.565 Z0.687 F3048
X43.239 Y35.583 Z0.683 F3048
X43.349 Y35.608 Z0.679 F3048
X43.456 Y35.641 Z0.675 F3048
X43.56 Y35.681 Z0.671 F3048
X43.662 Y35.729 Z0.667 F3048
X43.76 Y35.784 Z0.663 F3048
X43.853 Y35.846 Z0.659 F3048
X43.942 Y35.914 Z0.655 F3048
X44.026 Y35.988 Z0.651 F3048
X44.105 Y36.068 Z0.648 F3048
X44.177 Y36.154 Z0.644 F3048
X44.244 Y36.244 Z0.64 F3048
X44.304 Y36.339 Z0.636 F3048
X44.357 Y36.438 Z0.632 F3048
X44.403 Y36.54 Z0.628 F3048
X44.441 Y36.646 Z0.624 F3048
X44.472 Y36.753 Z0.62 F3048
X44.495 Y36.863 Z0.616 F3048
X44.51 Y36.974 Z0.612 F3048
X44.518 Y37.086 Z0.608 F3048
X44.517 Y37.198 Z0.604 F3048
X44.509 Y37.31 Z0.601 F3048
X44.492 Y37.421 Z0.597 F3048
X44.468 Y37.53 Z0.593 F3048
X44.436 Y37.637 Z0.589 F3048
X44.397 Y37.742 Z0.585 F3048
X44.35 Y37.844 Z0.581 F3048
X44.296 Y37.942 Z0.577 F3048
X44.235 Y38.036 Z0.573 F3048
X44.168 Y38.126 Z0.569 F3048
X44.095 Y38.211 Z0.565 F3048
X44.015 Y38.29 Z0.561 F3048
X43.931 Y38.363 Z0.557 F3048
X43.841 Y38.43 Z0.554 F3048
X43.747 Y38.491 Z0.55 F3048
X43.649 Y38.545 Z0.546 F3048
X43.547 Y38.592 Z0.542 F3048
X43.442 Y38.631 Z0.538 F3048
X43.335 Y38.663 Z0.534 F3048
X43.225 Y38.687 Z0.53 F3048
X43.115 Y38.704 Z0.526 F3048
X43.003 Y38.712 Z0.522 F3048
X42.891 Y38.713 Z0.518 F3048
X42.779 Y38.705 Z0.514 F3048
X42.668 Y38.69 Z0.51 F3048
X42.558 Y38.667 Z0.507 F3048
X42.451 Y38.636 Z0.503 F3048
X42.346 Y38.598 Z0.499 F3048
X42.244 Y38.552 Z0.495 F3048
X42.145 Y38.499 Z0.491 F3048
X42.05 Y38.439 Z0.487 F3048
X41.96 Y38.373 Z0.483 F3048
X41.875 Y38.3 Z0.479 F3048
X41.795 Y38.222 Z0.475 F3048
X41.721 Y38.138 Z0.471 F3048
X41.653 Y38.049 Z0.467 F3048
X41.591 Y37.956 Z0.463 F3048
X41.537 Y37.858 Z0.46 F3048
X41.489 Y37.757 Z0.456 F3048
X41.449 Y37.653 Z0.452 F3048
X41.416 Y37.546 Z0.448 F3048
X41.391 Y37.437 Z0.444 F3048
X41.373 Y37.326 Z0.44 F3048
X41.364 Y37.215 Z0.436 F3048
X41.362 Y37.103 Z0.432 F3048
X41.368 Y36.991 Z0.428 F3048
X41.382 Y36.88 Z0.424 F3048
X41.405 Y36.771 Z0.42 F3048
X41.434 Y36.663 Z0.416 F3048
X41.472 Y36.557 Z0.413 F3048
X41.516 Y36.455 Z0.409 F3048
X41.568 Y36.356 Z0.405 F3048
X41.627 Y36.26 Z0.401 F3048
X41.692 Y36.17 Z0.397 F3048
X41.764 Y36.084 Z0.393 F3048
X41.842 Y36.003 Z0.389 F3048
X41.925 Y35.928 Z0.385 F3048
X42.013 Y35.86 Z0.381 F3048
X42.105 Y35.797 Z0.377 F3048
X42.202 Y35.742 Z0.373 F3048
X42.303 Y35.693 Z0.369 F3048
X42.407 Y35.652 Z0.366 F3048
X42.513 Y35.618 Z0.362 F3048
X42.622 Y35.591 Z0.358 F3048
X42.732 Y35.573 Z0.354 F3048
X42.843 Y35.562 Z0.35 F3048
X42.955 Y35.56 Z0.346 F3048
X43.067 Y35.565 Z0.342 F3048
X43.178 Y35.578 Z0.338 F3048
X43.288 Y35.599 Z0.334 F3048
X43.396 Y35.628 Z0.33 F3048
X43.501 Y35.664 Z0.326 F3048
X43.604 Y35.708 Z0.322 F3048
X43.704 Y35.759 Z0.318 F3048
X43.799 Y35.816 Z0.315 F3048
X43.891 Y35.881 Z0.311 F3048
X43.977 Y35.951 Z0.307 F3048
X44.058 Y36.028 Z0.303 F3048
X44.134 Y36.11 Z0.299 F3048
X44.204 Y36.198 Z0.295 F3048
X44.267 Y36.29 Z0.291 F3048
X44.323 Y36.386 Z0.287 F3048
X44.373 Y36.487 Z0.283 F3048
X44.415 Y36.59 Z0.279 F3048
X44.45 Y36.696 Z0.275 F3048
X44.477 Y36.804 Z0.271 F3048
X44.497 Y36.914 Z0.268 F3048
X44.509 Y37.025 Z0.264 F3048
X44.512 Y37.137 Z0.26 F3048
X44.508 Y37.248 Z0.256 F3048
X44.496 Y37.359 Z0.252 F3048
X44.476 Y37.469 Z0.248 F3048
X44.449 Y37.577 Z0.244 F3048
X44.414 Y37.683 Z0.24 F3048
X44.371 Y37.786 Z0.236 F3048
X44.321 Y37.886 Z0.232 F3048
X44.264 Y37.982 Z0.228 F3048
X44.201 Y38.074 Z0.224 F3048
X44.131 Y38.161 Z0.221 F3048
X44.055 Y38.243 Z0.217 F3048
X43.974 Y38.319 Z0.213 F3048
X43.887 Y38.39 Z0.209 F3048
X43.796 Y38.454 Z0.205 F3048
X43.7 Y38.511 Z0.201 F3048
X43.6 Y38.562 Z0.197 F3048
X43.498 Y38.605 Z0.193 F3048
X43.392 Y38.641 Z0.189 F3048
X43.284 Y38.669 Z0.185 F3048
X43.174 Y38.69 Z0.181 F3048
X43.063 Y38.702 Z0.177 F3048
X42.952 Y38.707 Z0.174 F3048
X42.84 Y38.704 Z0.17 F3048
X42.729 Y38.693 Z0.166 F3048
X42.62 Y38.675 Z0.162 F3048
X42.511 Y38.648 Z0.158 F3048
X42.405 Y38.614 Z0.154 F3048
X42.302 Y38.572 Z0.15 F3048
X42.201 Y38.524 Z0.146 F3048
X42.105 Y38.468 Z0.142 F3048
X42.013 Y38.405 Z0.138 F3048
X41.925 Y38.336 Z0.134 F3048
X41.842 Y38.261 Z0.13 F3048
X41.765 Y38.181 Z0.127 F3048
X41.694 Y38.095 Z0.123 F3048
X41.629 Y38.004 Z0.119 F3048
X41.571 Y37.909 Z0.115 F3048
X41.52 Y37.81 Z0.111 F3048
X41.475 Y37.708 Z0.107 F3048
X41.439 Y37.603 Z0.103 F3048
X41.409 Y37.495 Z0.099 F3048
X41.388 Y37.386 Z0.095 F3048
X41.374 Y37.275 Z0.091 F3048
X41.368 Y37.164 Z0.087 F3048
X41.37 Y37.053 Z0.083 F3048
X41.38 Y36.941 Z0.08 F3048
X41.397 Y36.831 Z0.076 F3048
X41.423 Y36.723 Z0.072 F3048
X41.456 Y36.616 Z0.068 F3048
X41.497 Y36.513 Z0.064 F3048
X41.544 Y36.412 Z0.06 F3048
X41.599 Y36.315 Z0.056 F3048
X41.661 Y36.222 Z0.052 F3048
X41.729 Y36.134 Z0.048 F3048
X41.803 Y36.051 Z0.044 F3048
X41.882 Y35.973 Z0.04 F3048
X41.967 Y35.901 Z0.036 F3048
X42.057 Y35.836 Z0.033 F3048
X42.152 Y35.776 Z0.029 F3048
X42.25 Y35.724 Z0.025 F3048
X42.352 Y35.679 Z0.021 F3048
X42.456 Y35.641 Z0.017 F3048
X42.564 Y35.611 Z0.013 F3048
X42.673 Y35.588 Z0.009 F3048
X42.783 Y35.573 Z0.005 F3048
X42.894 Y35.566 Z0.001 F3048
X43.005 Y35.567 Z-0.003 F3048
X43.116 Y35.576 Z-0.007 F3048
X43.227 Y35.593 Z-0.011 F3048
X43.335 Y35.617 Z-0.015 F3048
X43.442 Y35.649 Z-0.018 F3048
X43.546 Y35.689 Z-0.022 F3048
X43.647 Y35.735 Z-0.026 F3048
X43.744 Y35.789 Z-0.03 F3048
X43.838 Y35.85 Z-0.034 F3048
X43.927 Y35.917 Z-0.038 F3048
X44.011 Y35.99 Z-0.042 F3048
X44.089 Y36.069 Z-0.046 F3048
X44.162 Y36.153 Z-0.05 F3048
X44.228 Y36.242 Z-0.054 F3048
X44.288 Y36.336 Z-0.058 F3048
X44.341 Y36.434 Z-0.062 F3048
X44.387 Y36.535 Z-0.065 F3048
X44.426 Y36.639 Z-0.069 F3048
X44.458 Y36.746 Z-0.073 F3048
X44.481 Y36.855 Z-0.077 F3048
X44.497 Y36.965 Z-0.081 F3048
X44.505 Y37.076 Z-0.085 F3048
Y37.187 Z-0.089 F3048
X44.498 Y37.298 Z-0.093 F3048
X44.482 Y37.408 Z-0.097 F3048
X44.459 Y37.517 Z-0.101 F3048
X44.428 Y37.623 Z-0.105 F3048
X44.39 Y37.728 Z-0.109 F3048
X44.344 Y37.829 Z-0.112 F3048
X44.291 Y37.927 Z-0.116 F3048
X44.231 Y38.021 Z-0.12 F3048
X44.165 Y38.11 Z-0.124 F3048
X44.093 Y38.195 Z-0.128 F3048
X44.015 Y38.274 Z-0.132 F3048
X43.931 Y38.347 Z-0.136 F3048
X43.843 Y38.415 Z-0.14 F3048
X43.75 Y38.475 Z-0.144 F3048
X43.652 Y38.53 Z-0.148 F3048
X43.552 Y38.577 Z-0.152 F3048
X43.448 Y38.617 Z-0.156 F3048
X43.342 Y38.649 Z-0.159 F3048
X43.233 Y38.674 Z-0.163 F3048
X43.124 Y38.691 Z-0.167 F3048
X43.013 Y38.7 Z-0.171 F3048
X42.902 Y38.701 Z-0.175 F3048
X42.791 Y38.694 Z-0.179 F3048
X42.681 Y38.68 Z-0.183 F3048
X42.572 Y38.658 Z-0.187 F3048
X42.465 Y38.628 Z-0.191 F3048
X42.36 Y38.59 Z-0.195 F3048
X42.259 Y38.546 Z-0.199 F3048
X42.16 Y38.494 Z-0.203 F3048
X42.066 Y38.435 Z-0.206 F3048
X41.976 Y38.37 Z-0.21 F3048
X41.891 Y38.299 Z-0.214 F3048
X41.811 Y38.221 Z-0.218 F3048
X41.737 Y38.139 Z-0.222 F3048
X41.669 Y38.051 Z-0.226 F3048
X41.607 Y37.959 Z-0.23 F3048
X41.552 Y37.862 Z-0.234 F3048
X41.504 Y37.762 Z-0.238 F3048
X41.464 Y37.659 Z-0.242 F3048
X41.43 Y37.553 Z-0.246 F3048
X41.404 Y37.445 Z-0.25 F3048
X41.386 Y37.335 Z-0.253 F3048
X41.376 Y37.224 Z-0.257 F3048
X41.374 Y37.113 Z-0.261 F3048
X41.379 Y37.002 Z-0.265 F3048
X41.393 Y36.892 Z-0.269 F3048
X41.414 Y36.783 Z-0.273 F3048
X41.443 Y36.676 Z-0.277 F3048
X41.479 Y36.571 Z-0.281 F3048
X41.523 Y36.469 Z-0.285 F3048
X41.573 Y36.371 Z-0.289 F3048
X41.631 Y36.276 Z-0.293 F3048
X41.695 Y36.186 Z-0.297 F3048
X41.766 Y36.1 Z-0.3 F3048
X41.842 Y36.019 Z-0.304 F3048
X41.924 Y35.945 Z-0.308 F3048
X42.011 Y35.876 Z-0.312 F3048
X42.103 Y35.813 Z-0.316 F3048
X42.199 Y35.757 Z-0.32 F3048
X42.298 Y35.708 Z-0.324 F3048
X42.401 Y35.667 Z-0.328 F3048
X42.506 Y35.632 Z-0.332 F3048
X42.614 Y35.606 Z-0.336 F3048
X42.723 Y35.587 Z-0.34 F3048
X42.834 Y35.575 Z-0.344 F3048
X42.945 Y35.572 Z-0.348 F3048
X43.055 Y35.576 Z-0.351 F3048
X43.166 Y35.589 Z-0.355 F3048
X43.275 Y35.609 Z-0.359 F3048
X43.382 Y35.636 Z-0.363 F3048
X43.487 Y35.672 Z-0.367 F3048
X43.59 Y35.714 Z-0.371 F3048
X43.689 Y35.764 Z-0.375 F3048
X43.784 Y35.821 Z-0.379 F3048
X43.875 Y35.884 Z-0.383 F3048
X43.961 Y35.954 Z-0.387 F3048
X44.042 Y36.029 Z-0.391 F3048
X44.118 Y36.11 Z-0.395 F3048
X44.188 Y36.196 Z-0.398 F3048
X44.251 Y36.287 Z-0.402 F3048
X44.308 Y36.383 Z-0.406 F3048
X44.357 Y36.482 Z-0.41 F3048
X44.4 Y36.584 Z-0.414 F3048
X44.435 Y36.689 Z-0.418 F3048
X44.463 Y36.796 Z-0.422 F3048
X44.483 Y36.905 Z-0.426 F3048
X44.496 Y37.015 Z-0.43 F3048
X44.5 Y37.126 Z-0.434 F3048
X44.497 Y37.237 Z-0.438 F3048
X44.486 Y37.347 Z-0.442 F3048
X44.467 Y37.456 Z-0.445 F3048
X44.44 Y37.564 Z-0.449 F3048
X44.406 Y37.669 Z-0.453 F3048
X44.364 Y37.772 Z-0.457 F3048
X44.315 Y37.871 Z-0.461 F3048
X44.26 Y37.967 Z-0.465 F3048
X44.197 Y38.058 Z-0.469 F3048
X44.128 Y38.145 Z-0.473 F3048
X44.054 Y38.227 Z-0.477 F3048
X43.973 Y38.304 Z-0.481 F3048
X43.888 Y38.374 Z-0.485 F3048
X43.798 Y38.438 Z-0.489 F3048
X43.703 Y38.496 Z-0.492 F3048
X43.605 Y38.546 Z-0.496 F3048
X43.503 Y38.59 Z-0.5 F3048
X43.399 Y38.626 Z-0.504 F3048
X43.292 Y38.655 Z-0.508 F3048
X43.183 Y38.676 Z-0.512 F3048
X43.073 Y38.69 Z-0.516 F3048
X42.963 Y38.695 Z-0.52 F3048
X42.852 Y38.693 Z-0.524 F3048
X42.742 Y38.683 Z-0.528 F3048
X42.633 Y38.665 Z-0.532 F3048
X42.525 Y38.639 Z-0.536 F3048
X42.419 Y38.606 Z-0.539 F3048
X42.316 Y38.566 Z-0.543 F3048
X42.217 Y38.518 Z-0.547 F3048
X42.12 Y38.463 Z-0.551 F3048
X42.028 Y38.402 Z-0.555 F3048
X41.941 Y38.334 Z-0.559 F3048
X41.858 Y38.26 Z-0.563 F3048
X41.781 Y38.18 Z-0.567 F3048
X41.71 Y38.096 Z-0.571 F3048
X41.645 Y38.006 Z-0.575 F3048
X41.587 Y37.912 Z-0.579 F3048
X41.535 Y37.814 Z-0.583 F3048
X41.491 Y37.713 Z-0.586 F3048
X41.453 Y37.609 Z-0.59 F3048
X41.423 Y37.502 Z-0.594 F3048
X41.401 Y37.394 Z-0.598 F3048
X41.387 Y37.284 Z-0.602 F3048
X41.38 Y37.174 Z-0.606 F3048
X41.381 Y37.064 Z-0.61 F3048
X41.39 Y36.953 Z-0.614 F3048
X41.407 Y36.844 Z-0.618 F3048
X41.432 Y36.736 Z-0.622 F3048
X41.464 Y36.631 Z-0.626 F3048
X41.503 Y36.527 Z-0.63 F3048
X41.55 Y36.427 Z-0.633 F3048
X41.604 Y36.331 Z-0.637 F3048
X41.664 Y36.238 Z-0.641 F3048
X41.731 Y36.15 Z-0.645 F3048
X41.804 Y36.067 Z-0.649 F3048
X41.883 Y35.989 Z-0.653 F3048
X41.967 Y35.917 Z-0.657 F3048
X42.055 Y35.852 Z-0.661 F3048
X42.149 Y35.792 Z-0.665 F3048
X42.246 Y35.74 Z-0.669 F3048
X42.347 Y35.694 Z-0.673 F3048
X42.45 Y35.656 Z-0.677 F3048
X42.556 Y35.625 Z-0.68 F3048
X42.665 Y35.602 Z-0.684 F3048
X42.774 Y35.586 Z-0.688 F3048
X42.884 Y35.579 Z-0.692 F3048
X42.995 Z-0.696 F3048
X43.105 Y35.587 Z-0.7 F3048
X43.214 Y35.603 Z-0.704 F3048
X43.322 Y35.626 Z-0.708 F3048
X43.428 Y35.657 Z-0.712 F3048
X43.532 Y35.696 Z-0.716 F3048
X43.632 Y35.741 Z-0.72 F3048
X43.729 Y35.794 Z-0.724 F3048
X43.822 Y35.853 Z-0.728 F3048
X43.911 Y35.919 Z-0.731 F3048
X43.994 Y35.991 Z-0.735 F3048
X44.073 Y36.069 Z-0.739 F3048
X44.145 Y36.152 Z-0.743 F3048
X44.212 Y36.24 Z-0.747 F3048
X44.272 Y36.333 Z-0.751 F3048
X44.326 Y36.43 Z-0.755 F3048
X44.372 Y36.53 Z-0.759 F3048
X44.411 Y36.633 Z-0.763 F3048
X44.443 Y36.739 Z-0.767 F3048
X44.467 Y36.846 Z-0.771 F3048
X44.484 Y36.955 Z-0.775 F3048
X44.493 Y37.066 Z-0.778 F3048
X44.494 Y37.176 Z-0.782 F3048
X44.487 Y37.286 Z-0.786 F3048
X44.472 Y37.396 Z-0.79 F3048
X44.45 Y37.504 Z-0.794 F3048
X44.42 Y37.61 Z-0.798 F3048
X44.382 Y37.714 Z-0.802 F3048
X44.337 Y37.815 Z-0.806 F3048
X44.286 Y37.912 Z-0.81 F3048
X44.227 Y38.006 Z-0.814 F3048
X44.162 Y38.095 Z-0.818 F3048
X44.091 Y38.179 Z-0.822 F3048
X44.014 Y38.258 Z-0.825 F3048
X43.932 Y38.331 Z-0.829 F3048
X43.844 Y38.399 Z-0.833 F3048
X43.753 Y38.46 Z-0.837 F3048
X43.657 Y38.514 Z-0.841 F3048
X43.557 Y38.561 Z-0.845 F3048
X43.454 Y38.602 Z-0.849 F3048
X43.349 Y38.634 Z-0.853 F3048
X43.242 Y38.66 Z-0.857 F3048
X43.133 Y38.677 Z-0.861 F3048
X43.023 Y38.687 Z-0.865 F3048
X42.913 Y38.689 Z-0.869 F3048
X42.803 Y38.683 Z-0.872 F3048
X42.693 Y38.67 Z-0.876 F3048
X42.585 Y38.648 Z-0.88 F3048
X42.479 Y38.619 Z-0.884 F3048
X42.375 Y38.583 Z-0.888 F3048
X42.273 Y38.539 Z-0.892 F3048
X42.176 Y38.488 Z-0.896 F3048
X42.081 Y38.431 Z-0.9 F3048
X41.992 Y38.367 Z-0.904 F3048
X41.907 Y38.296 Z-0.908 F3048
X41.827 Y38.22 Z-0.912 F3048
X41.753 Y38.139 Z-0.916 F3048
X41.685 Y38.052 Z-0.919 F3048
X41.623 Y37.961 Z-0.923 F3048
X41.568 Y37.865 Z-0.927 F3048
X41.519 Y37.766 Z-0.931 F3048
X41.478 Y37.664 Z-0.935 F3048
X41.445 Y37.56 Z-0.939 F3048
X41.418 Y37.453 Z-0.943 F3048
X41.4 Y37.344 Z-0.947 F3048
X41.389 Y37.234 Z-0.951 F3048
X41.386 Y37.124 Z-0.955 F3048
X41.39 Y37.014 Z-0.959 F3048
X41.403 Y36.905 Z-0.963 F3048
X41.423 Y36.797 Z-0.966 F3048
X41.451 Y36.69 Z-0.97 F3048
X41.486 Y36.586 Z-0.974 F3048
X41.529 Y36.484 Z-0.978 F3048
X41.579 Y36.386 Z-0.982 F3048
X41.635 Y36.292 Z-0.986 F3048
X41.699 Y36.201 Z-0.99 F3048
X41.768 Y36.116 Z-0.994 F3048
X41.843 Y36.035 Z-0.998 F3048
X41.924 Y35.961 Z-1.002 F3048
X42.01 Y35.892 Z-1.006 F3048
X42.101 Y35.829 Z-1.01 F3048
X42.195 Y35.773 Z-1.013 F3048
X42.294 Y35.724 Z-1.017 F3048
X42.396 Y35.682 Z-1.021 F3048
X42.5 Y35.647 Z-1.025 F3048
X42.607 Y35.62 Z-1.029 F3048
X42.715 Y35.6 Z-1.033 F3048
X42.824 Y35.588 Z-1.037 F3048
X42.934 Y35.584 Z-1.041 F3048
X43.044 Y35.587 Z-1.045 F3048
X43.154 Y35.599 Z-1.049 F3048
X43.262 Y35.618 Z-1.053 F3048
X43.369 Y35.645 Z-1.057 F3048
X43.473 Y35.679 Z-1.06 F3048
X43.575 Y35.721 Z-1.064 F3048
X43.674 Y35.77 Z-1.068 F3048
X43.768 Y35.825 Z-1.072 F3048
X43.859 Y35.887 Z-1.076 F3048
X43.945 Y35.956 Z-1.08 F3048
X44.026 Y36.03 Z-1.084 F3048
X44.102 Y36.11 Z-1.088 F3048
X44.171 Y36.195 Z-1.092 F3048
X44.235 Y36.285 Z-1.096 F3048
X44.292 Y36.379 Z-1.1 F3048
X44.342 Y36.477 Z-1.104 F3048
X44.385 Y36.578 Z-1.108 F3048
X44.421 Y36.682 Z-1.111 F3048
X44.449 Y36.789 Z-1.115 F3048
X44.47 Y36.897 Z-1.119 F3048
X44.483 Y37.006 Z-1.123 F3048
X44.488 Y37.116 Z-1.127 F3048
X44.485 Y37.226 Z-1.131 F3048
X44.475 Y37.335 Z-1.135 F3048
X44.457 Y37.444 Z-1.139 F3048
X44.431 Y37.551 Z-1.143 F3048
X44.398 Y37.655 Z-1.147 F3048
X44.357 Y37.757 Z-1.151 F3048
X44.31 Y37.856 Z-1.155 F3048
X44.255 Y37.952 Z-1.158 F3048
X44.194 Y38.043 Z-1.162 F3048
X44.126 Y38.129 Z-1.166 F3048
X44.053 Y38.211 Z-1.17 F3048
X43.974 Y38.287 Z-1.174 F3048
X43.889 Y38.358 Z-1.178 F3048
X43.8 Y38.422 Z-1.182 F3048
X43.707 Y38.48 Z-1.186 F3048
X43.609 Y38.531 Z-1.19 F3048
X43.509 Y38.575 Z-1.194 F3048
X43.405 Y38.611 Z-1.198 F3048
X43.299 Y38.641 Z-1.202 F3048
X43.192 Y38.662 Z-1.205 F3048
X43.083 Y38.677 Z-1.209 F3048
X42.973 Y38.683 Z-1.213 F3048
X42.863 Y38.681 Z-1.217 F3048
X42.754 Y38.672 Z-1.221 F3048
X42.645 Y38.655 Z-1.225 F3048
X42.538 Y38.63 Z-1.229 F3048
X42.433 Y38.598 Z-1.233 F3048
X42.331 Y38.558 Z-1.237 F3048
X42.231 Y38.512 Z-1.241 F3048
X42.135 Y38.458 Z-1.245 F3048
X42.044 Y38.398 Z-1.249 F3048
X41.956 Y38.331 Z-1.252 F3048
X41.874 Y38.258 Z-1.256 F3048
X41.797 Y38.18 Z-1.26 F3048
X41.726 Y38.096 Z-1.264 F3048
X41.661 Y38.008 Z-1.268 F3048
X41.602 Y37.915 Z-1.272 F3048
X41.551 Y37.819 Z-1.276 F3048
X41.506 Y37.719 Z-1.28 F3048
X41.468 Y37.616 Z-1.284 F3048
X41.438 Y37.51 Z-1.288 F3048
X41.415 Y37.403 Z-1.292 F3048
X41.4 Y37.294 Z-1.296 F3048
X41.393 Y37.185 Z-1.299 F3048
Y37.075 Z-1.303 F3048
X41.401 Y36.965 Z-1.307 F3048
X41.417 Y36.857 Z-1.311 F3048
X41.441 Y36.75 Z-1.315 F3048
X41.472 Y36.645 Z-1.319 F3048
X41.511 Y36.542 Z-1.323 F3048
X41.556 Y36.442 Z-1.327 F3048
X41.609 Y36.346 Z-1.331 F3048
X41.668 Y36.254 Z-1.335 F3048
X41.734 Y36.166 Z-1.339 F3048
X41.806 Y36.083 Z-1.343 F3048
X41.883 Y36.005 Z-1.346 F3048
X41.966 Y35.933 Z-1.35 F3048
X42.054 Y35.867 Z-1.354 F3048
X42.146 Y35.808 Z-1.358 F3048
X42.242 Y35.755 Z-1.362 F3048
X42.342 Y35.709 Z-1.366 F3048
X42.444 Y35.671 Z-1.37 F3048
X42.549 Y35.639 Z-1.374 F3048
X42.656 Y35.616 Z-1.378 F3048
X42.765 Y35.599 Z-1.382 F3048
X42.874 Y35.591 Z-1.386 F3048
X42.984 Z-1.39 F3048
X43.093 Y35.598 Z-1.393 F3048
X43.202 Y35.613 Z-1.397 F3048
X43.309 Y35.635 Z-1.401 F3048
X43.414 Y35.665 Z-1.405 F3048
X43.517 Y35.703 Z-1.409 F3048
X43.617 Y35.747 Z-1.413 F3048
X43.714 Y35.799 Z-1.417 F3048
X43.807 Y35.858 Z-1.421 F3048
X43.895 Y35.922 Z-1.425 F3048
X43.978 Y35.993 Z-1.429 F3048
X44.057 Y36.07 Z-1.433 F3048
X44.129 Y36.152 Z-1.437 F3048
X44.196 Y36.239 Z-1.441 F3048
X44.256 Y36.33 Z-1.444 F3048
X44.31 Y36.426 Z-1.448 F3048
X44.357 Y36.525 Z-1.452 F3048
X44.396 Y36.627 Z-1.456 F3048
X44.429 Y36.732 Z-1.46 F3048
X44.454 Y36.839 Z-1.464 F3048
X44.471 Y36.947 Z-1.468 F3048
X44.48 Y37.056 Z-1.472 F3048
X44.482 Y37.166 Z-1.476 F3048
X44.476 Y37.275 Z-1.48 F3048
X44.462 Y37.383 Z-1.484 F3048
X44.44 Y37.491 Z-1.488 F3048
X44.411 Y37.596 Z-1.491 F3048
X44.375 Y37.699 Z-1.495 F3048
X44.331 Y37.8 Z-1.499 F3048
X44.281 Y37.897 Z-1.503 F3048
X44.223 Y37.99 Z-1.507 F3048
X44.159 Y38.079 Z-1.511 F3048
X44.089 Y38.163 Z-1.515 F3048
X44.013 Y38.242 Z-1.519 F3048
X43.932 Y38.315 Z-1.523 F3048
X43.846 Y38.383 Z-1.527 F3048
X43.755 Y38.444 Z-1.531 F3048
X43.66 Y38.498 Z-1.535 F3048
X43.562 Y38.546 Z-1.538 F3048
X43.46 Y38.587 Z-1.542 F3048
X43.356 Y38.62 Z-1.546 F3048
X43.249 Y38.646 Z-1.55 F3048
X43.142 Y38.664 Z-1.554 F3048
X43.033 Y38.674 Z-1.558 F3048
X42.923 Y38.677 Z-1.562 F3048
X42.814 Y38.672 Z-1.566 F3048
X42.705 Y38.659 Z-1.57 F3048
X42.598 Y38.639 Z-1.574 F3048
X42.492 Y38.611 Z-1.578 F3048
X42.388 Y38.575 Z-1.582 F3048
X42.288 Y38.533 Z-1.585 F3048
X42.19 Y38.483 Z-1.589 F3048
X42.097 Y38.426 Z-1.593 F3048
X42.007 Y38.364 Z-1.597 F3048
X41.923 Y38.294 Z-1.601 F3048
X41.843 Y38.219 Z-1.605 F3048
X41.769 Y38.139 Z-1.609 F3048
X41.701 Y38.054 Z-1.613 F3048
X41.639 Y37.964 Z-1.617 F3048
X41.584 Y37.869 Z-1.621 F3048
X41.535 Y37.771 Z-1.625 F3048
X41.493 Y37.67 Z-1.629 F3048
X41.459 Y37.566 Z-1.632 F3048
X41.432 Y37.46 Z-1.636 F3048
X41.413 Y37.353 Z-1.64 F3048
X41.402 Y37.244 Z-1.644 F3048
X41.398 Y37.135 Z-1.648 F3048
X41.402 Y37.026 Z-1.652 F3048
X41.414 Y36.917 Z-1.656 F3048
X41.433 Y36.809 Z-1.66 F3048
X41.46 Y36.703 Z-1.664 F3048
X41.494 Y36.6 Z-1.668 F3048
X41.536 Y36.499 Z-1.672 F3048
X41.585 Y36.401 Z-1.676 F3048
X41.64 Y36.307 Z-1.679 F3048
X41.702 Y36.217 Z-1.683 F3048
X41.771 Y36.131 Z-1.687 F3048
X41.845 Y36.051 Z-1.691 F3048
X41.924 Y35.976 Z-1.695 F3048
X42.009 Y35.907 Z-1.699 F3048
X42.098 Y35.845 Z-1.703 F3048
X42.192 Y35.788 Z-1.707 F3048
X42.289 Y35.739 Z-1.711 F3048
X42.39 Y35.697 Z-1.715 F3048
X42.493 Y35.661 Z-1.719 F3048
X42.599 Y35.634 Z-1.723 F3048
X42.706 Y35.613 Z-1.726 F3048
X42.815 Y35.601 Z-1.73 F3048
X42.924 Y35.596 Z-1.734 F3048
X43.033 Y35.599 Z-1.738 F3048
X43.141 Y35.609 Z-1.742 F3048
X43.249 Y35.628 Z-1.746 F3048
X43.355 Y35.654 Z-1.75 F3048
X43.459 Y35.687 Z-1.754 F3048
X43.56 Y35.728 Z-1.758 F3048
X43.659 Y35.775 Z-1.762 F3048
X43.753 Y35.83 Z-1.766 F3048
X43.844 Y35.891 Z-1.77 F3048
X43.929 Y35.958 Z-1.774 F3048
X44.01 Y36.032 Z-1.777 F3048
X44.086 Y36.111 Z-1.781 F3048
X44.156 Y36.195 Z-1.785 F3048
X44.219 Y36.283 Z-1.789 F3048
X44.276 Y36.376 Z-1.793 F3048
X44.327 Y36.473 Z-1.797 F3048
X44.37 Y36.573 Z-1.801 F3048
X44.406 Y36.676 Z-1.805 F3048
X44.435 Y36.781 Z-1.809 F3048
X44.456 Y36.888 Z-1.813 F3048
X44.47 Y36.997 Z-1.817 F3048
X44.476 Y37.105 Z-1.821 F3048
X44.474 Y37.214 Z-1.824 F3048
X44.464 Y37.323 Z-1.828 F3048
X44.447 Y37.431 Z-1.832 F3048
X44.422 Y37.537 Z-1.836 F3048
X44.39 Y37.641 Z-1.84 F3048
X44.35 Y37.743 Z-1.844 F3048
X44.304 Y37.841 Z-1.848 F3048
X44.25 Y37.936 Z-1.852 F3048
X44.19 Y38.027 Z-1.856 F3048
X44.124 Y38.114 Z-1.86 F3048
X44.051 Y38.195 Z-1.864 F3048
X43.973 Y38.271 Z-1.868 F3048
X43.89 Y38.342 Z-1.871 F3048
X43.802 Y38.406 Z-1.875 F3048
X43.71 Y38.464 Z-1.879 F3048
X43.613 Y38.515 Z-1.883 F3048
X43.514 Y38.56 Z-1.887 F3048
X43.411 Y38.597 Z-1.891 F3048
X43.306 Y38.627 Z-1.895 F3048
X43.2 Y38.649 Z-1.899 F3048
X43.091 Y38.663 Z-1.903 F3048
X42.983 Y38.67 Z-1.907 F3048
X42.874 Z-1.911 F3048
X42.765 Y38.661 Z-1.915 F3048
X42.657 Y38.645 Z-1.918 F3048
X42.551 Y38.621 Z-1.922 F3048
X42.447 Y38.59 Z-1.926 F3048
X42.345 Y38.551 Z-1.93 F3048
X42.246 Y38.506 Z-1.934 F3048
X42.151 Y38.453 Z-1.938 F3048
X42.059 Y38.394 Z-1.942 F3048
X41.972 Y38.328 Z-1.946 F3048
X41.89 Y38.257 Z-1.95 F3048
X41.813 Y38.18 Z-1.954 F3048
X41.742 Y38.097 Z-1.958 F3048
X41.677 Y38.01 Z-1.962 F3048
X41.618 Y37.918 Z-1.965 F3048
X41.566 Y37.823 Z-1.969 F3048
X41.521 Y37.724 Z-1.973 F3048
X41.483 Y37.622 Z-1.977 F3048
X41.452 Y37.517 Z-1.981 F3048
X41.429 Y37.411 Z-1.985 F3048
X41.413 Y37.303 Z-1.989 F3048
X41.405 Y37.194 Z-1.993 F3048
Y37.086 Z-1.997 F3048
X41.412 Y36.977 Z-2.001 F3048
X41.427 Y36.869 Z-2.005 F3048
X41.45 Y36.763 Z-2.009 F3048
X41.48 Y36.658 Z-2.012 F3048
X41.518 Y36.556 Z-2.016 F3048
X41.563 Y36.456 Z-2.02 F3048
X41.614 Y36.361 Z-2.024 F3048
X41.672 Y36.269 Z-2.028 F3048
X41.737 Y36.181 Z-2.032 F3048
X41.808 Y36.099 Z-2.036 F3048
X41.884 Y36.021 Z-2.04 F3048
X41.966 Y35.949 Z-2.044 F3048
X42.052 Y35.883 Z-2.048 F3048
X42.143 Y35.824 Z-2.052 F3048
X42.238 Y35.771 Z-2.056 F3048
X42.337 Y35.725 Z-2.059 F3048
X42.438 Y35.686 Z-2.063 F3048
X42.542 Y35.654 Z-2.067 F3048
X42.648 Y35.63 Z-2.071 F3048
X42.756 Y35.613 Z-2.075 F3048
X42.864 Y35.604 Z-2.079 F3048
X42.973 Y35.602 Z-2.083 F3048
X43.081 Y35.609 Z-2.087 F3048
X43.189 Y35.623 Z-2.091 F3048
X43.296 Y35.645 Z-2.095 F3048
X43.401 Y35.674 Z-2.099 F3048
X43.503 Y35.71 Z-2.103 F3048
X43.603 Y35.754 Z-2.106 F3048
X43.699 Y35.805 Z-2.11 F3048
X43.791 Y35.862 Z-2.114 F3048
X43.88 Y35.926 Z-2.118 F3048
X43.963 Y35.996 Z-2.122 F3048
X44.041 Y36.071 Z-2.126 F3048
X44.114 Y36.152 Z-2.13 F3048
X44.18 Y36.238 Z-2.134 F3048
X44.241 Y36.328 Z-2.138 F3048
X44.295 Y36.422 Z-2.142 F3048
X44.342 Y36.52 Z-2.146 F3048
X44.382 Y36.621 Z-2.15 F3048
X44.414 Y36.725 Z-2.154 F3048
X44.44 Y36.831 Z-2.157 F3048
X44.457 Y36.938 Z-2.161 F3048
X44.467 Y37.046 Z-2.165 F3048
X44.47 Y37.155 Z-2.169 F3048
X44.465 Y37.263 Z-2.173 F3048
X44.452 Y37.371 Z-2.177 F3048
X44.431 Y37.478 Z-2.181 F3048
X44.403 Y37.583 Z-2.185 F3048
X44.367 Y37.685 Z-2.189 F3048
X44.325 Y37.785 Z-2.193 F3048
X44.275 Y37.882 Z-2.197 F3048
X44.219 Y37.975 Z-2.201 F3048
X44.156 Y38.063 Z-2.204 F3048
X44.087 Y38.147 Z-2.208 F3048
X44.012 Y38.226 Z-2.212 F3048
X43.932 Y38.299 Z-2.216 F3048
X43.847 Y38.367 Z-2.22 F3048
X43.757 Y38.428 Z-2.224 F3048
X43.663 Y38.483 Z-2.228 F3048
X43.566 Y38.531 Z-2.232 F3048
X43.465 Y38.572 Z-2.236 F3048
X43.362 Y38.605 Z-2.24 F3048
X43.257 Y38.632 Z-2.244 F3048
X43.15 Y38.651 Z-2.248 F3048
X43.042 Y38.662 Z-2.251 F3048
X42.934 Y38.665 Z-2.255 F3048
X42.825 Y38.661 Z-2.259 F3048
X42.717 Y38.649 Z-2.263 F3048
X42.611 Y38.629 Z-2.267 F3048
X42.506 Y38.602 Z-2.271 F3048
X42.403 Y38.568 Z-2.275 F3048
X42.302 Y38.526 Z-2.279 F3048
X42.205 Y38.478 Z-2.283 F3048
X42.112 Y38.422 Z-2.287 F3048
X42.023 Y38.36 Z-2.291 F3048
X41.939 Y38.292 Z-2.295 F3048
X41.859 Y38.218 Z-2.298 F3048
X41.785 Y38.139 Z-2.302 F3048
X41.717 Y38.055 Z-2.306 F3048
X41.655 Y37.966 Z-2.31 F3048
X41.599 Y37.873 Z-2.314 F3048
X41.55 Y37.776 Z-2.318 F3048
X41.508 Y37.676 Z-2.322 F3048
X41.474 Y37.573 Z-2.326 F3048
X41.446 Y37.468 Z-2.33 F3048
X41.427 Y37.361 Z-2.334 F3048
X41.415 Y37.253 Z-2.338 F3048
X41.41 Y37.145 Z-2.342 F3048
X41.413 Y37.036 Z-2.345 F3048
X41.424 Y36.928 Z-2.349 F3048
X41.443 Y36.822 Z-2.353 F3048
X41.469 Y36.717 Z-2.357 F3048
X41.502 Y36.613 Z-2.361 F3048
X41.543 Y36.513 Z-2.365 F3048
X41.59 Y36.416 Z-2.369 F3048
X41.645 Y36.322 Z-2.373 F3048
X41.706 Y36.232 Z-2.377 F3048
X41.773 Y36.147 Z-2.381 F3048
X41.846 Y36.067 Z-2.385 F3048
X41.924 Y35.992 Z-2.389 F3048
X42.008 Y35.924 Z-2.392 F3048
X42.096 Y35.861 Z-2.396 F3048
X42.189 Y35.804 Z-2.4 F3048
X42.285 Y35.755 Z-2.404 F3048
X42.384 Y35.712 Z-2.408 F3048
X42.487 Y35.676 Z-2.412 F3048
X42.591 Y35.648 Z-2.416 F3048
X42.698 Y35.627 Z-2.42 F3048
X42.805 Y35.614 Z-2.424 F3048
X42.914 Y35.608 Z-2.428 F3048
X43.022 Y35.61 Z-2.432 F3048
X43.13 Y35.62 Z-2.436 F3048
X43.237 Y35.638 Z-2.439 F3048
X43.342 Y35.663 Z-2.443 F3048
X43.446 Y35.695 Z-2.447 F3048
X43.546 Y35.735 Z-2.451 F3048
X43.644 Y35.781 Z-2.455 F3048
X43.738 Y35.835 Z-2.459 F3048
X43.828 Y35.895 Z-2.463 F3048
X43.914 Y35.961 Z-2.467 F3048
X43.995 Y36.033 Z-2.471 F3048
X44.07 Y36.111 Z-2.475 F3048
X44.14 Y36.194 Z-2.479 F3048
X44.203 Y36.281 Z-2.483 F3048
X44.261 Y36.373 Z-2.486 F3048
X44.311 Y36.469 Z-2.49 F3048
X44.355 Y36.568 Z-2.494 F3048
X44.392 Y36.67 Z-2.498 F3048
X44.421 Y36.774 Z-2.502 F3048
X44.443 Y36.88 Z-2.506 F3048
X44.457 Y36.987 Z-2.51 F3048
X44.463 Y37.095 Z-2.514 F3048
X44.462 Y37.203 Z-2.518 F3048
X44.454 Y37.311 Z-2.522 F3048
X44.437 Y37.418 Z-2.526 F3048
X44.413 Y37.524 Z-2.53 F3048
X44.382 Y37.627 Z-2.534 F3048
X44.343 Y37.728 Z-2.537 F3048
X44.298 Y37.827 Z-2.541 F3048
X44.245 Y37.921 Z-2.545 F3048
X44.186 Y38.012 Z-2.549 F3048
X44.121 Y38.098 Z-2.553 F3048
X44.049 Y38.179 Z-2.557 F3048
X43.972 Y38.256 Z-2.561 F3048
X43.89 Y38.326 Z-2.565 F3048
X43.803 Y38.391 Z-2.569 F3048
X43.712 Y38.449 Z-2.573 F3048
X43.617 Y38.5 Z-2.577 F3048
X43.519 Y38.545 Z-2.581 F3048
X43.417 Y38.582 Z-2.584 F3048
X43.313 Y38.612 Z-2.588 F3048
X43.208 Y38.635 Z-2.592 F3048
X43.101 Y38.65 Z-2.596 F3048
X42.993 Y38.658 Z-2.6 F3048
X42.885 Z-2.604 F3048
X42.777 Y38.65 Z-2.608 F3048
X42.67 Y38.635 Z-2.612 F3048
X42.564 Y38.612 Z-2.616 F3048
X42.461 Y38.582 Z-2.62 F3048
X42.359 Y38.544 Z-2.624 F3048
X42.261 Y38.5 Z-2.628 F3048
X42.166 Y38.448 Z-2.631 F3048
X42.075 Y38.39 Z-2.635 F3048
X41.988 Y38.325 Z-2.639 F3048
X41.906 Y38.255 Z-2.643 F3048
X41.829 Y38.179 Z-2.647 F3048
X41.758 Y38.098 Z-2.651 F3048
X41.693 Y38.011 Z-2.655 F3048
X41.634 Y37.921 Z-2.659 F3048
X41.582 Y37.826 Z-2.663 F3048
X41.536 Y37.728 Z-2.667 F3048
X41.497 Y37.627 Z-2.671 F3048
X41.466 Y37.524 Z-2.675 F3048
X41.442 Y37.418 Z-2.678 F3048
X41.426 Y37.312 Z-2.682 F3048
X41.418 Y37.204 Z-2.686 F3048
X41.416 Y37.096 Z-2.69 F3048
X41.423 Y36.988 Z-2.694 F3048
X41.437 Y36.881 Z-2.698 F3048
X41.459 Y36.776 Z-2.702 F3048
X41.489 Y36.672 Z-2.706 F3048
X41.525 Y36.57 Z-2.71 F3048
X41.569 Y36.471 Z-2.714 F3048
X41.619 Y36.376 Z-2.718 F3048
X41.676 Y36.284 Z-2.722 F3048
X41.74 Y36.197 Z-2.725 F3048
X41.81 Y36.115 Z-2.729 F3048
X41.885 Y36.037 Z-2.733 F3048
X41.965 Y35.965 Z-2.737 F3048
X42.051 Y35.899 Z-2.741 F3048
X42.141 Y35.84 Z-2.745 F3048
X42.235 Y35.786 Z-2.749 F3048
X42.332 Y35.74 Z-2.753 F3048
X42.433 Y35.7 Z-2.757 F3048
X42.536 Y35.668 Z-2.761 F3048
X42.641 Y35.643 Z-2.765 F3048
X42.747 Y35.626 Z-2.769 F3048
X42.855 Y35.616 Z-2.772 F3048
X42.963 Y35.614 Z-2.776 F3048
X43.07 Y35.62 Z-2.78 F3048
X43.178 Y35.633 Z-2.784 F3048
X43.284 Y35.654 Z-2.788 F3048
X43.388 Y35.682 Z-2.792 F3048
X43.489 Y35.718 Z-2.796 F3048
X43.588 Y35.76 Z-2.8 F3048
X43.684 Y35.81 Z-2.804 F3048
X43.776 Y35.866 Z-2.808 F3048
X43.864 Y35.929 Z-2.812 F3048
X43.947 Y35.997 Z-2.816 F3048
X44.025 Y36.072 Z-2.819 F3048
X44.098 Y36.152 Z-2.823 F3048
X44.164 Y36.236 Z-2.827 F3048
X44.225 Y36.325 Z-2.831 F3048
X44.279 Y36.419 Z-2.835 F3048
X44.326 Y36.516 Z-2.839 F3048
X44.367 Y36.616 Z-2.843 F3048
X44.4 Y36.718 Z-2.847 F3048
X44.426 Y36.823 Z-2.851 F3048
X44.444 Y36.929 Z-2.855 F3048
X44.455 Y37.036 Z-2.859 F3048
X44.458 Y37.144 Z-2.863 F3048
X44.453 Y37.252 Z-2.867 F3048
X44.441 Y37.359 Z-2.87 F3048
X44.421 Y37.465 Z-2.874 F3048
X44.394 Y37.569 Z-2.878 F3048
X44.36 Y37.671 Z-2.882 F3048
X44.318 Y37.771 Z-2.886 F3048
X44.269 Y37.867 Z-2.89 F3048
X44.214 Y37.96 Z-2.894 F3048
X44.152 Y38.048 Z-2.898 F3048
X44.084 Y38.132 Z-2.902 F3048
X44.011 Y38.21 Z-2.906 F3048
X43.932 Y38.284 Z-2.91 F3048
X43.848 Y38.351 Z-2.914 F3048
X43.759 Y38.412 Z-2.917 F3048
X43.667 Y38.467 Z-2.921 F3048
X43.571 Y38.516 Z-2.925 F3048
X43.471 Y38.557 Z-2.929 F3048
X43.369 Y38.591 Z-2.933 F3048
X43.265 Y38.618 Z-2.937 F3048
X43.159 Y38.637 Z-2.941 F3048
X43.052 Y38.649 Z-2.945 F3048
X42.944 Y38.653 Z-2.949 F3048
X42.836 Y38.649 Z-2.953 F3048
X42.729 Y38.638 Z-2.957 F3048
X42.623 Y38.62 Z-2.961 F3048
X42.519 Y38.593 Z-2.964 F3048
X42.417 Y38.56 Z-2.968 F3048
X42.317 Y38.519 Z-2.972 F3048
X42.22 Y38.472 Z-2.976 F3048
X42.127 Y38.417 Z-2.98 F3048
X42.038 Y38.356 Z-2.984 F3048
X41.954 Y38.29 Z-2.988 F3048
X41.875 Y38.217 Z-2.992 F3048
X41.801 Y38.139 Z-2.996 F3048
X41.732 Y38.055 Z-3 F3048
X41.67 Y37.967 Z-3.004 F3048
X41.614 Y37.875 Z-3.008 F3048
X41.565 Y37.78 Z-3.011 F3048
X41.523 Y37.681 Z-3.015 F3048
X41.488 Y37.579 Z-3.019 F3048
X41.46 Y37.475 Z-3.023 F3048
X41.44 Y37.369 Z-3.027 F3048
X41.427 Y37.263 Z-3.031 F3048
X41.422 Y37.155 Z-3.035 F3048
X41.425 Y37.048 Z-3.039 F3048
X41.435 Y36.941 Z-3.043 F3048
X41.452 Y36.835 Z-3.047 F3048
X41.477 Y36.73 Z-3.051 F3048
X41.51 Y36.627 Z-3.055 F3048
X41.55 Y36.528 Z-3.058 F3048
X41.596 Y36.431 Z-3.062 F3048
X41.65 Y36.337 Z-3.066 F3048
X41.709 Y36.248 Z-3.07 F3048
X41.775 Y36.163 Z-3.074 F3048
X41.847 Y36.083 Z-3.078 F3048
X41.925 Y36.008 Z-3.082 F3048
X42.007 Y35.939 Z-3.086 F3048
X42.094 Y35.876 Z-3.09 F3048
X42.186 Y35.82 Z-3.094 F3048
X42.281 Y35.77 Z-3.098 F3048
X42.38 Y35.727 Z-3.102 F3048
X42.481 Y35.691 Z-3.105 F3048
X42.585 Y35.662 Z-3.109 F3048
X42.69 Y35.641 Z-3.113 F3048
X42.797 Y35.627 Z-3.117 F3048
X42.904 Y35.621 Z-3.121 F3048
X43.011 Y35.622 Z-3.125 F3048
X43.118 Y35.631 Z-3.129 F3048
X43.224 Y35.648 Z-3.133 F3048
X43.329 Y35.672 Z-3.137 F3048
X43.432 Y35.703 Z-3.141 F3048
X43.532 Y35.742 Z-3.145 F3048
