%
(Fusion CAM 2.0.18961)
( Posts processor: MPCNC21.cps)
( Gcode generated: Sunday, April 28, 2024 9:24:49 PM GMT)
( Document: wireWiggler v198)
( Setup: boxLeft)
(When using Fusion for Personal Use, the feedrate of rapid)
(moves is reduced to match the feedrate of cutting moves,)
(which can increase machining time. Unrestricted rapid moves)
(are available with a Fusion Subscription.)
( )
( Ranges Table:)
(   X: Min=4.095 Max=209.842 Size=205.747)
(   Y: Min=4.095 Max=236.764 Size=232.669)
(   Z: Min=-12.438 Max=3 Size=15.438)
( )
( Tools Table:)
(  T2 D=3.175 CR=0 - ZMIN=-12.438 - flat end mill )
( )
( Feedrate and Scaling Properties:)
(   Feed: Travel speed X/Y = 7500)
(   Feed: Travel Speed Z = 300)
(   Feed: Enforce Feedrate = true)
(   Feed: Scale Feedrate = false)
(   Feed: Max XY Cut Speed = 900)
(   Feed: Max Z Cut Speed = 180)
(   Feed: Max Toolpath Speed = 1000)
( )
( G1->G0 Mapping Properties:)
(   Map: First G1 -> G0 Rapid = true)
(   Map: G1s -> G0 Rapids = true)
(   Map: SafeZ Mode = Retract : default = 0)
(   Map: Allow Rapid Z = true)
( )
( *** START begin ***)
( --- Start custom gcode C:\Users\Kevin\Documents\Fusion 360\NC Programs\start.gcode)
% vfd enable
M6 T0
% LED ON
M62 P0
% spindle relays on
M62 P1
%( *** START end ***)
( )
( *** SECTION begin ***)
(   X Min: 32.085 - X Max: 209.842)
(   Y Min: 28.305 - Y Max: 236.764)
(   Z Min: -1 - Z Max: 3)
( SafeZ retract level: 3)
( glueLettersFront 3 - Milling - Tool: 2 -  flat end mill)
( COMMAND_START_SPINDLE)
( COMMAND_SPINDLE_CLOCKWISE)
( >>> Spindle Speed 18000)
M3 S18000
( COMMAND_COOLANT_ON)
( >>> WARNING: No matching Coolant channel : Flood requested)
( MOVEMENT_PLUNGE)
( First G1 --> G0)
G0 Z3 F300
X44.922 Y132.68 F7500
G1 Z0.635 F339
Z-1 F339
( MOVEMENT_FINISH_CUTTING)
X44.887 Y132.971 F3048
X44.837 Y133.293 F3048
X44.773 Y133.572 F3048
X44.747 Y133.655 F3048
X44.713 Y133.741 F3048
X44.671 Y133.829 F3048
X44.625 Y133.914 F3048
X44.464 Y134.163 F3048
X44.264 Y134.432 F3048
X44.02 Y134.737 F3048
G17 G2 X44.012 Y136.706 I1.241 J0.99 F3048
G1 X44.261 Y137.024 F3048
X44.465 Y137.301 F3048
X44.628 Y137.56 F3048
X44.674 Y137.648 F3048
X44.716 Y137.74 F3048
X44.75 Y137.832 F3048
X44.777 Y137.921 F3048
X44.841 Y138.215 F3048
X44.888 Y138.551 F3048
X44.922 Y138.866 F3048
Y139 F3048
X44.899 Y139.305 F3048
X44.86 Y139.588 F3048
X44.792 Y139.874 F3048
X44.746 Y140.029 F3048
X44.483 Y140.455 F3048
X44.312 Y140.715 F3048
X44.143 Y140.953 F3048
X43.98 Y141.162 F3048
X43.826 Y141.336 F3048
X43.678 Y141.479 F3048
X43.539 Y141.59 F3048
X43.402 Y141.678 F3048
X43.239 Y141.759 F3048
X43.037 Y141.839 F3048
X42.801 Y141.914 F3048
X42.533 Y141.982 F3048
X42.236 Y142.045 F3048
X41.684 Y142.145 F3048
X32.085 F3048
Y129.32 F3048
X41.807 F3048
X42.094 Y129.343 F3048
X42.372 Y129.383 F3048
X42.656 Y129.449 F3048
X42.792 Y129.488 F3048
X43.205 Y129.744 F3048
X43.465 Y129.914 F3048
X43.702 Y130.082 F3048
X43.912 Y130.246 F3048
X44.09 Y130.402 F3048
X44.235 Y130.549 F3048
X44.348 Y130.688 F3048
X44.44 Y130.829 F3048
X44.524 Y130.989 F3048
X44.604 Y131.185 F3048
X44.681 Y131.418 F3048
X44.752 Y131.685 F3048
X44.819 Y131.976 F3048
X44.922 Y132.51 F3048
Y132.68 F3048
( MOVEMENT_CUTTING)
( Safe G1 --> G0)
G0 Z3 F300
( Safe G1 --> G0)
X44.75 Y132.672 F7500
( MOVEMENT_PLUNGE)
G1 Z0.635 F339
Z-1 F339
( MOVEMENT_FINISH_CUTTING)
G2 X44.751 Y132.631 I-1.587 J-0.041 F3048
G1 Y132.303 F3048
G2 X44.646 Y131.736 I-1.588 F3048
G1 X44.556 Y131.5 F3048
G2 X44.528 Y131.432 I-1.483 J0.567 F3048
G1 X44.429 Y131.206 F3048
G2 X44.361 Y131.069 I-1.455 J0.635 F3048
G1 X44.246 Y130.862 F3048
G2 X44.154 Y130.716 I-1.387 J0.772 F3048
G1 X44.088 Y130.622 F3048
G2 X43.991 Y130.499 I-1.295 J0.918 F3048
G1 X43.917 Y130.414 F3048
G2 X43.788 Y130.282 I-1.199 J1.041 F3048
G1 X43.706 Y130.207 F3048
G2 X43.557 Y130.087 I-1.069 J1.173 F3048
G1 X43.466 Y130.022 F3048
G2 X43.324 Y129.932 I-0.921 J1.293 F3048
G1 X43.224 Y129.876 F3048
G2 X43.099 Y129.812 I-0.779 J1.383 F3048
G1 X42.993 Y129.764 F3048
G2 X42.859 Y129.711 I-0.653 J1.447 F3048
G1 X42.632 Y129.632 F3048
G2 X42.535 Y129.602 I-0.52 J1.5 F3048
G1 X42.296 Y129.536 F3048
G2 X41.873 Y129.479 I-0.423 J1.53 F3048
G1 X33.844 F3048
G2 X32.256 Y131.066 J1.587 F3048
G1 Y140.397 F3048
G2 X33.844 Y141.984 I1.588 F3048
G1 X41.92 F3048
G2 X42.485 Y141.881 J-1.587 F3048
G1 X42.721 Y141.791 F3048
G2 X42.791 Y141.762 I-0.564 J-1.484 F3048
G1 X43.018 Y141.663 F3048
G2 X43.158 Y141.594 I-0.634 J-1.455 F3048
G1 X43.366 Y141.478 F3048
G2 X43.506 Y141.39 I-0.773 J-1.386 F3048
G1 X43.6 Y141.324 F3048
G2 X43.725 Y141.226 I-0.914 J-1.298 F3048
G1 X43.811 Y141.152 F3048
G2 X43.944 Y141.023 I-1.039 J-1.2 F3048
G1 X44.02 Y140.94 F3048
G2 X44.136 Y140.796 I-1.172 J-1.071 F3048
G1 X44.201 Y140.705 F3048
G2 X44.297 Y140.555 I-1.288 J-0.927 F3048
G1 X44.354 Y140.455 F3048
G2 X44.416 Y140.33 I-1.385 J-0.777 F3048
G1 X44.465 Y140.223 F3048
G2 X44.517 Y140.092 I-1.447 J-0.652 F3048
G1 X44.596 Y139.865 F3048
G2 X44.626 Y139.77 I-1.499 J-0.521 F3048
G1 X44.692 Y139.531 F3048
G2 X44.751 Y139.104 I-1.529 J-0.427 F3048
G1 Y138.825 F3048
G2 X44.747 Y138.719 I-1.588 F3048
G1 X44.733 Y138.512 F3048
G2 X44.69 Y138.235 I-1.584 J0.106 F3048
G1 X44.665 Y138.134 F3048
G2 X44.619 Y137.983 I-1.541 J0.383 F3048
G1 X44.584 Y137.885 F3048
G2 X44.463 Y137.624 I-1.495 J0.534 F3048
G1 X44.328 Y137.39 F3048
G2 X44.279 Y137.311 I-1.374 J0.795 F3048
G1 X44.135 Y137.092 F3048
G2 X44.063 Y136.992 I-1.325 J0.874 F3048
G1 X43.984 Y136.891 F3048
G2 X43.897 Y136.788 I-1.253 J0.974 F3048
G1 X43.813 Y136.697 F3048
G2 X43.702 Y136.588 I-1.166 J1.077 F3048
G1 X43.611 Y136.507 F3048
G2 X43.464 Y136.391 I-1.055 J1.186 F3048
G1 X43.365 Y136.322 F3048
G2 X43.203 Y136.223 I-0.908 J1.302 F3048
G1 X43.096 Y136.166 F3048
G2 X42.932 Y136.09 I-0.746 J1.401 F3048
G1 X42.818 Y136.045 F3048
G2 X42.635 Y135.986 I-0.582 J1.477 F3048
G1 X42.389 Y135.922 F3048
G2 X42.223 Y135.888 I-0.4 J1.536 F3048
G1 X41.96 Y135.849 F3048
G2 X41.879 Y135.839 I-0.233 J1.57 F3048
G1 X41.608 Y135.813 F3048
G2 X41.456 Y135.805 I-0.152 J1.58 F3048
G1 X37.725 F3048
Y135.646 F3048
X41.604 F3048
G2 X41.937 Y135.611 J-1.587 F3048
G1 X42.245 Y135.545 F3048
G2 X42.324 Y135.526 I-0.333 J-1.552 F3048
G1 X42.617 Y135.447 F3048
G2 X42.737 Y135.41 I-0.412 J-1.533 F3048
G1 X42.875 Y135.361 F3048
G2 X42.984 Y135.317 I-0.532 J-1.496 F3048
G1 X43.113 Y135.26 F3048
G2 X43.259 Y135.187 I-0.641 J-1.452 F3048
G1 X43.378 Y135.119 F3048
G2 X43.532 Y135.018 I-0.787 J-1.379 F3048
G1 X43.64 Y134.939 F3048
G2 X43.816 Y134.788 I-0.941 J-1.278 F3048
G1 X43.91 Y134.695 F3048
G2 X44.065 Y134.516 I-1.118 J-1.127 F3048
G1 X44.145 Y134.409 F3048
G2 X44.253 Y134.243 I-1.273 J-0.948 F3048
G1 X44.321 Y134.124 F3048
G2 X44.393 Y133.98 I-1.381 J-0.782 F3048
G1 X44.45 Y133.85 F3048
G2 X44.506 Y133.703 I-1.453 J-0.638 F3048
G1 X44.598 Y133.421 F3048
G2 X44.628 Y133.317 I-1.51 J-0.491 F3048
G1 X44.703 Y133.018 F3048
G2 X44.75 Y132.672 I-1.54 J-0.387 F3048
( MOVEMENT_CUTTING)
( Safe G1 --> G0)
G0 Z3 F300
( Safe G1 --> G0)
X79.998 Y223.939 F7500
( MOVEMENT_PLUNGE)
G1 Z0.635 F339
Z-1 F339
( MOVEMENT_FINISH_CUTTING)
X89.351 F3048
X89.636 Y223.963 F3048
X89.914 Y224.003 F3048
X90.2 Y224.07 F3048
X90.337 Y224.109 F3048
X90.748 Y224.363 F3048
X91.009 Y224.535 F3048
X91.247 Y224.703 F3048
X91.455 Y224.865 F3048
X91.633 Y225.022 F3048
X91.779 Y225.17 F3048
X91.893 Y225.31 F3048
X91.985 Y225.449 F3048
X92.067 Y225.609 F3048
X92.148 Y225.807 F3048
X92.225 Y226.039 F3048
X92.297 Y226.304 F3048
X92.363 Y226.596 F3048
X92.466 Y227.13 F3048
Y227.3 F3048
X92.431 Y227.591 F3048
X92.381 Y227.915 F3048
X92.317 Y228.193 F3048
X92.291 Y228.275 F3048
X92.257 Y228.361 F3048
X92.215 Y228.452 F3048
X92.169 Y228.535 F3048
X92.008 Y228.784 F3048
X91.808 Y229.053 F3048
X91.565 Y229.358 F3048
G2 X91.557 Y231.327 I1.241 J0.99 F3048
G1 X91.806 Y231.645 F3048
X92.009 Y231.923 F3048
X92.172 Y232.181 F3048
X92.218 Y232.268 F3048
X92.26 Y232.359 F3048
X92.295 Y232.452 F3048
X92.321 Y232.542 F3048
X92.385 Y232.834 F3048
X92.432 Y233.172 F3048
X92.466 Y233.486 F3048
Y233.621 F3048
X92.443 Y233.926 F3048
X92.404 Y234.208 F3048
X92.336 Y234.493 F3048
X92.29 Y234.649 F3048
X92.027 Y235.075 F3048
X91.856 Y235.336 F3048
X91.687 Y235.575 F3048
X91.525 Y235.782 F3048
X91.37 Y235.956 F3048
X91.222 Y236.099 F3048
X91.085 Y236.209 F3048
X90.944 Y236.299 F3048
X90.782 Y236.381 F3048
X90.583 Y236.459 F3048
X90.345 Y236.534 F3048
X90.077 Y236.603 F3048
X89.782 Y236.665 F3048
X89.228 Y236.764 F3048
X81.388 F3048
X79.629 F3048
Y223.939 F3048
X79.998 F3048
( MOVEMENT_CUTTING)
( Safe G1 --> G0)
G0 Z3 F300
( Safe G1 --> G0)
X80.26 Y224.568 F7500
( MOVEMENT_PLUNGE)
G1 Z0.635 F339
Z-1 F339
( MOVEMENT_FINISH_CUTTING)
G2 X79.8 Y225.686 I1.127 J1.118 F3048
G1 Y235.018 F3048
G2 X81.388 Y236.605 I1.588 F3048
G1 X89.465 F3048
G2 X90.034 Y236.5 J-1.587 F3048
G1 X90.271 Y236.409 F3048
G2 X90.335 Y236.382 I-0.57 J-1.482 F3048
G1 X90.563 Y236.283 F3048
G2 X90.697 Y236.217 I-0.634 J-1.455 F3048
G1 X90.905 Y236.102 F3048
G2 X91.059 Y236.005 I-0.768 J-1.389 F3048
G1 X91.153 Y235.938 F3048
G2 X91.27 Y235.846 I-0.923 J-1.292 F3048
G1 X91.355 Y235.772 F3048
G2 X91.481 Y235.65 I-1.04 J-1.2 F3048
G1 X91.557 Y235.568 F3048
G2 X91.685 Y235.411 I-1.165 J-1.078 F3048
G1 X91.75 Y235.319 F3048
G2 X91.842 Y235.175 I-1.293 J-0.921 F3048
G1 X91.898 Y235.075 F3048
G2 X91.958 Y234.955 I-1.385 J-0.777 F3048
G1 X92.007 Y234.849 F3048
G2 X92.062 Y234.711 I-1.445 J-0.657 F3048
G1 X92.141 Y234.482 F3048
G2 X92.17 Y234.39 I-1.5 J-0.519 F3048
G1 X92.236 Y234.151 F3048
G2 X92.295 Y233.724 I-1.529 J-0.427 F3048
G1 Y233.446 F3048
G2 X92.291 Y233.34 I-1.588 F3048
G1 X92.277 Y233.132 F3048
G2 X92.233 Y232.852 I-1.584 J0.106 F3048
G1 X92.208 Y232.752 F3048
G2 X92.165 Y232.609 I-1.54 J0.386 F3048
G1 X92.13 Y232.51 F3048
G2 X92.006 Y232.241 I-1.497 J0.529 F3048
G1 X91.871 Y232.008 F3048
G2 X91.825 Y231.935 I-1.373 J0.798 F3048
G1 X91.681 Y231.715 F3048
G2 X91.602 Y231.606 I-1.327 J0.871 F3048
G1 X91.524 Y231.506 F3048
G2 X91.446 Y231.414 I-1.249 J0.98 F3048
G1 X91.362 Y231.322 F3048
G2 X91.247 Y231.209 I-1.171 J1.072 F3048
G1 X91.156 Y231.128 F3048
G2 X91.008 Y231.011 I-1.056 J1.185 F3048
G1 X90.909 Y230.942 F3048
G2 X90.737 Y230.837 I-0.908 J1.302 F3048
G1 X90.63 Y230.781 F3048
G2 X90.487 Y230.715 I-0.736 J1.407 F3048
G1 X90.372 Y230.669 F3048
G2 X90.179 Y230.606 I-0.593 J1.473 F3048
G1 X89.933 Y230.542 F3048
G2 X89.767 Y230.508 I-0.4 J1.536 F3048
G1 X89.504 Y230.469 F3048
G2 X89.423 Y230.459 I-0.233 J1.57 F3048
G1 X89.152 Y230.433 F3048
G2 X89.001 Y230.426 I-0.152 J1.58 F3048
G1 X85.27 F3048
Y230.266 F3048
X89.148 F3048
G2 X89.477 Y230.232 J-1.587 F3048
G1 X89.784 Y230.167 F3048
G2 X89.873 Y230.146 I-0.329 J-1.553 F3048
G1 X90.167 Y230.066 F3048
G2 X90.272 Y230.033 I-0.417 J-1.532 F3048
G1 X90.41 Y229.985 F3048
G2 X90.537 Y229.934 I-0.523 J-1.499 F3048
G1 X90.666 Y229.876 F3048
G2 X90.794 Y229.812 I-0.65 J-1.448 F3048
G1 X90.914 Y229.745 F3048
G2 X91.076 Y229.639 I-0.778 J-1.384 F3048
G1 X91.184 Y229.56 F3048
G2 X91.36 Y229.409 I-0.941 J-1.278 F3048
G1 X91.454 Y229.316 F3048
G2 X91.609 Y229.137 I-1.118 J-1.127 F3048
G1 X91.689 Y229.03 F3048
G2 X91.8 Y228.859 I-1.273 J-0.948 F3048
G1 X91.868 Y228.739 F3048
G2 X91.935 Y228.605 I-1.384 J-0.777 F3048
G1 X91.992 Y228.476 F3048
G2 X92.05 Y228.324 I-1.452 J-0.643 F3048
G1 X92.142 Y228.042 F3048
G2 X92.172 Y227.938 I-1.51 J-0.491 F3048
G1 X92.247 Y227.639 F3048
G2 X92.295 Y227.252 I-1.54 J-0.387 F3048
G1 Y226.924 F3048
G2 X92.19 Y226.357 I-1.588 F3048
G1 X92.1 Y226.121 F3048
G2 X92.073 Y226.056 I-1.483 J0.567 F3048
G1 X91.975 Y225.829 F3048
G2 X91.905 Y225.689 I-1.456 J0.632 F3048
G1 X91.79 Y225.482 F3048
G2 X91.694 Y225.33 I-1.387 J0.772 F3048
G1 X91.627 Y225.237 F3048
G2 X91.535 Y225.12 I-1.291 J0.924 F3048
G1 X91.462 Y225.035 F3048
G2 X91.34 Y224.91 I-1.199 J1.041 F3048
G1 X91.258 Y224.834 F3048
G2 X91.101 Y224.707 I-1.077 J1.166 F3048
G1 X91.01 Y224.642 F3048
G2 X90.868 Y224.552 I-0.921 J1.293 F3048
G1 X90.768 Y224.496 F3048
G2 X90.643 Y224.432 I-0.779 J1.383 F3048
G1 X90.537 Y224.384 F3048
G2 X90.398 Y224.329 I-0.653 J1.447 F3048
G1 X90.17 Y224.251 F3048
G2 X90.085 Y224.225 I-0.514 J1.502 F3048
G1 X89.846 Y224.158 F3048
G2 X89.417 Y224.098 I-0.429 J1.528 F3048
G1 X81.388 F3048
G2 X80.26 Y224.568 J1.588 F3048
( MOVEMENT_CUTTING)
( Safe G1 --> G0)
G0 Z3 F300
( Safe G1 --> G0)
X197.647 Y142.067 F7500
( MOVEMENT_PLUNGE)
G1 Z0.635 F339
Z-1 F339
( MOVEMENT_FINISH_CUTTING)
X197.676 Y142.119 F3048
G2 X197.773 Y142.275 I1.392 J-0.763 F3048
G1 X197.839 Y142.368 F3048
G2 X197.93 Y142.483 I1.295 J-0.919 F3048
G1 X198.003 Y142.568 F3048
G2 X198.136 Y142.705 I1.204 J-1.034 F3048
G1 X198.218 Y142.78 F3048
G2 X198.36 Y142.896 I1.071 J-1.171 F3048
G1 X198.45 Y142.961 F3048
G2 X198.597 Y143.056 I0.929 J-1.287 F3048
G1 X198.696 Y143.112 F3048
G2 X198.818 Y143.174 I0.782 J-1.382 F3048
G1 X198.923 Y143.222 F3048
G2 X199.065 Y143.279 I0.66 J-1.444 F3048
G1 X199.291 Y143.357 F3048
G2 X199.377 Y143.384 I0.518 J-1.501 F3048
G1 X199.614 Y143.451 F3048
G2 X200.046 Y143.51 I0.432 J-1.528 F3048
G1 X209.842 F3048
Y143.669 F3048
X200.114 F3048
X199.83 Y143.645 F3048
X199.551 Y143.605 F3048
X199.269 Y143.538 F3048
X199.134 Y143.5 F3048
X198.721 Y143.244 F3048
X198.461 Y143.073 F3048
X198.224 Y142.905 F3048
X198.017 Y142.744 F3048
X197.839 Y142.586 F3048
X197.694 Y142.438 F3048
X197.581 Y142.3 F3048
X197.488 Y142.158 F3048
X197.405 Y141.999 F3048
X197.326 Y141.805 F3048
X197.25 Y141.572 F3048
X197.178 Y141.304 F3048
X197.112 Y141.013 F3048
X197.01 Y140.48 F3048
Y140.309 F3048
X197.044 Y140.015 F3048
X197.094 Y139.692 F3048
X197.159 Y139.411 F3048
X197.184 Y139.33 F3048
X197.218 Y139.242 F3048
X197.26 Y139.153 F3048
X197.304 Y139.073 F3048
X197.466 Y138.823 F3048
X197.666 Y138.554 F3048
X197.909 Y138.25 F3048
G2 X197.916 Y136.274 I-1.239 J-0.992 F3048
G1 X197.668 Y135.96 F3048
X197.466 Y135.684 F3048
X197.301 Y135.424 F3048
X197.255 Y135.337 F3048
X197.215 Y135.249 F3048
X197.18 Y135.157 F3048
X197.154 Y135.068 F3048
X197.091 Y134.773 F3048
X197.043 Y134.437 F3048
X197.01 Y134.123 F3048
Y133.987 F3048
X197.032 Y133.677 F3048
X197.07 Y133.393 F3048
X197.138 Y133.107 F3048
X197.184 Y132.952 F3048
X197.445 Y132.528 F3048
X197.615 Y132.268 F3048
X197.784 Y132.03 F3048
X197.945 Y131.823 F3048
X198.098 Y131.65 F3048
X198.246 Y131.508 F3048
X198.384 Y131.397 F3048
X198.522 Y131.308 F3048
X198.685 Y131.227 F3048
X198.884 Y131.148 F3048
X199.118 Y131.075 F3048
X199.386 Y131.007 F3048
X199.682 Y130.944 F3048
X200.234 Y130.844 F3048
X209.842 F3048
Y131.003 F3048
X199.987 F3048
G2 X199.412 Y131.111 J1.588 F3048
G1 X199.178 Y131.202 F3048
G2 X199.111 Y131.23 I0.575 J1.48 F3048
G1 X198.887 Y131.329 F3048
G2 X198.752 Y131.396 I0.642 J1.452 F3048
G1 X198.547 Y131.511 F3048
G2 X198.389 Y131.613 I0.777 J1.385 F3048
G1 X198.297 Y131.68 F3048
G2 X198.183 Y131.772 I0.935 J1.283 F3048
G1 X198.099 Y131.846 F3048
G2 X197.969 Y131.973 I1.049 J1.191 F3048
G1 X197.895 Y132.055 F3048
G2 X197.775 Y132.206 I1.179 J1.064 F3048
G1 X197.711 Y132.297 F3048
G2 X197.622 Y132.439 I1.299 J0.913 F3048
G1 X197.567 Y132.538 F3048
G2 X197.497 Y132.682 I1.388 J0.771 F3048
G1 X197.451 Y132.789 F3048
G2 X197.406 Y132.904 I1.458 J0.627 F3048
G1 X197.329 Y133.13 F3048
G2 X197.299 Y133.23 I1.503 J0.512 F3048
G1 X197.235 Y133.468 F3048
G2 X197.18 Y133.88 I1.533 J0.412 F3048
G1 Y134.157 F3048
G2 X197.184 Y134.261 I1.588 F3048
G1 X197.198 Y134.475 F3048
G2 X197.239 Y134.745 I1.584 J-0.104 F3048
G1 X197.264 Y134.848 F3048
G2 X197.307 Y134.994 I1.543 J-0.374 F3048
G1 X197.342 Y135.095 F3048
G2 X197.471 Y135.376 I1.5 J-0.52 F3048
G1 X197.606 Y135.607 F3048
G2 X197.656 Y135.687 I1.371 J-0.801 F3048
G1 X197.8 Y135.903 F3048
G2 X197.874 Y136.004 I1.321 J-0.881 F3048
G1 X197.952 Y136.103 F3048
G2 X198.032 Y136.197 I1.247 J-0.982 F3048
G1 X198.115 Y136.287 F3048
G2 X198.234 Y136.403 I1.167 J-1.076 F3048
G1 X198.325 Y136.483 F3048
G2 X198.468 Y136.595 I1.048 J-1.192 F3048
G1 X198.566 Y136.663 F3048
G2 X198.74 Y136.768 I0.905 J-1.304 F3048
G1 X198.846 Y136.823 F3048
G2 X198.99 Y136.889 I0.731 J-1.409 F3048
G1 X199.103 Y136.934 F3048
G2 X199.299 Y136.998 I0.587 J-1.475 F3048
G1 X199.543 Y137.06 F3048
G2 X199.704 Y137.092 I0.391 J-1.539 F3048
G1 X199.964 Y137.13 F3048
G2 X200.047 Y137.14 I0.23 J-1.571 F3048
G1 X200.315 Y137.165 F3048
G2 X200.462 Y137.171 I0.147 J-1.581 F3048
G1 X204.898 F3048
Y137.331 F3048
X200.286 F3048
G2 X199.938 Y137.369 J1.587 F3048
G1 X199.635 Y137.437 F3048
G2 X199.555 Y137.457 I0.348 J1.549 F3048
G1 X199.266 Y137.538 F3048
G2 X199.143 Y137.578 I0.428 J1.529 F3048
G1 X199.008 Y137.628 F3048
G2 X198.89 Y137.677 I0.551 J1.489 F3048
G1 X198.763 Y137.736 F3048
G2 X198.629 Y137.806 I0.669 J1.44 F3048
G1 X198.513 Y137.874 F3048
G2 X198.354 Y137.981 I0.803 J1.37 F3048
G1 X198.249 Y138.061 F3048
G2 X198.064 Y138.226 I0.962 J1.263 F3048
G1 X197.974 Y138.32 F3048
G2 X197.832 Y138.491 I1.147 J1.098 F3048
G1 X197.755 Y138.598 F3048
G2 X197.651 Y138.764 I1.289 J0.927 F3048
G1 X197.586 Y138.883 F3048
G2 X197.513 Y139.035 I1.393 J0.761 F3048
G1 X197.459 Y139.165 F3048
G2 X197.407 Y139.308 I1.466 J0.609 F3048
G1 X197.321 Y139.588 F3048
G2 X197.295 Y139.685 I1.518 J0.466 F3048
G1 X197.224 Y139.982 F3048
G2 X197.18 Y140.351 I1.544 J0.369 F3048
G1 Y140.69 F3048
G2 X197.283 Y141.252 I1.588 F3048
G1 X197.372 Y141.487 F3048
G2 X197.402 Y141.559 I1.485 J-0.562 F3048
G1 X197.5 Y141.784 F3048
G2 X197.563 Y141.913 I1.455 J-0.634 F3048
G1 X197.647 Y142.067 F3048
( MOVEMENT_CUTTING)
( Safe G1 --> G0)
G0 Z3 F300
( Safe G1 --> G0)
X121.303 Y39.866 F7500
( MOVEMENT_PLUNGE)
G1 Z0.635 F339
Z-1 F339
( MOVEMENT_FINISH_CUTTING)
X121.035 Y40.067 F3048
X120.775 Y40.246 F3048
X120.52 Y40.402 F3048
X120.273 Y40.534 F3048
X120.024 Y40.645 F3048
X119.758 Y40.742 F3048
X119.471 Y40.828 F3048
X119.16 Y40.904 F3048
X118.827 Y40.972 F3048
X118.477 Y41.032 F3048
X117.822 Y41.13 F3048
X111.11 F3048
Y28.305 F3048
X117.828 F3048
X118.417 Y28.388 F3048
X119.066 Y28.503 F3048
X119.343 Y28.566 F3048
X119.609 Y28.64 F3048
X119.856 Y28.723 F3048
X120.088 Y28.819 F3048
X120.321 Y28.933 F3048
X120.562 Y29.068 F3048
X120.807 Y29.221 F3048
X121.053 Y29.389 F3048
X121.592 Y29.79 F3048
X122.016 Y30.127 F3048
X122.373 Y30.563 F3048
X122.796 Y31.112 F3048
X122.972 Y31.362 F3048
X123.134 Y31.614 F3048
X123.277 Y31.86 F3048
X123.398 Y32.099 F3048
X123.5 Y32.338 F3048
X123.589 Y32.591 F3048
X123.668 Y32.864 F3048
X123.738 Y33.159 F3048
X123.801 Y33.475 F3048
X123.857 Y33.805 F3048
X123.948 Y34.418 F3048
Y35.026 F3048
X123.873 Y35.577 F3048
X123.768 Y36.19 F3048
X123.711 Y36.452 F3048
X123.645 Y36.702 F3048
X123.57 Y36.935 F3048
X123.482 Y37.159 F3048
X123.38 Y37.382 F3048
X123.259 Y37.611 F3048
X123.121 Y37.847 F3048
X122.97 Y38.084 F3048
X122.61 Y38.605 F3048
X122.315 Y39.006 F3048
X121.852 Y39.413 F3048
X121.575 Y39.647 F3048
X121.303 Y39.866 F3048
( MOVEMENT_CUTTING)
( Safe G1 --> G0)
G0 Z3 F300
( Safe G1 --> G0)
X120.67 Y40.081 F7500
( MOVEMENT_PLUNGE)
G1 Z0.635 F339
Z-1 F339
( MOVEMENT_FINISH_CUTTING)
X120.72 Y40.05 F3048
G2 X120.759 Y40.025 I-0.84 J-1.347 F3048
G1 X121.048 Y39.833 F3048
G2 X121.091 Y39.803 I-0.879 J-1.322 F3048
G1 X121.37 Y39.604 F3048
G2 X121.432 Y39.557 I-0.922 J-1.292 F3048
G1 X121.696 Y39.348 F3048
G2 X121.772 Y39.285 I-0.984 J-1.245 F3048
G1 X122.018 Y39.064 F3048
G2 X122.105 Y38.98 I-1.06 J-1.182 F3048
G1 X122.33 Y38.745 F3048
G2 X122.428 Y38.632 I-1.147 J-1.098 F3048
G1 X122.627 Y38.38 F3048
G2 X122.724 Y38.243 I-1.245 J-0.985 F3048
G1 X122.895 Y37.973 F3048
G2 X122.976 Y37.828 I-1.342 J-0.848 F3048
G1 X123.119 Y37.539 F3048
G2 X123.175 Y37.412 I-1.423 J-0.703 F3048
G1 X123.294 Y37.107 F3048
G2 X123.331 Y37.001 I-1.479 J-0.576 F3048
G1 X123.43 Y36.682 F3048
G2 X123.453 Y36.599 I-1.516 J-0.471 F3048
G1 X123.536 Y36.27 F3048
G2 X123.55 Y36.209 I-1.539 J-0.388 F3048
G1 X123.621 Y35.872 F3048
G2 X123.632 Y35.82 I-1.553 J-0.327 F3048
G1 X123.753 Y35.132 F3048
G2 X123.776 Y34.857 I-1.564 J-0.275 F3048
G1 Y34.579 F3048
G2 X123.772 Y34.461 I-1.587 F3048
G1 X123.741 Y34.046 F3048
G2 X123.735 Y33.981 I-1.583 J0.118 F3048
G1 X123.711 Y33.775 F3048
G2 X123.7 Y33.698 I-1.577 J0.184 F3048
G1 X123.666 Y33.494 F3048
G2 X123.642 Y33.379 I-1.566 J0.261 F3048
G1 X123.544 Y32.977 F3048
G2 X123.52 Y32.888 I-1.542 J0.376 F3048
G1 X123.398 Y32.489 F3048
G2 X123.227 Y32.114 I-1.518 J0.465 F3048
G1 X122.855 Y31.518 F3048
G2 X122.831 Y31.48 I-1.347 J0.84 F3048
G1 X122.639 Y31.191 F3048
G2 X122.607 Y31.146 I-1.323 J0.878 F3048
G1 X122.408 Y30.867 F3048
G2 X122.362 Y30.805 I-1.291 J0.923 F3048
G1 X122.153 Y30.541 F3048
G2 X122.089 Y30.466 I-1.245 J0.985 F3048
G1 X121.868 Y30.22 F3048
G2 X121.784 Y30.133 I-1.181 J1.061 F3048
G1 X121.549 Y29.908 F3048
G2 X121.437 Y29.811 I-1.097 J1.148 F3048
G1 X121.185 Y29.611 F3048
G2 X121.048 Y29.515 I-0.985 J1.245 F3048
G1 X120.778 Y29.344 F3048
G2 X120.631 Y29.262 I-0.848 J1.342 F3048
G1 X120.341 Y29.119 F3048
G2 X120.215 Y29.064 I-0.701 J1.424 F3048
G1 X119.91 Y28.945 F3048
G2 X119.804 Y28.908 I-0.575 J1.48 F3048
G1 X119.485 Y28.809 F3048
G2 X119.402 Y28.786 I-0.469 J1.517 F3048
G1 X119.073 Y28.704 F3048
G2 X119.012 Y28.689 I-0.386 J1.54 F3048
G1 X118.675 Y28.619 F3048
G2 X118.625 Y28.609 I-0.325 J1.554 F3048
G1 X117.937 Y28.489 F3048
G2 X117.662 Y28.465 I-0.275 J1.564 F3048
G1 X112.869 F3048
G2 X111.282 Y30.052 J1.587 F3048
G1 Y39.384 F3048
G2 X112.869 Y40.971 I1.588 F3048
G1 X117.662 F3048
G2 X117.782 Y40.967 J-1.588 F3048
G1 X118.195 Y40.935 F3048
G2 X118.258 Y40.929 I-0.12 J-1.583 F3048
G1 X118.464 Y40.905 F3048
G2 X118.542 Y40.894 I-0.183 J-1.577 F3048
G1 X118.745 Y40.86 F3048
G2 X118.861 Y40.837 I-0.261 J-1.566 F3048
G1 X119.263 Y40.738 F3048
G2 X119.349 Y40.715 I-0.377 J-1.542 F3048
G1 X119.746 Y40.594 F3048
G2 X120.123 Y40.422 I-0.463 J-1.519 F3048
G1 X120.67 Y40.081 F3048
( MOVEMENT_CUTTING)
( Safe G1 --> G0)
G0 Z3 F300
( *** SECTION end ***)
()
(When using Fusion for Personal Use, the feedrate of rapid)
(moves is reduced to match the feedrate of cutting moves,)
(which can increase machining time. Unrestricted rapid moves)
(are available with a Fusion Subscription.)
( *** SECTION begin ***)
(   X Min: 47.22 - X Max: 123.989)
(   Y Min: 159.733 - Y Max: 236.515)
(   Z Min: -12.438 - Z Max: 15)
( SafeZ retract level: 5)
( boxLeftAdaptive - Milling - Tool: 2 -  flat end mill)
( COMMAND_START_SPINDLE)
( COMMAND_SPINDLE_CLOCKWISE)
( COMMAND_COOLANT_ON)
( >>> WARNING: No matching Coolant channel : Flood requested)
( First G1 --> G0)
Z15 F300
X49.883 Y161.825 F7500
( Safe G1 --> G0)
Z5 F300
G1 Z2.5 F3048
( MOVEMENT_RAMP_HELIX)
X49.983 Y161.773 Z2.496 F3048
X50.085 Y161.728 Z2.492 F3048
X50.191 Y161.691 Z2.488 F3048
X50.299 Y161.661 Z2.484 F3048
X50.409 Y161.639 Z2.48 F3048
X50.52 Y161.625 Z2.476 F3048
X50.632 Y161.618 Z2.473 F3048
X50.745 Y161.62 Z2.469 F3048
X50.856 Y161.63 Z2.465 F3048
X50.967 Y161.647 Z2.461 F3048
X51.076 Y161.672 Z2.457 F3048
X51.184 Y161.705 Z2.453 F3048
X51.288 Y161.746 Z2.449 F3048
X51.39 Y161.794 Z2.445 F3048
X51.487 Y161.849 Z2.441 F3048
X51.581 Y161.91 Z2.437 F3048
X51.67 Y161.978 Z2.433 F3048
X51.754 Y162.053 Z2.429 F3048
X51.833 Y162.133 Z2.426 F3048
X51.905 Y162.218 Z2.422 F3048
X51.972 Y162.309 Z2.418 F3048
X52.032 Y162.404 Z2.414 F3048
X52.085 Y162.502 Z2.41 F3048
X52.13 Y162.605 Z2.406 F3048
X52.169 Y162.71 Z2.402 F3048
X52.2 Y162.818 Z2.398 F3048
X52.223 Y162.928 Z2.394 F3048
X52.238 Y163.039 Z2.39 F3048
X52.246 Y163.151 Z2.386 F3048
X52.245 Y163.263 Z2.382 F3048
X52.237 Y163.374 Z2.379 F3048
X52.22 Y163.485 Z2.375 F3048
X52.196 Y163.595 Z2.371 F3048
X52.164 Y163.702 Z2.367 F3048
X52.125 Y163.807 Z2.363 F3048
X52.078 Y163.909 Z2.359 F3048
X52.024 Y164.007 Z2.355 F3048
X51.963 Y164.101 Z2.351 F3048
X51.896 Y164.191 Z2.347 F3048
X51.823 Y164.275 Z2.343 F3048
X51.743 Y164.354 Z2.339 F3048
X51.659 Y164.428 Z2.335 F3048
X51.569 Y164.495 Z2.332 F3048
X51.475 Y164.556 Z2.328 F3048
X51.377 Y164.61 Z2.324 F3048
X51.275 Y164.656 Z2.32 F3048
X51.17 Y164.696 Z2.316 F3048
X51.063 Y164.728 Z2.312 F3048
X50.953 Y164.752 Z2.308 F3048
X50.842 Y164.768 Z2.304 F3048
X50.731 Y164.777 Z2.3 F3048
X50.619 Z2.296 F3048
X50.507 Y164.77 Z2.292 F3048
X50.396 Y164.754 Z2.288 F3048
X50.286 Y164.731 Z2.285 F3048
X50.179 Y164.7 Z2.281 F3048
X50.074 Y164.662 Z2.277 F3048
X49.971 Y164.616 Z2.273 F3048
X49.873 Y164.563 Z2.269 F3048
X49.778 Y164.504 Z2.265 F3048
X49.688 Y164.437 Z2.261 F3048
X49.603 Y164.365 Z2.257 F3048
X49.523 Y164.287 Z2.253 F3048
X49.449 Y164.203 Z2.249 F3048
X49.381 Y164.114 Z2.245 F3048
X49.319 Y164.02 Z2.241 F3048
X49.265 Y163.923 Z2.238 F3048
X49.217 Y163.822 Z2.234 F3048
X49.177 Y163.717 Z2.23 F3048
X49.144 Y163.61 Z2.226 F3048
X49.118 Y163.501 Z2.222 F3048
X49.101 Y163.391 Z2.218 F3048
X49.091 Y163.279 Z2.214 F3048
X49.09 Y163.167 Z2.21 F3048
X49.096 Y163.056 Z2.206 F3048
X49.11 Y162.945 Z2.202 F3048
X49.132 Y162.835 Z2.198 F3048
X49.162 Y162.727 Z2.194 F3048
X49.2 Y162.622 Z2.191 F3048
X49.244 Y162.519 Z2.187 F3048
X49.296 Y162.42 Z2.183 F3048
X49.355 Y162.325 Z2.179 F3048
X49.42 Y162.234 Z2.175 F3048
X49.492 Y162.148 Z2.171 F3048
X49.57 Y162.068 Z2.167 F3048
X49.653 Y161.993 Z2.163 F3048
X49.741 Y161.924 Z2.159 F3048
X49.833 Y161.862 Z2.155 F3048
X49.93 Y161.806 Z2.151 F3048
X50.031 Y161.757 Z2.147 F3048
X50.135 Y161.716 Z2.143 F3048
X50.241 Y161.682 Z2.14 F3048
X50.35 Y161.656 Z2.136 F3048
X50.46 Y161.638 Z2.132 F3048
X50.571 Y161.627 Z2.128 F3048
X50.683 Y161.624 Z2.124 F3048
X50.795 Y161.629 Z2.12 F3048
X50.906 Y161.643 Z2.116 F3048
X51.015 Y161.664 Z2.112 F3048
X51.123 Y161.692 Z2.108 F3048
X51.229 Y161.729 Z2.104 F3048
X51.332 Y161.772 Z2.1 F3048
X51.432 Y161.823 Z2.096 F3048
X51.527 Y161.881 Z2.093 F3048
X51.618 Y161.945 Z2.089 F3048
X51.705 Y162.016 Z2.085 F3048
X51.786 Y162.093 Z2.081 F3048
X51.862 Y162.175 Z2.077 F3048
X51.932 Y162.262 Z2.073 F3048
X51.995 Y162.355 Z2.069 F3048
X52.051 Y162.451 Z2.065 F3048
X52.101 Y162.551 Z2.061 F3048
X52.143 Y162.654 Z2.057 F3048
X52.178 Y162.76 Z2.053 F3048
X52.205 Y162.869 Z2.049 F3048
X52.225 Y162.979 Z2.046 F3048
X52.237 Y163.09 Z2.042 F3048
X52.24 Y163.201 Z2.038 F3048
X52.236 Y163.313 Z2.034 F3048
X52.224 Y163.424 Z2.03 F3048
X52.204 Y163.533 Z2.026 F3048
X52.177 Y163.642 Z2.022 F3048
X52.141 Y163.747 Z2.018 F3048
X52.099 Y163.851 Z2.014 F3048
X52.049 Y163.951 Z2.01 F3048
X51.992 Y164.047 Z2.006 F3048
X51.929 Y164.138 Z2.002 F3048
X51.859 Y164.226 Z1.999 F3048
X51.783 Y164.307 Z1.995 F3048
X51.702 Y164.384 Z1.991 F3048
X51.615 Y164.454 Z1.987 F3048
X51.524 Y164.518 Z1.983 F3048
X51.428 Y164.576 Z1.979 F3048
X51.328 Y164.626 Z1.975 F3048
X51.226 Y164.669 Z1.971 F3048
X51.12 Y164.705 Z1.967 F3048
X51.012 Y164.734 Z1.963 F3048
X50.902 Y164.754 Z1.959 F3048
X50.791 Y164.767 Z1.955 F3048
X50.68 Y164.772 Z1.952 F3048
X50.568 Y164.769 Z1.948 F3048
X50.457 Y164.758 Z1.944 F3048
X50.347 Y164.739 Z1.94 F3048
X50.239 Y164.713 Z1.936 F3048
X50.133 Y164.678 Z1.932 F3048
X50.03 Y164.637 Z1.928 F3048
X49.929 Y164.588 Z1.924 F3048
X49.833 Y164.532 Z1.92 F3048
X49.741 Y164.47 Z1.916 F3048
X49.653 Y164.401 Z1.912 F3048
X49.57 Y164.326 Z1.908 F3048
X49.493 Y164.245 Z1.905 F3048
X49.422 Y164.16 Z1.901 F3048
X49.357 Y164.069 Z1.897 F3048
X49.299 Y163.974 Z1.893 F3048
X49.248 Y163.875 Z1.889 F3048
X49.203 Y163.773 Z1.885 F3048
X49.167 Y163.667 Z1.881 F3048
X49.137 Y163.56 Z1.877 F3048
X49.116 Y163.45 Z1.873 F3048
X49.102 Y163.34 Z1.869 F3048
X49.096 Y163.229 Z1.865 F3048
X49.098 Y163.117 Z1.861 F3048
X49.108 Y163.006 Z1.858 F3048
X49.125 Y162.896 Z1.854 F3048
X49.151 Y162.787 Z1.85 F3048
X49.184 Y162.681 Z1.846 F3048
X49.225 Y162.577 Z1.842 F3048
X49.272 Y162.477 Z1.838 F3048
X49.327 Y162.38 Z1.834 F3048
X49.389 Y162.287 Z1.83 F3048
X49.457 Y162.199 Z1.826 F3048
X49.531 Y162.115 Z1.822 F3048
X49.61 Y162.038 Z1.818 F3048
X49.695 Y161.966 Z1.814 F3048
X49.785 Y161.9 Z1.811 F3048
X49.88 Y161.841 Z1.807 F3048
X49.978 Y161.789 Z1.803 F3048
X50.08 Y161.744 Z1.799 F3048
X50.184 Y161.706 Z1.795 F3048
X50.292 Y161.675 Z1.791 F3048
X50.401 Y161.653 Z1.787 F3048
X50.511 Y161.638 Z1.783 F3048
X50.622 Y161.631 Z1.779 F3048
X50.733 Y161.632 Z1.775 F3048
X50.844 Y161.64 Z1.771 F3048
X50.954 Y161.657 Z1.767 F3048
X51.063 Y161.681 Z1.763 F3048
X51.17 Y161.714 Z1.76 F3048
X51.274 Y161.753 Z1.756 F3048
X51.375 Y161.8 Z1.752 F3048
X51.472 Y161.854 Z1.748 F3048
X51.566 Y161.914 Z1.744 F3048
X51.655 Y161.981 Z1.74 F3048
X51.739 Y162.055 Z1.736 F3048
X51.817 Y162.134 Z1.732 F3048
X51.89 Y162.218 Z1.728 F3048
X51.956 Y162.307 Z1.724 F3048
X52.016 Y162.401 Z1.72 F3048
X52.069 Y162.498 Z1.716 F3048
X52.115 Y162.599 Z1.713 F3048
X52.154 Y162.704 Z1.709 F3048
X52.185 Y162.81 Z1.705 F3048
X52.209 Y162.919 Z1.701 F3048
X52.225 Y163.029 Z1.697 F3048
X52.233 Y163.14 Z1.693 F3048
Y163.251 Z1.689 F3048
X52.226 Y163.362 Z1.685 F3048
X52.21 Y163.472 Z1.681 F3048
X52.187 Y163.581 Z1.677 F3048
X52.156 Y163.688 Z1.673 F3048
X52.117 Y163.792 Z1.669 F3048
X52.072 Y163.894 Z1.666 F3048
X52.019 Y163.991 Z1.662 F3048
X51.959 Y164.085 Z1.658 F3048
X51.893 Y164.175 Z1.654 F3048
X51.821 Y164.259 Z1.65 F3048
X51.743 Y164.338 Z1.646 F3048
X51.659 Y164.412 Z1.642 F3048
X51.571 Y164.479 Z1.638 F3048
X51.478 Y164.54 Z1.634 F3048
X51.38 Y164.594 Z1.63 F3048
X51.28 Y164.641 Z1.626 F3048
X51.176 Y164.681 Z1.622 F3048
X51.07 Y164.713 Z1.619 F3048
X50.961 Y164.738 Z1.615 F3048
X50.851 Y164.755 Z1.611 F3048
X50.741 Y164.764 Z1.607 F3048
X50.63 Y164.765 Z1.603 F3048
X50.519 Y164.759 Z1.599 F3048
X50.409 Y164.744 Z1.595 F3048
X50.3 Y164.722 Z1.591 F3048
X50.193 Y164.692 Z1.587 F3048
X50.088 Y164.655 Z1.583 F3048
X49.987 Y164.61 Z1.579 F3048
X49.888 Y164.558 Z1.575 F3048
X49.794 Y164.5 Z1.572 F3048
X49.704 Y164.435 Z1.568 F3048
X49.619 Y164.363 Z1.564 F3048
X49.539 Y164.286 Z1.56 F3048
X49.465 Y164.203 Z1.556 F3048
X49.397 Y164.115 Z1.552 F3048
X49.335 Y164.023 Z1.548 F3048
X49.28 Y163.927 Z1.544 F3048
X49.232 Y163.826 Z1.54 F3048
X49.191 Y163.723 Z1.536 F3048
X49.158 Y163.617 Z1.532 F3048
X49.132 Y163.509 Z1.528 F3048
X49.114 Y163.4 Z1.525 F3048
X49.104 Y163.289 Z1.521 F3048
X49.102 Y163.178 Z1.517 F3048
X49.107 Y163.067 Z1.513 F3048
X49.121 Y162.957 Z1.509 F3048
X49.142 Y162.848 Z1.505 F3048
X49.171 Y162.741 Z1.501 F3048
X49.207 Y162.636 Z1.497 F3048
X49.251 Y162.534 Z1.493 F3048
X49.301 Y162.435 Z1.489 F3048
X49.359 Y162.341 Z1.485 F3048
X49.423 Y162.25 Z1.481 F3048
X49.494 Y162.164 Z1.478 F3048
X49.57 Y162.084 Z1.474 F3048
X49.652 Y162.009 Z1.47 F3048
X49.739 Y161.94 Z1.466 F3048
X49.831 Y161.878 Z1.462 F3048
X49.926 Y161.822 Z1.458 F3048
X50.026 Y161.773 Z1.454 F3048
X50.129 Y161.731 Z1.45 F3048
X50.234 Y161.697 Z1.446 F3048
X50.342 Y161.67 Z1.442 F3048
X50.451 Y161.651 Z1.438 F3048
X50.562 Y161.64 Z1.434 F3048
X50.672 Y161.636 Z1.43 F3048
X50.783 Y161.641 Z1.427 F3048
X50.894 Y161.653 Z1.423 F3048
X51.003 Y161.673 Z1.419 F3048
X51.11 Y161.701 Z1.415 F3048
X51.215 Y161.736 Z1.411 F3048
X51.318 Y161.779 Z1.407 F3048
X51.417 Y161.829 Z1.403 F3048
X51.512 Y161.885 Z1.399 F3048
X51.603 Y161.949 Z1.395 F3048
X51.689 Y162.018 Z1.391 F3048
X51.77 Y162.094 Z1.387 F3048
X51.846 Y162.175 Z1.383 F3048
X51.916 Y162.261 Z1.38 F3048
X51.979 Y162.352 Z1.376 F3048
X52.036 Y162.447 Z1.372 F3048
X52.085 Y162.546 Z1.368 F3048
X52.128 Y162.648 Z1.364 F3048
X52.163 Y162.753 Z1.36 F3048
X52.191 Y162.861 Z1.356 F3048
X52.211 Y162.97 Z1.352 F3048
X52.224 Y163.08 Z1.348 F3048
X52.228 Y163.19 Z1.344 F3048
X52.225 Y163.301 Z1.34 F3048
X52.214 Y163.411 Z1.336 F3048
X52.195 Y163.521 Z1.333 F3048
X52.168 Y163.628 Z1.329 F3048
X52.134 Y163.733 Z1.325 F3048
X52.092 Y163.836 Z1.321 F3048
X52.043 Y163.936 Z1.317 F3048
X51.987 Y164.031 Z1.313 F3048
X51.925 Y164.123 Z1.309 F3048
X51.856 Y164.21 Z1.305 F3048
X51.782 Y164.292 Z1.301 F3048
X51.701 Y164.368 Z1.297 F3048
X51.616 Y164.438 Z1.293 F3048
X51.526 Y164.503 Z1.289 F3048
X51.431 Y164.56 Z1.286 F3048
X51.333 Y164.611 Z1.282 F3048
X51.231 Y164.654 Z1.278 F3048
X51.126 Y164.691 Z1.274 F3048
X51.02 Y164.72 Z1.27 F3048
X50.911 Y164.741 Z1.266 F3048
X50.801 Y164.754 Z1.262 F3048
X50.691 Y164.76 Z1.258 F3048
X50.58 Y164.757 Z1.254 F3048
X50.47 Y164.747 Z1.25 F3048
X50.361 Y164.729 Z1.246 F3048
X50.253 Y164.704 Z1.242 F3048
X50.147 Y164.671 Z1.239 F3048
X50.044 Y164.63 Z1.235 F3048
X49.945 Y164.582 Z1.231 F3048
X49.848 Y164.528 Z1.227 F3048
X49.756 Y164.466 Z1.223 F3048
X49.669 Y164.398 Z1.219 F3048
X49.586 Y164.325 Z1.215 F3048
X49.509 Y164.245 Z1.211 F3048
X49.438 Y164.16 Z1.207 F3048
X49.373 Y164.071 Z1.203 F3048
X49.315 Y163.977 Z1.199 F3048
X49.263 Y163.879 Z1.195 F3048
X49.218 Y163.778 Z1.192 F3048
X49.181 Y163.673 Z1.188 F3048
X49.151 Y163.567 Z1.184 F3048
X49.129 Y163.459 Z1.18 F3048
X49.115 Y163.349 Z1.176 F3048
X49.108 Y163.239 Z1.172 F3048
X49.109 Y163.128 Z1.168 F3048
X49.118 Y163.018 Z1.164 F3048
X49.135 Y162.909 Z1.16 F3048
X49.16 Y162.801 Z1.156 F3048
X49.192 Y162.695 Z1.152 F3048
X49.231 Y162.592 Z1.148 F3048
X49.278 Y162.492 Z1.145 F3048
X49.332 Y162.395 Z1.141 F3048
X49.392 Y162.303 Z1.137 F3048
X49.459 Y162.215 Z1.133 F3048
X49.532 Y162.132 Z1.129 F3048
X49.611 Y162.054 Z1.125 F3048
X49.695 Y161.982 Z1.121 F3048
X49.783 Y161.916 Z1.117 F3048
X49.877 Y161.857 Z1.113 F3048
X49.974 Y161.804 Z1.109 F3048
X50.075 Y161.759 Z1.105 F3048
X50.178 Y161.721 Z1.101 F3048
X50.284 Y161.69 Z1.098 F3048
X50.392 Y161.666 Z1.094 F3048
X50.502 Y161.651 Z1.09 F3048
X50.612 Y161.643 Z1.086 F3048
X50.723 Z1.082 F3048
X50.833 Y161.651 Z1.078 F3048
X50.942 Y161.667 Z1.074 F3048
X51.05 Y161.691 Z1.07 F3048
X51.156 Y161.722 Z1.066 F3048
X51.26 Y161.76 Z1.062 F3048
X51.36 Y161.806 Z1.058 F3048
X51.457 Y161.859 Z1.054 F3048
X51.55 Y161.918 Z1.05 F3048
X51.639 Y161.984 Z1.047 F3048
X51.722 Y162.056 Z1.043 F3048
X51.801 Y162.134 Z1.039 F3048
X51.873 Y162.217 Z1.035 F3048
X51.94 Y162.305 Z1.031 F3048
X52 Y162.397 Z1.027 F3048
X52.053 Y162.494 Z1.023 F3048
X52.1 Y162.594 Z1.019 F3048
X52.139 Y162.697 Z1.015 F3048
X52.171 Y162.803 Z1.011 F3048
X52.195 Y162.911 Z1.007 F3048
X52.212 Y163.02 Z1.003 F3048
X52.221 Y163.13 Z1 F3048
Y163.24 Z0.996 F3048
X52.215 Y163.351 Z0.992 F3048
X52.2 Y163.46 Z0.988 F3048
X52.177 Y163.568 Z0.984 F3048
X52.147 Y163.674 Z0.98 F3048
X52.11 Y163.778 Z0.976 F3048
X52.065 Y163.879 Z0.972 F3048
X52.014 Y163.977 Z0.968 F3048
X51.955 Y164.07 Z0.964 F3048
X51.89 Y164.159 Z0.96 F3048
X51.819 Y164.244 Z0.956 F3048
X51.742 Y164.323 Z0.953 F3048
X51.66 Y164.396 Z0.949 F3048
X51.572 Y164.463 Z0.945 F3048
X51.48 Y164.524 Z0.941 F3048
X51.384 Y164.579 Z0.937 F3048
X51.285 Y164.626 Z0.933 F3048
X51.182 Y164.666 Z0.929 F3048
X51.077 Y164.699 Z0.925 F3048
X50.97 Y164.724 Z0.921 F3048
X50.861 Y164.742 Z0.917 F3048
X50.751 Y164.752 Z0.913 F3048
X50.641 Y164.754 Z0.909 F3048
X50.531 Y164.748 Z0.906 F3048
X50.421 Y164.734 Z0.902 F3048
X50.313 Y164.713 Z0.898 F3048
X50.207 Y164.684 Z0.894 F3048
X50.103 Y164.647 Z0.89 F3048
X50.001 Y164.604 Z0.886 F3048
X49.903 Y164.553 Z0.882 F3048
X49.809 Y164.495 Z0.878 F3048
X49.72 Y164.431 Z0.874 F3048
X49.635 Y164.361 Z0.87 F3048
X49.555 Y164.285 Z0.866 F3048
X49.481 Y164.203 Z0.862 F3048
X49.413 Y164.117 Z0.859 F3048
X49.351 Y164.025 Z0.855 F3048
X49.296 Y163.93 Z0.851 F3048
X49.247 Y163.831 Z0.847 F3048
X49.206 Y163.729 Z0.843 F3048
X49.172 Y163.624 Z0.839 F3048
X49.146 Y163.517 Z0.835 F3048
X49.128 Y163.409 Z0.831 F3048
X49.117 Y163.299 Z0.827 F3048
X49.114 Y163.189 Z0.823 F3048
X49.118 Y163.079 Z0.819 F3048
X49.131 Y162.969 Z0.815 F3048
X49.151 Y162.861 Z0.812 F3048
X49.179 Y162.755 Z0.808 F3048
X49.214 Y162.65 Z0.804 F3048
X49.257 Y162.549 Z0.8 F3048
X49.307 Y162.451 Z0.796 F3048
X49.363 Y162.356 Z0.792 F3048
X49.427 Y162.266 Z0.788 F3048
X49.496 Y162.18 Z0.784 F3048
X49.571 Y162.1 Z0.78 F3048
X49.652 Y162.025 Z0.776 F3048
X49.738 Y161.956 Z0.772 F3048
X49.828 Y161.894 Z0.768 F3048
X49.923 Y161.837 Z0.765 F3048
X50.022 Y161.788 Z0.761 F3048
X50.123 Y161.746 Z0.757 F3048
X50.228 Y161.711 Z0.753 F3048
X50.335 Y161.684 Z0.749 F3048
X50.443 Y161.664 Z0.745 F3048
X50.552 Y161.652 Z0.741 F3048
X50.662 Y161.648 Z0.737 F3048
X50.772 Y161.652 Z0.733 F3048
X50.882 Y161.663 Z0.729 F3048
X50.99 Y161.683 Z0.725 F3048
X51.097 Y161.709 Z0.721 F3048
X51.201 Y161.744 Z0.717 F3048
X51.303 Y161.785 Z0.714 F3048
X51.401 Y161.834 Z0.71 F3048
X51.496 Y161.89 Z0.706 F3048
X51.587 Y161.952 Z0.702 F3048
X51.673 Y162.02 Z0.698 F3048
X51.754 Y162.095 Z0.694 F3048
X51.83 Y162.175 Z0.69 F3048
X51.899 Y162.26 Z0.686 F3048
X51.963 Y162.35 Z0.682 F3048
X52.02 Y162.444 Z0.678 F3048
X52.07 Y162.542 Z0.674 F3048
X52.113 Y162.643 Z0.67 F3048
X52.149 Y162.747 Z0.667 F3048
X52.177 Y162.853 Z0.663 F3048
X52.198 Y162.961 Z0.659 F3048
X52.211 Y163.07 Z0.655 F3048
X52.216 Y163.18 Z0.651 F3048
X52.213 Y163.29 Z0.647 F3048
X52.203 Y163.4 Z0.643 F3048
X52.185 Y163.508 Z0.639 F3048
X52.159 Y163.615 Z0.635 F3048
X52.126 Y163.72 Z0.631 F3048
X52.085 Y163.822 Z0.627 F3048
X52.037 Y163.921 Z0.623 F3048
X51.983 Y164.016 Z0.62 F3048
X51.922 Y164.107 Z0.616 F3048
X51.854 Y164.194 Z0.612 F3048
X51.781 Y164.276 Z0.608 F3048
X51.701 Y164.352 Z0.604 F3048
X51.617 Y164.422 Z0.6 F3048
X51.528 Y164.487 Z0.596 F3048
X51.435 Y164.544 Z0.592 F3048
X51.337 Y164.595 Z0.588 F3048
X51.237 Y164.639 Z0.584 F3048
X51.133 Y164.676 Z0.58 F3048
X51.027 Y164.705 Z0.576 F3048
X50.92 Y164.727 Z0.573 F3048
X50.811 Y164.741 Z0.569 F3048
X50.701 Y164.747 Z0.565 F3048
X50.591 Y164.746 Z0.561 F3048
X50.482 Y164.736 Z0.557 F3048
X50.373 Y164.719 Z0.553 F3048
X50.266 Y164.695 Z0.549 F3048
X50.161 Y164.662 Z0.545 F3048
X50.059 Y164.623 Z0.541 F3048
X49.959 Y164.576 Z0.537 F3048
X49.863 Y164.522 Z0.533 F3048
X49.772 Y164.462 Z0.529 F3048
X49.684 Y164.395 Z0.526 F3048
X49.602 Y164.323 Z0.522 F3048
X49.525 Y164.245 Z0.518 F3048
X49.454 Y164.161 Z0.514 F3048
X49.389 Y164.073 Z0.51 F3048
X49.33 Y163.98 Z0.506 F3048
X49.278 Y163.883 Z0.502 F3048
X49.234 Y163.783 Z0.498 F3048
X49.196 Y163.68 Z0.494 F3048
X49.166 Y163.575 Z0.49 F3048
X49.143 Y163.467 Z0.486 F3048
X49.128 Y163.359 Z0.482 F3048
X49.12 Y163.249 Z0.479 F3048
X49.121 Y163.139 Z0.475 F3048
X49.129 Y163.03 Z0.471 F3048
X49.145 Y162.921 Z0.467 F3048
X49.169 Y162.814 Z0.463 F3048
X49.2 Y162.709 Z0.459 F3048
X49.238 Y162.606 Z0.455 F3048
X49.284 Y162.507 Z0.451 F3048
X49.337 Y162.41 Z0.447 F3048
X49.396 Y162.318 Z0.443 F3048
X49.462 Y162.23 Z0.439 F3048
X49.534 Y162.147 Z0.435 F3048
X49.611 Y162.07 Z0.432 F3048
X49.694 Y161.998 Z0.428 F3048
X49.782 Y161.932 Z0.424 F3048
X49.874 Y161.872 Z0.42 F3048
X49.97 Y161.82 Z0.416 F3048
X50.07 Y161.774 Z0.412 F3048
X50.172 Y161.735 Z0.408 F3048
X50.277 Y161.704 Z0.404 F3048
X50.384 Y161.68 Z0.4 F3048
X50.493 Y161.664 Z0.396 F3048
X50.602 Y161.656 Z0.392 F3048
X50.712 Y161.655 Z0.388 F3048
X50.821 Y161.662 Z0.385 F3048
X50.93 Y161.677 Z0.381 F3048
X51.037 Y161.7 Z0.377 F3048
X51.142 Y161.73 Z0.373 F3048
X51.245 Y161.767 Z0.369 F3048
X51.345 Y161.812 Z0.365 F3048
X51.442 Y161.864 Z0.361 F3048
X51.534 Y161.922 Z0.357 F3048
X51.623 Y161.987 Z0.353 F3048
X51.706 Y162.058 Z0.349 F3048
X51.785 Y162.134 Z0.345 F3048
X51.857 Y162.217 Z0.341 F3048
X51.924 Y162.303 Z0.337 F3048
X51.984 Y162.395 Z0.334 F3048
X52.038 Y162.491 Z0.33 F3048
X52.085 Y162.59 Z0.326 F3048
X52.124 Y162.692 Z0.322 F3048
X52.157 Y162.796 Z0.318 F3048
X52.181 Y162.903 Z0.314 F3048
X52.199 Y163.011 Z0.31 F3048
X52.208 Y163.121 Z0.306 F3048
X52.21 Y163.23 Z0.302 F3048
X52.204 Y163.339 Z0.298 F3048
X52.19 Y163.448 Z0.294 F3048
X52.168 Y163.555 Z0.29 F3048
X52.139 Y163.661 Z0.287 F3048
X52.103 Y163.764 Z0.283 F3048
X52.059 Y163.864 Z0.279 F3048
X52.008 Y163.961 Z0.275 F3048
X51.951 Y164.054 Z0.271 F3048
X51.887 Y164.143 Z0.267 F3048
X51.817 Y164.227 Z0.263 F3048
X51.741 Y164.306 Z0.259 F3048
X51.66 Y164.38 Z0.255 F3048
X51.574 Y164.447 Z0.251 F3048
X51.483 Y164.508 Z0.247 F3048
X51.388 Y164.563 Z0.243 F3048
X51.29 Y164.61 Z0.24 F3048
X51.188 Y164.651 Z0.236 F3048
X51.084 Y164.684 Z0.232 F3048
X50.977 Y164.71 Z0.228 F3048
X50.869 Y164.728 Z0.224 F3048
X50.76 Y164.739 Z0.22 F3048
X50.651 Y164.741 Z0.216 F3048
X50.542 Y164.736 Z0.212 F3048
X50.433 Y164.724 Z0.208 F3048
X50.326 Y164.703 Z0.204 F3048
X50.22 Y164.675 Z0.2 F3048
X50.116 Y164.64 Z0.196 F3048
X50.016 Y164.597 Z0.193 F3048
X49.918 Y164.547 Z0.189 F3048
X49.825 Y164.491 Z0.185 F3048
X49.735 Y164.428 Z0.181 F3048
X49.651 Y164.359 Z0.177 F3048
X49.571 Y164.284 Z0.173 F3048
X49.497 Y164.204 Z0.169 F3048
X49.429 Y164.118 Z0.165 F3048
X49.367 Y164.028 Z0.161 F3048
X49.311 Y163.934 Z0.157 F3048
X49.263 Y163.836 Z0.153 F3048
X49.221 Y163.735 Z0.149 F3048
X49.187 Y163.631 Z0.146 F3048
X49.16 Y163.525 Z0.142 F3048
X49.141 Y163.417 Z0.138 F3048
X49.13 Y163.309 Z0.134 F3048
X49.126 Y163.199 Z0.13 F3048
X49.13 Y163.09 Z0.126 F3048
X49.141 Y162.982 Z0.122 F3048
X49.161 Y162.874 Z0.118 F3048
X49.188 Y162.768 Z0.114 F3048
X49.222 Y162.664 Z0.11 F3048
X49.264 Y162.563 Z0.106 F3048
X49.313 Y162.465 Z0.102 F3048
X49.368 Y162.371 Z0.099 F3048
X49.43 Y162.281 Z0.095 F3048
X49.499 Y162.196 Z0.091 F3048
X49.573 Y162.116 Z0.087 F3048
X49.652 Y162.041 Z0.083 F3048
X49.737 Y161.972 Z0.079 F3048
X49.826 Y161.909 Z0.075 F3048
X49.92 Y161.853 Z0.071 F3048
X50.017 Y161.804 Z0.067 F3048
X50.118 Y161.761 Z0.063 F3048
X50.221 Y161.726 Z0.059 F3048
X50.327 Y161.698 Z0.055 F3048
X50.434 Y161.678 Z0.052 F3048
X50.542 Y161.665 Z0.048 F3048
X50.652 Y161.66 Z0.044 F3048
X50.761 Y161.663 Z0.04 F3048
X50.869 Y161.674 Z0.036 F3048
X50.977 Y161.692 Z0.032 F3048
X51.083 Y161.718 Z0.028 F3048
X51.187 Y161.752 Z0.024 F3048
X51.288 Y161.792 Z0.02 F3048
X51.386 Y161.84 Z0.016 F3048
X51.481 Y161.894 Z0.012 F3048
X51.572 Y161.956 Z0.008 F3048
X51.657 Y162.023 Z0.005 F3048
X51.738 Y162.096 Z0.001 F3048
X51.814 Y162.175 Z-0.003 F3048
X51.884 Y162.259 Z-0.007 F3048
X51.947 Y162.348 Z-0.011 F3048
X52.004 Y162.441 Z-0.015 F3048
X52.055 Y162.538 Z-0.019 F3048
X52.098 Y162.638 Z-0.023 F3048
X52.134 Y162.741 Z-0.027 F3048
X52.163 Y162.846 Z-0.031 F3048
X52.184 Y162.953 Z-0.035 F3048
X52.198 Y163.061 Z-0.039 F3048
X52.204 Y163.17 Z-0.043 F3048
X52.202 Y163.279 Z-0.046 F3048
X52.192 Y163.388 Z-0.05 F3048
X52.175 Y163.495 Z-0.054 F3048
X52.15 Y163.601 Z-0.058 F3048
X52.118 Y163.706 Z-0.062 F3048
X52.078 Y163.807 Z-0.066 F3048
X52.032 Y163.906 Z-0.07 F3048
X51.978 Y164.001 Z-0.074 F3048
X51.918 Y164.092 Z-0.078 F3048
X51.851 Y164.178 Z-0.082 F3048
X51.779 Y164.26 Z-0.086 F3048
X51.701 Y164.336 Z-0.09 F3048
X51.618 Y164.406 Z-0.093 F3048
X51.53 Y164.471 Z-0.097 F3048
X51.437 Y164.529 Z-0.101 F3048
X51.341 Y164.58 Z-0.105 F3048
X51.242 Y164.624 Z-0.109 F3048
X51.139 Y164.661 Z-0.113 F3048
X51.034 Y164.691 Z-0.117 F3048
X50.927 Y164.713 Z-0.121 F3048
X50.819 Y164.728 Z-0.125 F3048
X50.711 Y164.735 Z-0.129 F3048
X50.602 Y164.734 Z-0.133 F3048
X50.493 Y164.726 Z-0.137 F3048
X50.385 Y164.71 Z-0.14 F3048
X50.279 Y164.686 Z-0.144 F3048
X50.175 Y164.655 Z-0.148 F3048
X50.073 Y164.616 Z-0.152 F3048
X49.974 Y164.57 Z-0.156 F3048
X49.879 Y164.518 Z-0.16 F3048
X49.787 Y164.458 Z-0.164 F3048
X49.7 Y164.393 Z-0.168 F3048
X49.618 Y164.321 Z-0.172 F3048
X49.541 Y164.244 Z-0.176 F3048
X49.47 Y164.162 Z-0.18 F3048
X49.405 Y164.075 Z-0.184 F3048
X49.346 Y163.983 Z-0.187 F3048
X49.294 Y163.887 Z-0.191 F3048
X49.249 Y163.788 Z-0.195 F3048
X49.211 Y163.686 Z-0.199 F3048
X49.18 Y163.582 Z-0.203 F3048
X49.157 Y163.475 Z-0.207 F3048
X49.141 Y163.368 Z-0.211 F3048
X49.133 Y163.259 Z-0.215 F3048
Y163.15 Z-0.219 F3048
X49.14 Y163.041 Z-0.223 F3048
X49.155 Y162.934 Z-0.227 F3048
X49.178 Y162.827 Z-0.231 F3048
X49.208 Y162.722 Z-0.234 F3048
X49.246 Y162.62 Z-0.238 F3048
X49.291 Y162.521 Z-0.242 F3048
X49.342 Y162.425 Z-0.246 F3048
X49.4 Y162.333 Z-0.25 F3048
X49.465 Y162.246 Z-0.254 F3048
X49.536 Y162.163 Z-0.258 F3048
X49.612 Y162.086 Z-0.262 F3048
X49.694 Y162.014 Z-0.266 F3048
X49.78 Y161.948 Z-0.27 F3048
X49.871 Y161.888 Z-0.274 F3048
X49.966 Y161.835 Z-0.278 F3048
X50.065 Y161.789 Z-0.281 F3048
X50.166 Y161.75 Z-0.285 F3048
X50.27 Y161.718 Z-0.289 F3048
X50.376 Y161.694 Z-0.293 F3048
X50.484 Y161.677 Z-0.297 F3048
X50.592 Y161.668 Z-0.301 F3048
X50.701 Y161.667 Z-0.305 F3048
X50.809 Y161.673 Z-0.309 F3048
X50.917 Y161.687 Z-0.313 F3048
X51.024 Y161.709 Z-0.317 F3048
X51.129 Y161.738 Z-0.321 F3048
X51.231 Y161.775 Z-0.325 F3048
X51.331 Y161.818 Z-0.328 F3048
X51.427 Y161.869 Z-0.332 F3048
X51.519 Y161.926 Z-0.336 F3048
X51.607 Y161.99 Z-0.34 F3048
X51.691 Y162.06 Z-0.344 F3048
X51.769 Y162.136 Z-0.348 F3048
X51.842 Y162.217 Z-0.352 F3048
X51.908 Y162.302 Z-0.356 F3048
X51.969 Y162.393 Z-0.36 F3048
X52.023 Y162.487 Z-0.364 F3048
X52.07 Y162.585 Z-0.368 F3048
X52.11 Y162.686 Z-0.372 F3048
X52.142 Y162.79 Z-0.376 F3048
X52.168 Y162.895 Z-0.379 F3048
X52.185 Y163.002 Z-0.383 F3048
X52.195 Y163.11 Z-0.387 F3048
X52.198 Y163.219 Z-0.391 F3048
X52.192 Y163.328 Z-0.395 F3048
X52.179 Y163.435 Z-0.399 F3048
X52.159 Y163.542 Z-0.403 F3048
X52.131 Y163.647 Z-0.407 F3048
X52.095 Y163.75 Z-0.411 F3048
X52.053 Y163.85 Z-0.415 F3048
X52.003 Y163.946 Z-0.419 F3048
X51.947 Y164.039 Z-0.423 F3048
X51.884 Y164.128 Z-0.426 F3048
X51.815 Y164.212 Z-0.43 F3048
X51.74 Y164.29 Z-0.434 F3048
X51.66 Y164.364 Z-0.438 F3048
X51.575 Y164.431 Z-0.442 F3048
X51.485 Y164.493 Z-0.446 F3048
X51.391 Y164.547 Z-0.45 F3048
X51.294 Y164.595 Z-0.454 F3048
X51.193 Y164.636 Z-0.458 F3048
X51.09 Y164.67 Z-0.462 F3048
X50.985 Y164.696 Z-0.466 F3048
X50.878 Y164.715 Z-0.47 F3048
X50.77 Y164.726 Z-0.473 F3048
X50.661 Y164.73 Z-0.477 F3048
X50.553 Y164.725 Z-0.481 F3048
X50.445 Y164.713 Z-0.485 F3048
X50.339 Y164.694 Z-0.489 F3048
X50.233 Y164.667 Z-0.493 F3048
X50.131 Y164.632 Z-0.497 F3048
X50.03 Y164.591 Z-0.501 F3048
X49.933 Y164.542 Z-0.505 F3048
X49.84 Y164.487 Z-0.509 F3048
X49.751 Y164.425 Z-0.513 F3048
X49.666 Y164.357 Z-0.517 F3048
X49.587 Y164.283 Z-0.52 F3048
X49.513 Y164.204 Z-0.524 F3048
X49.445 Y164.119 Z-0.528 F3048
X49.383 Y164.03 Z-0.532 F3048
X49.327 Y163.937 Z-0.536 F3048
X49.278 Y163.84 Z-0.54 F3048
X49.236 Y163.74 Z-0.544 F3048
X49.202 Y163.637 Z-0.548 F3048
X49.174 Y163.532 Z-0.552 F3048
X49.155 Y163.426 Z-0.556 F3048
X49.142 Y163.318 Z-0.56 F3048
X49.138 Y163.209 Z-0.564 F3048
X49.141 Y163.101 Z-0.567 F3048
X49.152 Y162.993 Z-0.571 F3048
X49.171 Y162.886 Z-0.575 F3048
X49.197 Y162.781 Z-0.579 F3048
X49.23 Y162.678 Z-0.583 F3048
X49.271 Y162.577 Z-0.587 F3048
X49.318 Y162.48 Z-0.591 F3048
X49.373 Y162.386 Z-0.595 F3048
X49.434 Y162.297 Z-0.599 F3048
X49.501 Y162.212 Z-0.603 F3048
X49.574 Y162.132 Z-0.607 F3048
X49.652 Y162.057 Z-0.611 F3048
X49.736 Y161.988 Z-0.614 F3048
X49.824 Y161.925 Z-0.618 F3048
X49.917 Y161.869 Z-0.622 F3048
X50.013 Y161.819 Z-0.626 F3048
X50.112 Y161.776 Z-0.63 F3048
X50.215 Y161.741 Z-0.634 F3048
X50.319 Y161.712 Z-0.638 F3048
X50.426 Y161.692 Z-0.642 F3048
X50.533 Y161.678 Z-0.646 F3048
X50.641 Y161.673 Z-0.65 F3048
X50.75 Y161.675 Z-0.654 F3048
X50.858 Y161.685 Z-0.658 F3048
X50.965 Y161.702 Z-0.661 F3048
X51.07 Y161.727 Z-0.665 F3048
X51.173 Y161.76 Z-0.669 F3048
X51.274 Y161.799 Z-0.673 F3048
X51.372 Y161.846 Z-0.677 F3048
X51.466 Y161.899 Z-0.681 F3048
X51.556 Y161.959 Z-0.685 F3048
X51.642 Y162.026 Z-0.689 F3048
X51.723 Y162.098 Z-0.693 F3048
X51.798 Y162.175 Z-0.697 F3048
X51.868 Y162.258 Z-0.701 F3048
X51.931 Y162.346 Z-0.705 F3048
X51.989 Y162.438 Z-0.709 F3048
X52.039 Y162.533 Z-0.712 F3048
X52.083 Y162.632 Z-0.716 F3048
X52.119 Y162.734 Z-0.72 F3048
X52.149 Y162.838 Z-0.724 F3048
X52.171 Y162.944 Z-0.728 F3048
X52.185 Y163.052 Z-0.732 F3048
X52.191 Y163.16 Z-0.736 F3048
X52.19 Y163.268 Z-0.74 F3048
X52.181 Y163.376 Z-0.744 F3048
X52.165 Y163.483 Z-0.748 F3048
X52.141 Y163.588 Z-0.752 F3048
X52.11 Y163.692 Z-0.756 F3048
X52.071 Y163.793 Z-0.759 F3048
X52.025 Y163.891 Z-0.763 F3048
X51.973 Y163.986 Z-0.767 F3048
X51.914 Y164.076 Z-0.771 F3048
X51.848 Y164.163 Z-0.775 F3048
X51.777 Y164.244 Z-0.779 F3048
X51.7 Y164.32 Z-0.783 F3048
X51.618 Y164.391 Z-0.787 F3048
X51.531 Y164.455 Z-0.791 F3048
X51.44 Y164.513 Z-0.795 F3048
X51.345 Y164.565 Z-0.799 F3048
X51.246 Y164.609 Z-0.803 F3048
X51.145 Y164.647 Z-0.806 F3048
X51.041 Y164.677 Z-0.81 F3048
X50.936 Y164.7 Z-0.814 F3048
X50.829 Y164.715 Z-0.818 F3048
X50.721 Y164.723 Z-0.822 F3048
X50.613 Z-0.826 F3048
X50.505 Y164.715 Z-0.83 F3048
X50.398 Y164.7 Z-0.834 F3048
X50.292 Y164.677 Z-0.838 F3048
X50.189 Y164.646 Z-0.842 F3048
X50.087 Y164.609 Z-0.846 F3048
X49.989 Y164.564 Z-0.85 F3048
X49.894 Y164.513 Z-0.853 F3048
X49.803 Y164.454 Z-0.857 F3048
X49.716 Y164.39 Z-0.861 F3048
X49.634 Y164.319 Z-0.865 F3048
X49.557 Y164.243 Z-0.869 F3048
X49.486 Y164.162 Z-0.873 F3048
X49.421 Y164.076 Z-0.877 F3048
X49.362 Y163.985 Z-0.881 F3048
X49.309 Y163.891 Z-0.885 F3048
X49.264 Y163.793 Z-0.889 F3048
X49.225 Y163.692 Z-0.893 F3048
X49.194 Y163.588 Z-0.897 F3048
X49.17 Y163.483 Z-0.9 F3048
X49.154 Y163.376 Z-0.904 F3048
X49.145 Y163.268 Z-0.908 F3048
X49.144 Y163.161 Z-0.912 F3048
X49.151 Y163.053 Z-0.916 F3048
X49.165 Y162.946 Z-0.92 F3048
X49.187 Y162.84 Z-0.924 F3048
X49.216 Y162.736 Z-0.928 F3048
X49.253 Y162.635 Z-0.932 F3048
X49.297 Y162.536 Z-0.936 F3048
X49.347 Y162.44 Z-0.94 F3048
X49.404 Y162.349 Z-0.944 F3048
X49.468 Y162.262 Z-0.947 F3048
X49.538 Y162.179 Z-0.951 F3048
X49.613 Y162.102 Z-0.955 F3048
X49.693 Y162.03 Z-0.959 F3048
X49.779 Y161.964 Z-0.963 F3048
X49.869 Y161.904 Z-0.967 F3048
X49.963 Y161.851 Z-0.971 F3048
X50.06 Y161.804 Z-0.975 F3048
X50.16 Y161.765 Z-0.979 F3048
X50.264 Y161.733 Z-0.983 F3048
X50.369 Y161.708 Z-0.987 F3048
X50.475 Y161.691 Z-0.991 F3048
X50.583 Y161.681 Z-0.994 F3048
X50.691 Y161.679 Z-0.998 F3048
X50.798 Y161.684 Z-1.002 F3048
X50.906 Y161.698 Z-1.006 F3048
X51.011 Y161.719 Z-1.01 F3048
X51.116 Y161.747 Z-1.014 F3048
X51.217 Y161.782 Z-1.018 F3048
X51.316 Y161.825 Z-1.022 F3048
X51.412 Y161.874 Z-1.026 F3048
X51.504 Y161.931 Z-1.03 F3048
X51.592 Y161.993 Z-1.034 F3048
X51.675 Y162.062 Z-1.038 F3048
X51.753 Y162.136 Z-1.041 F3048
X51.826 Y162.216 Z-1.045 F3048
X51.892 Y162.301 Z-1.049 F3048
X51.953 Y162.39 Z-1.053 F3048
X52.007 Y162.483 Z-1.057 F3048
X52.054 Y162.58 Z-1.061 F3048
X52.095 Y162.68 Z-1.065 F3048
X52.128 Y162.783 Z-1.069 F3048
X52.154 Y162.887 Z-1.073 F3048
X52.172 Y162.994 Z-1.077 F3048
X52.183 Y163.101 Z-1.081 F3048
X52.186 Y163.209 Z-1.085 F3048
X52.181 Y163.316 Z-1.089 F3048
X52.169 Y163.424 Z-1.092 F3048
X52.149 Y163.53 Z-1.096 F3048
X52.122 Y163.634 Z-1.1 F3048
X52.087 Y163.736 Z-1.104 F3048
X52.046 Y163.835 Z-1.108 F3048
X51.997 Y163.932 Z-1.112 F3048
X51.942 Y164.024 Z-1.116 F3048
X51.88 Y164.113 Z-1.12 F3048
X51.812 Y164.196 Z-1.124 F3048
X51.739 Y164.275 Z-1.128 F3048
X51.66 Y164.348 Z-1.132 F3048
X51.576 Y164.416 Z-1.136 F3048
X51.487 Y164.477 Z-1.139 F3048
X51.395 Y164.532 Z-1.143 F3048
X51.298 Y164.58 Z-1.147 F3048
X51.199 Y164.621 Z-1.151 F3048
X51.097 Y164.655 Z-1.155 F3048
X50.993 Y164.682 Z-1.159 F3048
X50.887 Y164.702 Z-1.163 F3048
X50.78 Y164.713 Z-1.167 F3048
X50.672 Y164.717 Z-1.171 F3048
X50.564 Y164.714 Z-1.175 F3048
X50.457 Y164.703 Z-1.179 F3048
X50.351 Y164.684 Z-1.183 F3048
X50.247 Y164.658 Z-1.186 F3048
X50.144 Y164.624 Z-1.19 F3048
X50.045 Y164.584 Z-1.194 F3048
X49.948 Y164.536 Z-1.198 F3048
X49.855 Y164.482 Z-1.202 F3048
X49.766 Y164.421 Z-1.206 F3048
X49.682 Y164.354 Z-1.21 F3048
X49.603 Y164.281 Z-1.214 F3048
X49.529 Y164.203 Z-1.218 F3048
X49.46 Y164.12 Z-1.222 F3048
X49.398 Y164.032 Z-1.226 F3048
X49.342 Y163.94 Z-1.23 F3048
X49.293 Y163.844 Z-1.233 F3048
X49.251 Y163.745 Z-1.237 F3048
X49.216 Y163.643 Z-1.241 F3048
X49.188 Y163.54 Z-1.245 F3048
X49.168 Y163.434 Z-1.249 F3048
X49.155 Y163.327 Z-1.253 F3048
X49.15 Y163.22 Z-1.257 F3048
X49.152 Y163.112 Z-1.261 F3048
X49.163 Y163.005 Z-1.265 F3048
X49.18 Y162.899 Z-1.269 F3048
X49.205 Y162.795 Z-1.273 F3048
X49.238 Y162.692 Z-1.277 F3048
X49.277 Y162.592 Z-1.28 F3048
X49.324 Y162.495 Z-1.284 F3048
X49.377 Y162.402 Z-1.288 F3048
X49.437 Y162.312 Z-1.292 F3048
X49.503 Y162.228 Z-1.296 F3048
X49.575 Y162.148 Z-1.3 F3048
X49.653 Y162.073 Z-1.304 F3048
X49.735 Y162.004 Z-1.308 F3048
X49.822 Y161.941 Z-1.312 F3048
X49.914 Y161.884 Z-1.316 F3048
X50.009 Y161.834 Z-1.32 F3048
X50.108 Y161.791 Z-1.324 F3048
X50.209 Y161.755 Z-1.327 F3048
X50.312 Y161.726 Z-1.331 F3048
X50.418 Y161.705 Z-1.335 F3048
X50.525 Y161.691 Z-1.339 F3048
X50.632 Y161.685 Z-1.343 F3048
X50.739 Y161.686 Z-1.347 F3048
X50.846 Y161.695 Z-1.351 F3048
X50.952 Y161.712 Z-1.355 F3048
X51.057 Y161.736 Z-1.359 F3048
X51.16 Y161.768 Z-1.363 F3048
X51.26 Y161.806 Z-1.367 F3048
X51.357 Y161.852 Z-1.371 F3048
X51.451 Y161.904 Z-1.374 F3048
X51.541 Y161.963 Z-1.378 F3048
X51.626 Y162.028 Z-1.382 F3048
X51.707 Y162.099 Z-1.386 F3048
X51.782 Y162.176 Z-1.39 F3048
X51.852 Y162.258 Z-1.394 F3048
X51.915 Y162.344 Z-1.398 F3048
X51.973 Y162.435 Z-1.402 F3048
X52.024 Y162.529 Z-1.406 F3048
X52.068 Y162.627 Z-1.41 F3048
X52.105 Y162.728 Z-1.414 F3048
X52.134 Y162.831 Z-1.418 F3048
X52.157 Y162.937 Z-1.422 F3048
X52.172 Y163.043 Z-1.425 F3048
X52.179 Y163.15 Z-1.429 F3048
Y163.257 Z-1.433 F3048
X52.171 Y163.365 Z-1.437 F3048
X52.155 Y163.471 Z-1.441 F3048
X52.132 Y163.576 Z-1.445 F3048
X52.102 Y163.679 Z-1.449 F3048
X52.064 Y163.779 Z-1.453 F3048
X52.019 Y163.877 Z-1.457 F3048
X51.968 Y163.971 Z-1.461 F3048
X51.91 Y164.061 Z-1.465 F3048
X51.846 Y164.147 Z-1.469 F3048
X51.775 Y164.228 Z-1.472 F3048
X51.7 Y164.304 Z-1.476 F3048
X51.619 Y164.375 Z-1.48 F3048
X51.533 Y164.439 Z-1.484 F3048
X51.443 Y164.497 Z-1.488 F3048
X51.349 Y164.549 Z-1.492 F3048
X51.252 Y164.594 Z-1.496 F3048
X51.151 Y164.632 Z-1.5 F3048
X51.048 Y164.663 Z-1.504 F3048
X50.944 Y164.686 Z-1.508 F3048
X50.838 Y164.702 Z-1.512 F3048
X50.731 Y164.71 Z-1.516 F3048
X50.623 Y164.711 Z-1.519 F3048
X50.516 Y164.704 Z-1.523 F3048
X50.41 Y164.689 Z-1.527 F3048
X50.305 Y164.667 Z-1.531 F3048
X50.202 Y164.638 Z-1.535 F3048
X50.101 Y164.601 Z-1.539 F3048
X50.003 Y164.558 Z-1.543 F3048
X49.908 Y164.507 Z-1.547 F3048
X49.818 Y164.45 Z-1.551 F3048
X49.731 Y164.387 Z-1.555 F3048
X49.649 Y164.317 Z-1.559 F3048
X49.573 Y164.242 Z-1.563 F3048
X49.502 Y164.162 Z-1.566 F3048
X49.436 Y164.077 Z-1.57 F3048
X49.377 Y163.988 Z-1.574 F3048
X49.325 Y163.894 Z-1.578 F3048
X49.279 Y163.798 Z-1.582 F3048
X49.24 Y163.698 Z-1.586 F3048
X49.208 Y163.595 Z-1.59 F3048
X49.184 Y163.491 Z-1.594 F3048
X49.167 Y163.385 Z-1.598 F3048
X49.158 Y163.278 Z-1.602 F3048
X49.156 Y163.171 Z-1.606 F3048
X49.162 Y163.064 Z-1.61 F3048
X49.176 Y162.958 Z-1.613 F3048
X49.197 Y162.853 Z-1.617 F3048
X49.225 Y162.75 Z-1.621 F3048
X49.261 Y162.649 Z-1.625 F3048
X49.303 Y162.55 Z-1.629 F3048
X49.353 Y162.455 Z-1.633 F3048
X49.409 Y162.364 Z-1.637 F3048
X49.471 Y162.277 Z-1.641 F3048
X49.54 Y162.195 Z-1.645 F3048
X49.614 Y162.117 Z-1.649 F3048
X49.693 Y162.046 Z-1.653 F3048
X49.778 Y161.979 Z-1.657 F3048
X49.867 Y161.92 Z-1.66 F3048
X49.959 Y161.866 Z-1.664 F3048
X50.056 Y161.819 Z-1.668 F3048
X50.155 Y161.78 Z-1.672 F3048
X50.257 Y161.747 Z-1.676 F3048
X50.361 Y161.722 Z-1.68 F3048
X50.467 Y161.704 Z-1.684 F3048
X50.573 Y161.693 Z-1.688 F3048
X50.68 Y161.691 Z-1.692 F3048
X50.787 Y161.696 Z-1.696 F3048
X50.893 Y161.708 Z-1.7 F3048
X50.998 Y161.728 Z-1.704 F3048
X51.102 Y161.755 Z-1.707 F3048
X51.203 Y161.79 Z-1.711 F3048
X51.302 Y161.831 Z-1.715 F3048
X51.397 Y161.88 Z-1.719 F3048
X51.489 Y161.935 Z-1.723 F3048
X51.576 Y161.997 Z-1.727 F3048
X51.659 Y162.064 Z-1.731 F3048
X51.737 Y162.138 Z-1.735 F3048
X51.81 Y162.216 Z-1.739 F3048
X51.876 Y162.3 Z-1.743 F3048
X51.937 Y162.388 Z-1.747 F3048
X51.991 Y162.48 Z-1.751 F3048
X52.039 Y162.576 Z-1.754 F3048
X52.08 Y162.675 Z-1.758 F3048
X52.113 Y162.777 Z-1.762 F3048
X52.14 Y162.88 Z-1.766 F3048
X52.159 Y162.986 Z-1.77 F3048
X52.17 Y163.092 Z-1.774 F3048
X52.174 Y163.199 Z-1.778 F3048
G3 X49.157 I-1.508 F3048
X52.174 I1.508 F3048
( MOVEMENT_CUTTING)
G1 X52.178 Y163.359 F3048
X52.363 Y163.941 F3048
X52.395 Y164.088 F3048
X52.402 Y164.238 F3048
X52.387 Y164.387 F3048
X52.353 Y164.533 F3048
X52.302 Y164.674 F3048
X52.237 Y164.809 F3048
X52.158 Y164.937 F3048
X52.062 Y165.063 F3048
X51.95 Y165.184 F3048
X51.822 Y165.3 F3048
X51.677 Y165.407 F3048
X51.516 Y165.503 F3048
X51.341 Y165.587 F3048
X51.154 Y165.656 F3048
X50.955 Y165.708 F3048
X50.746 Y165.741 F3048
X50.531 Y165.755 F3048
X50.31 Y165.749 F3048
X50.088 Y165.721 F3048
X49.865 Y165.671 F3048
X49.645 Y165.599 F3048
X49.43 Y165.506 F3048
X49.222 Y165.391 F3048
X49.025 Y165.255 F3048
X48.84 Y165.101 F3048
X48.669 Y164.928 F3048
X48.514 Y164.738 F3048
X48.378 Y164.534 F3048
X48.261 Y164.316 F3048
X48.164 Y164.088 F3048
X48.09 Y163.85 F3048
X48.038 Y163.606 F3048
X48.01 Y163.357 F3048
X48.005 Y163.107 F3048
X48.025 Y162.856 F3048
X48.068 Y162.608 F3048
X48.135 Y162.365 F3048
X48.224 Y162.129 F3048
X48.336 Y161.903 F3048
X48.468 Y161.688 F3048
X48.621 Y161.486 F3048
X48.792 Y161.3 F3048
X48.981 Y161.13 F3048
X49.184 Y160.98 F3048
X49.401 Y160.849 F3048
X49.63 Y160.739 F3048
X49.868 Y160.652 F3048
X50.113 Y160.588 F3048
X50.364 Y160.547 F3048
X50.617 Y160.53 F3048
X50.871 Y160.538 F3048
X51.123 Y160.569 F3048
X51.37 Y160.624 F3048
X51.612 Y160.703 F3048
X51.845 Y160.804 F3048
X52.067 Y160.927 F3048
X52.276 Y161.07 F3048
X52.471 Y161.233 F3048
X52.65 Y161.413 F3048
X52.811 Y161.61 F3048
X53.005 Y161.9 F3048
X53.291 Y162.43 F3048
X53.452 Y162.81 F3048
X53.555 Y163.141 F3048
X53.621 Y163.449 F3048
X53.655 Y163.745 F3048
X53.66 Y164.032 F3048
X53.639 Y164.312 F3048
X53.591 Y164.586 F3048
X53.518 Y164.855 F3048
X53.419 Y165.117 F3048
X53.294 Y165.37 F3048
X53.158 Y165.591 F3048
X53.144 Y165.611 F3048
X53.128 Y165.631 F3048
X53.105 Y165.659 F3048
X53.041 Y165.734 F3048
X52.976 Y165.785 F3048
X52.327 Y166.243 F3048
X52.287 Y166.27 F3048
X52.247 Y166.291 F3048
X52.101 Y166.345 F3048
X51.517 Y166.552 F3048
X51.371 Y166.6 F3048
X51.225 Y166.614 F3048
X50.496 Y166.664 F3048
X50.423 Y166.665 F3048
X50.35 Y166.652 F3048
X49.547 Y166.485 F3048
X49.511 Y166.475 F3048
X49.474 Y166.461 F3048
X49.182 Y166.311 F3048
X48.745 Y166.084 F3048
X48.672 Y166.044 F3048
X48.635 Y166.017 F3048
X48.015 Y165.438 F3048
X47.98 Y165.403 F3048
X47.952 Y165.367 F3048
X47.508 Y164.638 F3048
X47.472 Y164.565 F3048
X47.449 Y164.492 F3048
X47.245 Y163.762 F3048
X47.226 Y163.689 F3048
X47.221 Y163.653 F3048
X47.22 Y163.616 F3048
Y162.886 F3048
X47.222 Y162.74 F3048
X47.227 Y162.704 F3048
X47.236 Y162.667 F3048
X47.461 Y161.865 F3048
X47.473 Y161.828 F3048
X47.49 Y161.792 F3048
X47.533 Y161.719 F3048
X47.932 Y161.062 F3048
X47.956 Y161.025 F3048
X47.986 Y160.989 F3048
X48.015 Y160.96 F3048
X48.609 Y160.405 F3048
X48.643 Y160.375 F3048
X48.677 Y160.351 F3048
X48.745 Y160.314 F3048
X49.413 Y159.967 F3048
X49.474 Y159.937 F3048
X49.511 Y159.923 F3048
X49.547 Y159.913 F3048
X50.35 Y159.746 F3048
X50.423 Y159.733 F3048
X50.496 Y159.734 F3048
X51.225 Y159.784 F3048
X51.371 Y159.798 F3048
X51.449 Y159.821 F3048
X52.101 Y160.053 F3048
X52.247 Y160.107 F3048
X52.261 Y160.113 F3048
X52.393 Y160.201 F3048
X52.976 Y160.613 F3048
X53.024 Y160.649 F3048
X53.071 Y160.697 F3048
X53.612 Y161.363 F3048
X53.633 Y161.395 F3048
X53.651 Y161.427 F3048
X53.998 Y162.224 F3048
X54.011 Y162.263 F3048
X54.019 Y162.302 F3048
X54.12 Y163.032 F3048
X54.138 Y163.178 F3048
X54.139 Y163.215 F3048
X54.136 Y163.251 F3048
X54.025 Y164.054 F3048
X54.016 Y164.114 F3048
X54.008 Y164.144 F3048
X53.998 Y164.174 F3048
X53.67 Y164.93 F3048
X53.634 Y165.003 F3048
X53.58 Y165.076 F3048
X53.128 Y165.631 F3048
( MOVEMENT_LEAD_OUT)
G3 X52.89 Y165.739 I-0.239 J-0.209 F3048
G1 X52.889 F3048
G3 X52.704 Y165.68 J-0.318 F3048
G1 X52.678 Y165.649 Z-1.775 F3048
X52.652 Y165.618 Z-1.767 F3048
X52.627 Y165.588 Z-1.754 F3048
X52.603 Y165.56 Z-1.736 F3048
X52.595 Y165.523 Z-1.71 F3048
X52.587 Y165.49 Z-1.678 F3048
X52.581 Y165.462 Z-1.642 F3048
X52.575 Y165.439 Z-1.602 F3048
X52.572 Y165.422 Z-1.56 F3048
Y165.41 Z-1.511 F3048
Y165.406 Z-1.461 F3048
( MOVEMENT_CUTTING)
( Safe G1 --> G0)
G0 Z5 F300
( Safe G1 --> G0)
X49.883 Y161.825 F7500
G1 Z0.722 F3048
( MOVEMENT_RAMP_HELIX)
X49.983 Y161.773 Z0.718 F3048
X50.085 Y161.728 Z0.714 F3048
X50.191 Y161.691 Z0.71 F3048
X50.299 Y161.661 Z0.706 F3048
X50.409 Y161.639 Z0.702 F3048
X50.52 Y161.625 Z0.698 F3048
X50.632 Y161.618 Z0.695 F3048
X50.745 Y161.62 Z0.691 F3048
X50.856 Y161.63 Z0.687 F3048
X50.967 Y161.647 Z0.683 F3048
X51.076 Y161.672 Z0.679 F3048
X51.184 Y161.705 Z0.675 F3048
X51.288 Y161.746 Z0.671 F3048
X51.39 Y161.794 Z0.667 F3048
X51.487 Y161.849 Z0.663 F3048
X51.581 Y161.91 Z0.659 F3048
X51.67 Y161.978 Z0.655 F3048
X51.754 Y162.053 Z0.651 F3048
X51.833 Y162.133 Z0.648 F3048
X51.905 Y162.218 Z0.644 F3048
X51.972 Y162.309 Z0.64 F3048
X52.032 Y162.404 Z0.636 F3048
X52.085 Y162.502 Z0.632 F3048
X52.13 Y162.605 Z0.628 F3048
X52.169 Y162.71 Z0.624 F3048
X52.2 Y162.818 Z0.62 F3048
X52.223 Y162.928 Z0.616 F3048
X52.238 Y163.039 Z0.612 F3048
X52.246 Y163.151 Z0.608 F3048
X52.245 Y163.263 Z0.604 F3048
X52.237 Y163.374 Z0.601 F3048
X52.22 Y163.485 Z0.597 F3048
X52.196 Y163.595 Z0.593 F3048
X52.164 Y163.702 Z0.589 F3048
X52.125 Y163.807 Z0.585 F3048
X52.078 Y163.909 Z0.581 F3048
X52.024 Y164.007 Z0.577 F3048
X51.963 Y164.101 Z0.573 F3048
X51.896 Y164.191 Z0.569 F3048
X51.823 Y164.275 Z0.565 F3048
X51.743 Y164.354 Z0.561 F3048
X51.659 Y164.428 Z0.557 F3048
X51.569 Y164.495 Z0.554 F3048
X51.475 Y164.556 Z0.55 F3048
X51.377 Y164.61 Z0.546 F3048
X51.275 Y164.656 Z0.542 F3048
X51.17 Y164.696 Z0.538 F3048
X51.063 Y164.728 Z0.534 F3048
X50.953 Y164.752 Z0.53 F3048
X50.842 Y164.768 Z0.526 F3048
X50.731 Y164.777 Z0.522 F3048
X50.619 Z0.518 F3048
X50.507 Y164.77 Z0.514 F3048
X50.396 Y164.754 Z0.51 F3048
X50.286 Y164.731 Z0.507 F3048
X50.179 Y164.7 Z0.503 F3048
X50.074 Y164.662 Z0.499 F3048
X49.971 Y164.616 Z0.495 F3048
X49.873 Y164.563 Z0.491 F3048
X49.778 Y164.504 Z0.487 F3048
X49.688 Y164.437 Z0.483 F3048
X49.603 Y164.365 Z0.479 F3048
X49.523 Y164.287 Z0.475 F3048
X49.449 Y164.203 Z0.471 F3048
X49.381 Y164.114 Z0.467 F3048
X49.319 Y164.02 Z0.463 F3048
X49.265 Y163.923 Z0.46 F3048
X49.217 Y163.822 Z0.456 F3048
X49.177 Y163.717 Z0.452 F3048
X49.144 Y163.61 Z0.448 F3048
X49.118 Y163.501 Z0.444 F3048
X49.101 Y163.391 Z0.44 F3048
X49.091 Y163.279 Z0.436 F3048
X49.09 Y163.167 Z0.432 F3048
X49.096 Y163.056 Z0.428 F3048
X49.11 Y162.945 Z0.424 F3048
X49.132 Y162.835 Z0.42 F3048
X49.162 Y162.727 Z0.416 F3048
X49.2 Y162.622 Z0.413 F3048
X49.244 Y162.519 Z0.409 F3048
X49.296 Y162.42 Z0.405 F3048
X49.355 Y162.325 Z0.401 F3048
X49.42 Y162.234 Z0.397 F3048
X49.492 Y162.148 Z0.393 F3048
X49.57 Y162.068 Z0.389 F3048
X49.653 Y161.993 Z0.385 F3048
X49.741 Y161.924 Z0.381 F3048
X49.833 Y161.862 Z0.377 F3048
X49.93 Y161.806 Z0.373 F3048
X50.031 Y161.757 Z0.369 F3048
X50.135 Y161.716 Z0.366 F3048
X50.241 Y161.682 Z0.362 F3048
X50.35 Y161.656 Z0.358 F3048
X50.46 Y161.638 Z0.354 F3048
X50.571 Y161.627 Z0.35 F3048
X50.683 Y161.624 Z0.346 F3048
X50.795 Y161.629 Z0.342 F3048
X50.906 Y161.643 Z0.338 F3048
X51.015 Y161.664 Z0.334 F3048
X51.123 Y161.692 Z0.33 F3048
X51.229 Y161.729 Z0.326 F3048
X51.332 Y161.772 Z0.322 F3048
X51.432 Y161.823 Z0.318 F3048
X51.527 Y161.881 Z0.315 F3048
X51.618 Y161.945 Z0.311 F3048
X51.705 Y162.016 Z0.307 F3048
X51.786 Y162.093 Z0.303 F3048
X51.862 Y162.175 Z0.299 F3048
X51.932 Y162.262 Z0.295 F3048
X51.995 Y162.355 Z0.291 F3048
X52.051 Y162.451 Z0.287 F3048
X52.101 Y162.551 Z0.283 F3048
X52.143 Y162.654 Z0.279 F3048
X52.178 Y162.76 Z0.275 F3048
X52.205 Y162.869 Z0.271 F3048
X52.225 Y162.979 Z0.268 F3048
X52.237 Y163.09 Z0.264 F3048
X52.24 Y163.201 Z0.26 F3048
X52.236 Y163.313 Z0.256 F3048
X52.224 Y163.424 Z0.252 F3048
X52.204 Y163.533 Z0.248 F3048
X52.177 Y163.642 Z0.244 F3048
X52.141 Y163.747 Z0.24 F3048
X52.099 Y163.851 Z0.236 F3048
X52.049 Y163.951 Z0.232 F3048
X51.992 Y164.047 Z0.228 F3048
X51.929 Y164.138 Z0.224 F3048
X51.859 Y164.226 Z0.221 F3048
X51.783 Y164.307 Z0.217 F3048
X51.702 Y164.384 Z0.213 F3048
X51.615 Y164.454 Z0.209 F3048
X51.524 Y164.518 Z0.205 F3048
X51.428 Y164.576 Z0.201 F3048
X51.328 Y164.626 Z0.197 F3048
X51.226 Y164.669 Z0.193 F3048
X51.12 Y164.705 Z0.189 F3048
X51.012 Y164.734 Z0.185 F3048
X50.902 Y164.754 Z0.181 F3048
X50.791 Y164.767 Z0.177 F3048
X50.68 Y164.772 Z0.174 F3048
X50.568 Y164.769 Z0.17 F3048
X50.457 Y164.758 Z0.166 F3048
X50.347 Y164.739 Z0.162 F3048
X50.239 Y164.713 Z0.158 F3048
X50.133 Y164.678 Z0.154 F3048
X50.03 Y164.637 Z0.15 F3048
X49.929 Y164.588 Z0.146 F3048
X49.833 Y164.532 Z0.142 F3048
X49.741 Y164.47 Z0.138 F3048
X49.653 Y164.401 Z0.134 F3048
X49.57 Y164.326 Z0.13 F3048
X49.493 Y164.245 Z0.127 F3048
X49.422 Y164.16 Z0.123 F3048
X49.357 Y164.069 Z0.119 F3048
X49.299 Y163.974 Z0.115 F3048
X49.248 Y163.875 Z0.111 F3048
X49.203 Y163.773 Z0.107 F3048
X49.167 Y163.667 Z0.103 F3048
X49.137 Y163.56 Z0.099 F3048
X49.116 Y163.45 Z0.095 F3048
X49.102 Y163.34 Z0.091 F3048
X49.096 Y163.229 Z0.087 F3048
X49.098 Y163.117 Z0.083 F3048
X49.108 Y163.006 Z0.08 F3048
X49.125 Y162.896 Z0.076 F3048
X49.151 Y162.787 Z0.072 F3048
X49.184 Y162.681 Z0.068 F3048
X49.225 Y162.577 Z0.064 F3048
X49.272 Y162.477 Z0.06 F3048
X49.327 Y162.38 Z0.056 F3048
X49.389 Y162.287 Z0.052 F3048
X49.457 Y162.199 Z0.048 F3048
X49.531 Y162.115 Z0.044 F3048
X49.61 Y162.038 Z0.04 F3048
X49.695 Y161.966 Z0.036 F3048
X49.785 Y161.9 Z0.033 F3048
X49.88 Y161.841 Z0.029 F3048
X49.978 Y161.789 Z0.025 F3048
X50.08 Y161.744 Z0.021 F3048
X50.184 Y161.706 Z0.017 F3048
X50.292 Y161.675 Z0.013 F3048
X50.401 Y161.653 Z0.009 F3048
X50.511 Y161.638 Z0.005 F3048
X50.622 Y161.631 Z0.001 F3048
X50.733 Y161.632 Z-0.003 F3048
X50.844 Y161.64 Z-0.007 F3048
X50.954 Y161.657 Z-0.011 F3048
X51.063 Y161.681 Z-0.015 F3048
X51.17 Y161.714 Z-0.018 F3048
X51.274 Y161.753 Z-0.022 F3048
X51.375 Y161.8 Z-0.026 F3048
X51.472 Y161.854 Z-0.03 F3048
X51.566 Y161.914 Z-0.034 F3048
X51.655 Y161.981 Z-0.038 F3048
X51.739 Y162.055 Z-0.042 F3048
X51.817 Y162.134 Z-0.046 F3048
X51.89 Y162.218 Z-0.05 F3048
X51.956 Y162.307 Z-0.054 F3048
X52.016 Y162.401 Z-0.058 F3048
X52.069 Y162.498 Z-0.062 F3048
X52.115 Y162.599 Z-0.065 F3048
X52.154 Y162.704 Z-0.069 F3048
X52.185 Y162.81 Z-0.073 F3048
X52.209 Y162.919 Z-0.077 F3048
X52.225 Y163.029 Z-0.081 F3048
X52.233 Y163.14 Z-0.085 F3048
Y163.251 Z-0.089 F3048
X52.226 Y163.362 Z-0.093 F3048
X52.21 Y163.472 Z-0.097 F3048
X52.187 Y163.581 Z-0.101 F3048
X52.156 Y163.688 Z-0.105 F3048
X52.117 Y163.792 Z-0.109 F3048
X52.072 Y163.894 Z-0.112 F3048
X52.019 Y163.991 Z-0.116 F3048
X51.959 Y164.085 Z-0.12 F3048
X51.893 Y164.175 Z-0.124 F3048
X51.821 Y164.259 Z-0.128 F3048
X51.743 Y164.338 Z-0.132 F3048
X51.659 Y164.412 Z-0.136 F3048
X51.571 Y164.479 Z-0.14 F3048
X51.478 Y164.54 Z-0.144 F3048
X51.38 Y164.594 Z-0.148 F3048
X51.28 Y164.641 Z-0.152 F3048
X51.176 Y164.681 Z-0.156 F3048
X51.07 Y164.713 Z-0.159 F3048
X50.961 Y164.738 Z-0.163 F3048
X50.851 Y164.755 Z-0.167 F3048
X50.741 Y164.764 Z-0.171 F3048
X50.63 Y164.765 Z-0.175 F3048
X50.519 Y164.759 Z-0.179 F3048
X50.409 Y164.744 Z-0.183 F3048
X50.3 Y164.722 Z-0.187 F3048
X50.193 Y164.692 Z-0.191 F3048
X50.088 Y164.655 Z-0.195 F3048
X49.987 Y164.61 Z-0.199 F3048
X49.888 Y164.558 Z-0.203 F3048
X49.794 Y164.5 Z-0.206 F3048
X49.704 Y164.435 Z-0.21 F3048
X49.619 Y164.363 Z-0.214 F3048
X49.539 Y164.286 Z-0.218 F3048
X49.465 Y164.203 Z-0.222 F3048
X49.397 Y164.115 Z-0.226 F3048
X49.335 Y164.023 Z-0.23 F3048
X49.28 Y163.927 Z-0.234 F3048
X49.232 Y163.826 Z-0.238 F3048
X49.191 Y163.723 Z-0.242 F3048
X49.158 Y163.617 Z-0.246 F3048
X49.132 Y163.509 Z-0.25 F3048
X49.114 Y163.4 Z-0.253 F3048
X49.104 Y163.289 Z-0.257 F3048
X49.102 Y163.178 Z-0.261 F3048
X49.107 Y163.067 Z-0.265 F3048
X49.121 Y162.957 Z-0.269 F3048
X49.142 Y162.848 Z-0.273 F3048
X49.171 Y162.741 Z-0.277 F3048
X49.207 Y162.636 Z-0.281 F3048
X49.251 Y162.534 Z-0.285 F3048
X49.301 Y162.435 Z-0.289 F3048
X49.359 Y162.341 Z-0.293 F3048
X49.423 Y162.25 Z-0.297 F3048
X49.494 Y162.164 Z-0.3 F3048
X49.57 Y162.084 Z-0.304 F3048
X49.652 Y162.009 Z-0.308 F3048
X49.739 Y161.94 Z-0.312 F3048
X49.831 Y161.878 Z-0.316 F3048
X49.926 Y161.822 Z-0.32 F3048
X50.026 Y161.773 Z-0.324 F3048
X50.129 Y161.731 Z-0.328 F3048
X50.234 Y161.697 Z-0.332 F3048
X50.342 Y161.67 Z-0.336 F3048
X50.451 Y161.651 Z-0.34 F3048
X50.562 Y161.64 Z-0.344 F3048
X50.672 Y161.636 Z-0.348 F3048
X50.783 Y161.641 Z-0.351 F3048
X50.894 Y161.653 Z-0.355 F3048
X51.003 Y161.673 Z-0.359 F3048
X51.11 Y161.701 Z-0.363 F3048
X51.215 Y161.736 Z-0.367 F3048
X51.318 Y161.779 Z-0.371 F3048
X51.417 Y161.829 Z-0.375 F3048
X51.512 Y161.885 Z-0.379 F3048
X51.603 Y161.949 Z-0.383 F3048
X51.689 Y162.018 Z-0.387 F3048
X51.77 Y162.094 Z-0.391 F3048
X51.846 Y162.175 Z-0.395 F3048
X51.916 Y162.261 Z-0.398 F3048
X51.979 Y162.352 Z-0.402 F3048
X52.036 Y162.447 Z-0.406 F3048
X52.085 Y162.546 Z-0.41 F3048
X52.128 Y162.648 Z-0.414 F3048
X52.163 Y162.753 Z-0.418 F3048
X52.191 Y162.861 Z-0.422 F3048
X52.211 Y162.97 Z-0.426 F3048
X52.224 Y163.08 Z-0.43 F3048
X52.228 Y163.19 Z-0.434 F3048
X52.225 Y163.301 Z-0.438 F3048
X52.214 Y163.411 Z-0.442 F3048
X52.195 Y163.521 Z-0.445 F3048
X52.168 Y163.628 Z-0.449 F3048
X52.134 Y163.733 Z-0.453 F3048
X52.092 Y163.836 Z-0.457 F3048
X52.043 Y163.936 Z-0.461 F3048
X51.987 Y164.031 Z-0.465 F3048
X51.925 Y164.123 Z-0.469 F3048
X51.856 Y164.21 Z-0.473 F3048
X51.782 Y164.292 Z-0.477 F3048
X51.701 Y164.368 Z-0.481 F3048
X51.616 Y164.438 Z-0.485 F3048
X51.526 Y164.503 Z-0.489 F3048
X51.431 Y164.56 Z-0.492 F3048
X51.333 Y164.611 Z-0.496 F3048
X51.231 Y164.654 Z-0.5 F3048
X51.126 Y164.691 Z-0.504 F3048
X51.02 Y164.72 Z-0.508 F3048
X50.911 Y164.741 Z-0.512 F3048
X50.801 Y164.754 Z-0.516 F3048
X50.691 Y164.76 Z-0.52 F3048
X50.58 Y164.757 Z-0.524 F3048
X50.47 Y164.747 Z-0.528 F3048
X50.361 Y164.729 Z-0.532 F3048
X50.253 Y164.704 Z-0.536 F3048
X50.147 Y164.671 Z-0.539 F3048
X50.044 Y164.63 Z-0.543 F3048
X49.945 Y164.582 Z-0.547 F3048
X49.848 Y164.528 Z-0.551 F3048
X49.756 Y164.466 Z-0.555 F3048
X49.669 Y164.398 Z-0.559 F3048
X49.586 Y164.325 Z-0.563 F3048
X49.509 Y164.245 Z-0.567 F3048
X49.438 Y164.16 Z-0.571 F3048
X49.373 Y164.071 Z-0.575 F3048
X49.315 Y163.977 Z-0.579 F3048
X49.263 Y163.879 Z-0.583 F3048
X49.218 Y163.778 Z-0.586 F3048
X49.181 Y163.673 Z-0.59 F3048
X49.151 Y163.567 Z-0.594 F3048
X49.129 Y163.459 Z-0.598 F3048
X49.115 Y163.349 Z-0.602 F3048
X49.108 Y163.239 Z-0.606 F3048
X49.109 Y163.128 Z-0.61 F3048
X49.118 Y163.018 Z-0.614 F3048
X49.135 Y162.909 Z-0.618 F3048
X49.16 Y162.801 Z-0.622 F3048
X49.192 Y162.695 Z-0.626 F3048
X49.231 Y162.592 Z-0.63 F3048
X49.278 Y162.492 Z-0.633 F3048
X49.332 Y162.395 Z-0.637 F3048
X49.392 Y162.303 Z-0.641 F3048
X49.459 Y162.215 Z-0.645 F3048
X49.532 Y162.132 Z-0.649 F3048
X49.611 Y162.054 Z-0.653 F3048
X49.695 Y161.982 Z-0.657 F3048
X49.783 Y161.916 Z-0.661 F3048
X49.877 Y161.857 Z-0.665 F3048
X49.974 Y161.804 Z-0.669 F3048
X50.075 Y161.759 Z-0.673 F3048
X50.178 Y161.721 Z-0.677 F3048
X50.284 Y161.69 Z-0.68 F3048
X50.392 Y161.666 Z-0.684 F3048
X50.502 Y161.651 Z-0.688 F3048
X50.612 Y161.643 Z-0.692 F3048
X50.723 Z-0.696 F3048
X50.833 Y161.651 Z-0.7 F3048
X50.942 Y161.667 Z-0.704 F3048
X51.05 Y161.691 Z-0.708 F3048
X51.156 Y161.722 Z-0.712 F3048
X51.26 Y161.76 Z-0.716 F3048
X51.36 Y161.806 Z-0.72 F3048
X51.457 Y161.859 Z-0.724 F3048
X51.55 Y161.918 Z-0.728 F3048
X51.639 Y161.984 Z-0.731 F3048
X51.722 Y162.056 Z-0.735 F3048
X51.801 Y162.134 Z-0.739 F3048
X51.873 Y162.217 Z-0.743 F3048
X51.94 Y162.305 Z-0.747 F3048
X52 Y162.397 Z-0.751 F3048
X52.053 Y162.494 Z-0.755 F3048
X52.1 Y162.594 Z-0.759 F3048
X52.139 Y162.697 Z-0.763 F3048
X52.171 Y162.803 Z-0.767 F3048
X52.195 Y162.911 Z-0.771 F3048
X52.212 Y163.02 Z-0.775 F3048
X52.221 Y163.13 Z-0.778 F3048
Y163.24 Z-0.782 F3048
X52.215 Y163.351 Z-0.786 F3048
X52.2 Y163.46 Z-0.79 F3048
X52.177 Y163.568 Z-0.794 F3048
X52.147 Y163.674 Z-0.798 F3048
X52.11 Y163.778 Z-0.802 F3048
X52.065 Y163.879 Z-0.806 F3048
X52.014 Y163.977 Z-0.81 F3048
X51.955 Y164.07 Z-0.814 F3048
X51.89 Y164.159 Z-0.818 F3048
X51.819 Y164.244 Z-0.822 F3048
X51.742 Y164.323 Z-0.825 F3048
X51.66 Y164.396 Z-0.829 F3048
X51.572 Y164.463 Z-0.833 F3048
X51.48 Y164.524 Z-0.837 F3048
X51.384 Y164.579 Z-0.841 F3048
X51.285 Y164.626 Z-0.845 F3048
X51.182 Y164.666 Z-0.849 F3048
X51.077 Y164.699 Z-0.853 F3048
X50.97 Y164.724 Z-0.857 F3048
X50.861 Y164.742 Z-0.861 F3048
X50.751 Y164.752 Z-0.865 F3048
X50.641 Y164.754 Z-0.869 F3048
X50.531 Y164.748 Z-0.872 F3048
X50.421 Y164.734 Z-0.876 F3048
X50.313 Y164.713 Z-0.88 F3048
X50.207 Y164.684 Z-0.884 F3048
X50.103 Y164.647 Z-0.888 F3048
X50.001 Y164.604 Z-0.892 F3048
X49.903 Y164.553 Z-0.896 F3048
X49.809 Y164.495 Z-0.9 F3048
X49.72 Y164.431 Z-0.904 F3048
X49.635 Y164.361 Z-0.908 F3048
X49.555 Y164.285 Z-0.912 F3048
X49.481 Y164.203 Z-0.916 F3048
X49.413 Y164.117 Z-0.919 F3048
X49.351 Y164.025 Z-0.923 F3048
X49.296 Y163.93 Z-0.927 F3048
X49.247 Y163.831 Z-0.931 F3048
X49.206 Y163.729 Z-0.935 F3048
X49.172 Y163.624 Z-0.939 F3048
X49.146 Y163.517 Z-0.943 F3048
X49.128 Y163.409 Z-0.947 F3048
X49.117 Y163.299 Z-0.951 F3048
X49.114 Y163.189 Z-0.955 F3048
X49.118 Y163.079 Z-0.959 F3048
X49.131 Y162.969 Z-0.963 F3048
X49.151 Y162.861 Z-0.966 F3048
X49.179 Y162.755 Z-0.97 F3048
X49.214 Y162.65 Z-0.974 F3048
X49.257 Y162.549 Z-0.978 F3048
X49.307 Y162.451 Z-0.982 F3048
X49.363 Y162.356 Z-0.986 F3048
X49.427 Y162.266 Z-0.99 F3048
X49.496 Y162.18 Z-0.994 F3048
X49.571 Y162.1 Z-0.998 F3048
X49.652 Y162.025 Z-1.002 F3048
X49.738 Y161.956 Z-1.006 F3048
X49.828 Y161.894 Z-1.01 F3048
X49.923 Y161.837 Z-1.013 F3048
X50.022 Y161.788 Z-1.017 F3048
X50.123 Y161.746 Z-1.021 F3048
X50.228 Y161.711 Z-1.025 F3048
X50.335 Y161.684 Z-1.029 F3048
X50.443 Y161.664 Z-1.033 F3048
X50.552 Y161.652 Z-1.037 F3048
X50.662 Y161.648 Z-1.041 F3048
X50.772 Y161.652 Z-1.045 F3048
X50.882 Y161.663 Z-1.049 F3048
X50.99 Y161.683 Z-1.053 F3048
X51.097 Y161.709 Z-1.057 F3048
X51.201 Y161.744 Z-1.06 F3048
X51.303 Y161.785 Z-1.064 F3048
X51.401 Y161.834 Z-1.068 F3048
X51.496 Y161.89 Z-1.072 F3048
X51.587 Y161.952 Z-1.076 F3048
X51.673 Y162.02 Z-1.08 F3048
X51.754 Y162.095 Z-1.084 F3048
X51.83 Y162.175 Z-1.088 F3048
X51.899 Y162.26 Z-1.092 F3048
X51.963 Y162.35 Z-1.096 F3048
X52.02 Y162.444 Z-1.1 F3048
X52.07 Y162.542 Z-1.104 F3048
X52.113 Y162.643 Z-1.108 F3048
X52.149 Y162.747 Z-1.111 F3048
X52.177 Y162.853 Z-1.115 F3048
X52.198 Y162.961 Z-1.119 F3048
X52.211 Y163.07 Z-1.123 F3048
X52.216 Y163.18 Z-1.127 F3048
X52.213 Y163.29 Z-1.131 F3048
X52.203 Y163.4 Z-1.135 F3048
X52.185 Y163.508 Z-1.139 F3048
X52.159 Y163.615 Z-1.143 F3048
X52.126 Y163.72 Z-1.147 F3048
X52.085 Y163.822 Z-1.151 F3048
X52.037 Y163.921 Z-1.155 F3048
X51.983 Y164.016 Z-1.158 F3048
X51.922 Y164.107 Z-1.162 F3048
X51.854 Y164.194 Z-1.166 F3048
X51.781 Y164.276 Z-1.17 F3048
X51.701 Y164.352 Z-1.174 F3048
X51.617 Y164.422 Z-1.178 F3048
X51.528 Y164.487 Z-1.182 F3048
X51.435 Y164.544 Z-1.186 F3048
X51.337 Y164.595 Z-1.19 F3048
X51.237 Y164.639 Z-1.194 F3048
X51.133 Y164.676 Z-1.198 F3048
X51.027 Y164.705 Z-1.202 F3048
X50.92 Y164.727 Z-1.205 F3048
X50.811 Y164.741 Z-1.209 F3048
X50.701 Y164.747 Z-1.213 F3048
X50.591 Y164.746 Z-1.217 F3048
X50.482 Y164.736 Z-1.221 F3048
X50.373 Y164.719 Z-1.225 F3048
X50.266 Y164.695 Z-1.229 F3048
X50.161 Y164.662 Z-1.233 F3048
X50.059 Y164.623 Z-1.237 F3048
X49.959 Y164.576 Z-1.241 F3048
X49.863 Y164.522 Z-1.245 F3048
X49.772 Y164.462 Z-1.249 F3048
X49.684 Y164.395 Z-1.252 F3048
X49.602 Y164.323 Z-1.256 F3048
X49.525 Y164.245 Z-1.26 F3048
X49.454 Y164.161 Z-1.264 F3048
X49.389 Y164.073 Z-1.268 F3048
X49.33 Y163.98 Z-1.272 F3048
X49.278 Y163.883 Z-1.276 F3048
X49.234 Y163.783 Z-1.28 F3048
X49.196 Y163.68 Z-1.284 F3048
X49.166 Y163.575 Z-1.288 F3048
X49.143 Y163.467 Z-1.292 F3048
X49.128 Y163.359 Z-1.296 F3048
X49.12 Y163.249 Z-1.299 F3048
X49.121 Y163.139 Z-1.303 F3048
X49.129 Y163.03 Z-1.307 F3048
X49.145 Y162.921 Z-1.311 F3048
X49.169 Y162.814 Z-1.315 F3048
X49.2 Y162.709 Z-1.319 F3048
X49.238 Y162.606 Z-1.323 F3048
X49.284 Y162.507 Z-1.327 F3048
X49.337 Y162.41 Z-1.331 F3048
X49.396 Y162.318 Z-1.335 F3048
X49.462 Y162.23 Z-1.339 F3048
X49.534 Y162.147 Z-1.343 F3048
X49.611 Y162.07 Z-1.346 F3048
X49.694 Y161.998 Z-1.35 F3048
X49.782 Y161.932 Z-1.354 F3048
X49.874 Y161.872 Z-1.358 F3048
X49.97 Y161.82 Z-1.362 F3048
X50.07 Y161.774 Z-1.366 F3048
X50.172 Y161.735 Z-1.37 F3048
X50.277 Y161.704 Z-1.374 F3048
X50.384 Y161.68 Z-1.378 F3048
X50.493 Y161.664 Z-1.382 F3048
X50.602 Y161.656 Z-1.386 F3048
X50.712 Y161.655 Z-1.39 F3048
X50.821 Y161.662 Z-1.393 F3048
X50.93 Y161.677 Z-1.397 F3048
X51.037 Y161.7 Z-1.401 F3048
X51.142 Y161.73 Z-1.405 F3048
X51.245 Y161.767 Z-1.409 F3048
X51.345 Y161.812 Z-1.413 F3048
X51.442 Y161.864 Z-1.417 F3048
X51.534 Y161.922 Z-1.421 F3048
X51.623 Y161.987 Z-1.425 F3048
X51.706 Y162.058 Z-1.429 F3048
X51.785 Y162.134 Z-1.433 F3048
X51.857 Y162.217 Z-1.437 F3048
X51.924 Y162.303 Z-1.441 F3048
X51.984 Y162.395 Z-1.444 F3048
X52.038 Y162.491 Z-1.448 F3048
X52.085 Y162.59 Z-1.452 F3048
X52.124 Y162.692 Z-1.456 F3048
X52.157 Y162.796 Z-1.46 F3048
X52.181 Y162.903 Z-1.464 F3048
X52.199 Y163.011 Z-1.468 F3048
X52.208 Y163.121 Z-1.472 F3048
X52.21 Y163.23 Z-1.476 F3048
X52.204 Y163.339 Z-1.48 F3048
X52.19 Y163.448 Z-1.484 F3048
X52.168 Y163.555 Z-1.488 F3048
X52.139 Y163.661 Z-1.491 F3048
X52.103 Y163.764 Z-1.495 F3048
X52.059 Y163.864 Z-1.499 F3048
X52.008 Y163.961 Z-1.503 F3048
X51.951 Y164.054 Z-1.507 F3048
X51.887 Y164.143 Z-1.511 F3048
X51.817 Y164.227 Z-1.515 F3048
X51.741 Y164.306 Z-1.519 F3048
X51.66 Y164.38 Z-1.523 F3048
X51.574 Y164.447 Z-1.527 F3048
X51.483 Y164.508 Z-1.531 F3048
X51.388 Y164.563 Z-1.535 F3048
X51.29 Y164.61 Z-1.538 F3048
X51.188 Y164.651 Z-1.542 F3048
X51.084 Y164.684 Z-1.546 F3048
X50.977 Y164.71 Z-1.55 F3048
X50.869 Y164.728 Z-1.554 F3048
X50.76 Y164.739 Z-1.558 F3048
X50.651 Y164.741 Z-1.562 F3048
X50.542 Y164.736 Z-1.566 F3048
X50.433 Y164.724 Z-1.57 F3048
X50.326 Y164.703 Z-1.574 F3048
X50.22 Y164.675 Z-1.578 F3048
X50.116 Y164.64 Z-1.582 F3048
X50.016 Y164.597 Z-1.585 F3048
X49.918 Y164.547 Z-1.589 F3048
X49.825 Y164.491 Z-1.593 F3048
X49.735 Y164.428 Z-1.597 F3048
X49.651 Y164.359 Z-1.601 F3048
X49.571 Y164.284 Z-1.605 F3048
X49.497 Y164.204 Z-1.609 F3048
X49.429 Y164.118 Z-1.613 F3048
X49.367 Y164.028 Z-1.617 F3048
X49.311 Y163.934 Z-1.621 F3048
X49.263 Y163.836 Z-1.625 F3048
X49.221 Y163.735 Z-1.629 F3048
X49.187 Y163.631 Z-1.632 F3048
X49.16 Y163.525 Z-1.636 F3048
X49.141 Y163.417 Z-1.64 F3048
X49.13 Y163.309 Z-1.644 F3048
X49.126 Y163.199 Z-1.648 F3048
X49.13 Y163.09 Z-1.652 F3048
X49.141 Y162.982 Z-1.656 F3048
X49.161 Y162.874 Z-1.66 F3048
X49.188 Y162.768 Z-1.664 F3048
X49.222 Y162.664 Z-1.668 F3048
X49.264 Y162.563 Z-1.672 F3048
X49.313 Y162.465 Z-1.676 F3048
X49.368 Y162.371 Z-1.679 F3048
X49.43 Y162.281 Z-1.683 F3048
X49.499 Y162.196 Z-1.687 F3048
X49.573 Y162.116 Z-1.691 F3048
X49.652 Y162.041 Z-1.695 F3048
X49.737 Y161.972 Z-1.699 F3048
X49.826 Y161.909 Z-1.703 F3048
X49.92 Y161.853 Z-1.707 F3048
X50.017 Y161.804 Z-1.711 F3048
X50.118 Y161.761 Z-1.715 F3048
X50.221 Y161.726 Z-1.719 F3048
X50.327 Y161.698 Z-1.723 F3048
X50.434 Y161.678 Z-1.726 F3048
X50.542 Y161.665 Z-1.73 F3048
X50.652 Y161.66 Z-1.734 F3048
X50.761 Y161.663 Z-1.738 F3048
X50.869 Y161.674 Z-1.742 F3048
X50.977 Y161.692 Z-1.746 F3048
X51.083 Y161.718 Z-1.75 F3048
X51.187 Y161.752 Z-1.754 F3048
X51.288 Y161.792 Z-1.758 F3048
X51.386 Y161.84 Z-1.762 F3048
X51.481 Y161.894 Z-1.766 F3048
X51.572 Y161.956 Z-1.77 F3048
X51.657 Y162.023 Z-1.774 F3048
X51.738 Y162.096 Z-1.777 F3048
X51.814 Y162.175 Z-1.781 F3048
X51.884 Y162.259 Z-1.785 F3048
X51.947 Y162.348 Z-1.789 F3048
X52.004 Y162.441 Z-1.793 F3048
X52.055 Y162.538 Z-1.797 F3048
X52.098 Y162.638 Z-1.801 F3048
X52.134 Y162.741 Z-1.805 F3048
X52.163 Y162.846 Z-1.809 F3048
X52.184 Y162.953 Z-1.813 F3048
X52.198 Y163.061 Z-1.817 F3048
X52.204 Y163.17 Z-1.821 F3048
X52.202 Y163.279 Z-1.824 F3048
X52.192 Y163.388 Z-1.828 F3048
X52.175 Y163.495 Z-1.832 F3048
X52.15 Y163.601 Z-1.836 F3048
X52.118 Y163.706 Z-1.84 F3048
X52.078 Y163.807 Z-1.844 F3048
X52.032 Y163.906 Z-1.848 F3048
X51.978 Y164.001 Z-1.852 F3048
X51.918 Y164.092 Z-1.856 F3048
X51.851 Y164.178 Z-1.86 F3048
X51.779 Y164.26 Z-1.864 F3048
X51.701 Y164.336 Z-1.868 F3048
X51.618 Y164.406 Z-1.871 F3048
X51.53 Y164.471 Z-1.875 F3048
X51.437 Y164.529 Z-1.879 F3048
X51.341 Y164.58 Z-1.883 F3048
X51.242 Y164.624 Z-1.887 F3048
X51.139 Y164.661 Z-1.891 F3048
X51.034 Y164.691 Z-1.895 F3048
X50.927 Y164.713 Z-1.899 F3048
X50.819 Y164.728 Z-1.903 F3048
X50.711 Y164.735 Z-1.907 F3048
X50.602 Y164.734 Z-1.911 F3048
X50.493 Y164.726 Z-1.915 F3048
X50.385 Y164.71 Z-1.918 F3048
X50.279 Y164.686 Z-1.922 F3048
X50.175 Y164.655 Z-1.926 F3048
X50.073 Y164.616 Z-1.93 F3048
X49.974 Y164.57 Z-1.934 F3048
X49.879 Y164.518 Z-1.938 F3048
X49.787 Y164.458 Z-1.942 F3048
X49.7 Y164.393 Z-1.946 F3048
X49.618 Y164.321 Z-1.95 F3048
X49.541 Y164.244 Z-1.954 F3048
X49.47 Y164.162 Z-1.958 F3048
X49.405 Y164.075 Z-1.962 F3048
X49.346 Y163.983 Z-1.965 F3048
X49.294 Y163.887 Z-1.969 F3048
X49.249 Y163.788 Z-1.973 F3048
X49.211 Y163.686 Z-1.977 F3048
X49.18 Y163.582 Z-1.981 F3048
X49.157 Y163.475 Z-1.985 F3048
X49.141 Y163.368 Z-1.989 F3048
X49.133 Y163.259 Z-1.993 F3048
Y163.15 Z-1.997 F3048
X49.14 Y163.041 Z-2.001 F3048
X49.155 Y162.934 Z-2.005 F3048
X49.178 Y162.827 Z-2.009 F3048
X49.208 Y162.722 Z-2.012 F3048
X49.246 Y162.62 Z-2.016 F3048
X49.291 Y162.521 Z-2.02 F3048
X49.342 Y162.425 Z-2.024 F3048
X49.4 Y162.333 Z-2.028 F3048
X49.465 Y162.246 Z-2.032 F3048
X49.536 Y162.163 Z-2.036 F3048
X49.612 Y162.086 Z-2.04 F3048
X49.694 Y162.014 Z-2.044 F3048
X49.78 Y161.948 Z-2.048 F3048
X49.871 Y161.888 Z-2.052 F3048
X49.966 Y161.835 Z-2.056 F3048
X50.065 Y161.789 Z-2.059 F3048
X50.166 Y161.75 Z-2.063 F3048
X50.27 Y161.718 Z-2.067 F3048
X50.376 Y161.694 Z-2.071 F3048
X50.484 Y161.677 Z-2.075 F3048
X50.592 Y161.668 Z-2.079 F3048
X50.701 Y161.667 Z-2.083 F3048
X50.809 Y161.673 Z-2.087 F3048
X50.917 Y161.687 Z-2.091 F3048
X51.024 Y161.709 Z-2.095 F3048
X51.129 Y161.738 Z-2.099 F3048
X51.231 Y161.775 Z-2.103 F3048
X51.331 Y161.818 Z-2.106 F3048
X51.427 Y161.869 Z-2.11 F3048
X51.519 Y161.926 Z-2.114 F3048
X51.607 Y161.99 Z-2.118 F3048
X51.691 Y162.06 Z-2.122 F3048
X51.769 Y162.136 Z-2.126 F3048
X51.842 Y162.217 Z-2.13 F3048
X51.908 Y162.302 Z-2.134 F3048
X51.969 Y162.393 Z-2.138 F3048
X52.023 Y162.487 Z-2.142 F3048
X52.07 Y162.585 Z-2.146 F3048
X52.11 Y162.686 Z-2.15 F3048
X52.142 Y162.79 Z-2.154 F3048
X52.168 Y162.895 Z-2.157 F3048
X52.185 Y163.002 Z-2.161 F3048
X52.195 Y163.11 Z-2.165 F3048
X52.198 Y163.219 Z-2.169 F3048
X52.192 Y163.328 Z-2.173 F3048
X52.179 Y163.435 Z-2.177 F3048
X52.159 Y163.542 Z-2.181 F3048
X52.131 Y163.647 Z-2.185 F3048
X52.095 Y163.75 Z-2.189 F3048
X52.053 Y163.85 Z-2.193 F3048
X52.003 Y163.946 Z-2.197 F3048
X51.947 Y164.039 Z-2.201 F3048
X51.884 Y164.128 Z-2.204 F3048
X51.815 Y164.212 Z-2.208 F3048
X51.74 Y164.29 Z-2.212 F3048
X51.66 Y164.364 Z-2.216 F3048
X51.575 Y164.431 Z-2.22 F3048
X51.485 Y164.493 Z-2.224 F3048
X51.391 Y164.547 Z-2.228 F3048
X51.294 Y164.595 Z-2.232 F3048
X51.193 Y164.636 Z-2.236 F3048
X51.09 Y164.67 Z-2.24 F3048
X50.985 Y164.696 Z-2.244 F3048
X50.878 Y164.715 Z-2.248 F3048
X50.77 Y164.726 Z-2.251 F3048
X50.661 Y164.73 Z-2.255 F3048
X50.553 Y164.725 Z-2.259 F3048
X50.445 Y164.713 Z-2.263 F3048
X50.339 Y164.694 Z-2.267 F3048
X50.233 Y164.667 Z-2.271 F3048
X50.131 Y164.632 Z-2.275 F3048
X50.03 Y164.591 Z-2.279 F3048
X49.933 Y164.542 Z-2.283 F3048
X49.84 Y164.487 Z-2.287 F3048
X49.751 Y164.425 Z-2.291 F3048
X49.666 Y164.357 Z-2.295 F3048
X49.587 Y164.283 Z-2.298 F3048
X49.513 Y164.204 Z-2.302 F3048
X49.445 Y164.119 Z-2.306 F3048
X49.383 Y164.03 Z-2.31 F3048
X49.327 Y163.937 Z-2.314 F3048
X49.278 Y163.84 Z-2.318 F3048
X49.236 Y163.74 Z-2.322 F3048
X49.202 Y163.637 Z-2.326 F3048
X49.174 Y163.532 Z-2.33 F3048
X49.155 Y163.426 Z-2.334 F3048
X49.142 Y163.318 Z-2.338 F3048
X49.138 Y163.209 Z-2.342 F3048
X49.141 Y163.101 Z-2.345 F3048
X49.152 Y162.993 Z-2.349 F3048
X49.171 Y162.886 Z-2.353 F3048
X49.197 Y162.781 Z-2.357 F3048
X49.23 Y162.678 Z-2.361 F3048
X49.271 Y162.577 Z-2.365 F3048
X49.318 Y162.48 Z-2.369 F3048
X49.373 Y162.386 Z-2.373 F3048
X49.434 Y162.297 Z-2.377 F3048
X49.501 Y162.212 Z-2.381 F3048
X49.574 Y162.132 Z-2.385 F3048
X49.652 Y162.057 Z-2.389 F3048
X49.736 Y161.988 Z-2.392 F3048
X49.824 Y161.925 Z-2.396 F3048
X49.917 Y161.869 Z-2.4 F3048
X50.013 Y161.819 Z-2.404 F3048
X50.112 Y161.776 Z-2.408 F3048
X50.215 Y161.741 Z-2.412 F3048
X50.319 Y161.712 Z-2.416 F3048
X50.426 Y161.692 Z-2.42 F3048
X50.533 Y161.678 Z-2.424 F3048
X50.641 Y161.673 Z-2.428 F3048
X50.75 Y161.675 Z-2.432 F3048
X50.858 Y161.685 Z-2.436 F3048
X50.965 Y161.702 Z-2.439 F3048
X51.07 Y161.727 Z-2.443 F3048
X51.173 Y161.76 Z-2.447 F3048
X51.274 Y161.799 Z-2.451 F3048
X51.372 Y161.846 Z-2.455 F3048
X51.466 Y161.899 Z-2.459 F3048
X51.556 Y161.959 Z-2.463 F3048
X51.642 Y162.026 Z-2.467 F3048
X51.723 Y162.098 Z-2.471 F3048
X51.798 Y162.175 Z-2.475 F3048
X51.868 Y162.258 Z-2.479 F3048
X51.931 Y162.346 Z-2.483 F3048
X51.989 Y162.438 Z-2.486 F3048
X52.039 Y162.533 Z-2.49 F3048
X52.083 Y162.632 Z-2.494 F3048
X52.119 Y162.734 Z-2.498 F3048
X52.149 Y162.838 Z-2.502 F3048
X52.171 Y162.944 Z-2.506 F3048
X52.185 Y163.052 Z-2.51 F3048
X52.191 Y163.16 Z-2.514 F3048
X52.19 Y163.268 Z-2.518 F3048
X52.181 Y163.376 Z-2.522 F3048
X52.165 Y163.483 Z-2.526 F3048
X52.141 Y163.588 Z-2.53 F3048
X52.11 Y163.692 Z-2.534 F3048
X52.071 Y163.793 Z-2.537 F3048
X52.025 Y163.891 Z-2.541 F3048
X51.973 Y163.986 Z-2.545 F3048
X51.914 Y164.076 Z-2.549 F3048
X51.848 Y164.163 Z-2.553 F3048
X51.777 Y164.244 Z-2.557 F3048
X51.7 Y164.32 Z-2.561 F3048
X51.618 Y164.391 Z-2.565 F3048
X51.531 Y164.455 Z-2.569 F3048
X51.44 Y164.513 Z-2.573 F3048
X51.345 Y164.565 Z-2.577 F3048
X51.246 Y164.609 Z-2.581 F3048
X51.145 Y164.647 Z-2.584 F3048
X51.041 Y164.677 Z-2.588 F3048
X50.936 Y164.7 Z-2.592 F3048
X50.829 Y164.715 Z-2.596 F3048
X50.721 Y164.723 Z-2.6 F3048
X50.613 Z-2.604 F3048
X50.505 Y164.715 Z-2.608 F3048
X50.398 Y164.7 Z-2.612 F3048
X50.292 Y164.677 Z-2.616 F3048
X50.189 Y164.646 Z-2.62 F3048
X50.087 Y164.609 Z-2.624 F3048
X49.989 Y164.564 Z-2.628 F3048
X49.894 Y164.513 Z-2.631 F3048
X49.803 Y164.454 Z-2.635 F3048
X49.716 Y164.39 Z-2.639 F3048
X49.634 Y164.319 Z-2.643 F3048
X49.557 Y164.243 Z-2.647 F3048
X49.486 Y164.162 Z-2.651 F3048
X49.421 Y164.076 Z-2.655 F3048
X49.362 Y163.985 Z-2.659 F3048
X49.309 Y163.891 Z-2.663 F3048
X49.264 Y163.793 Z-2.667 F3048
X49.225 Y163.692 Z-2.671 F3048
X49.194 Y163.588 Z-2.675 F3048
X49.17 Y163.483 Z-2.678 F3048
X49.154 Y163.376 Z-2.682 F3048
X49.145 Y163.268 Z-2.686 F3048
X49.144 Y163.161 Z-2.69 F3048
X49.151 Y163.053 Z-2.694 F3048
X49.165 Y162.946 Z-2.698 F3048
X49.187 Y162.84 Z-2.702 F3048
X49.216 Y162.736 Z-2.706 F3048
X49.253 Y162.635 Z-2.71 F3048
X49.297 Y162.536 Z-2.714 F3048
X49.347 Y162.44 Z-2.718 F3048
X49.404 Y162.349 Z-2.722 F3048
X49.468 Y162.262 Z-2.725 F3048
X49.538 Y162.179 Z-2.729 F3048
X49.613 Y162.102 Z-2.733 F3048
X49.693 Y162.03 Z-2.737 F3048
X49.779 Y161.964 Z-2.741 F3048
X49.869 Y161.904 Z-2.745 F3048
X49.963 Y161.851 Z-2.749 F3048
X50.06 Y161.804 Z-2.753 F3048
X50.16 Y161.765 Z-2.757 F3048
X50.264 Y161.733 Z-2.761 F3048
X50.369 Y161.708 Z-2.765 F3048
X50.475 Y161.691 Z-2.769 F3048
X50.583 Y161.681 Z-2.772 F3048
X50.691 Y161.679 Z-2.776 F3048
X50.798 Y161.684 Z-2.78 F3048
X50.906 Y161.698 Z-2.784 F3048
X51.011 Y161.719 Z-2.788 F3048
X51.116 Y161.747 Z-2.792 F3048
X51.217 Y161.782 Z-2.796 F3048
X51.316 Y161.825 Z-2.8 F3048
X51.412 Y161.874 Z-2.804 F3048
X51.504 Y161.931 Z-2.808 F3048
X51.592 Y161.993 Z-2.812 F3048
X51.675 Y162.062 Z-2.816 F3048
X51.753 Y162.136 Z-2.819 F3048
X51.826 Y162.216 Z-2.823 F3048
X51.892 Y162.301 Z-2.827 F3048
X51.953 Y162.39 Z-2.831 F3048
X52.007 Y162.483 Z-2.835 F3048
X52.054 Y162.58 Z-2.839 F3048
X52.095 Y162.68 Z-2.843 F3048
X52.128 Y162.783 Z-2.847 F3048
X52.154 Y162.887 Z-2.851 F3048
X52.172 Y162.994 Z-2.855 F3048
X52.183 Y163.101 Z-2.859 F3048
X52.186 Y163.209 Z-2.863 F3048
X52.181 Y163.316 Z-2.867 F3048
X52.169 Y163.424 Z-2.87 F3048
X52.149 Y163.53 Z-2.874 F3048
X52.122 Y163.634 Z-2.878 F3048
X52.087 Y163.736 Z-2.882 F3048
X52.046 Y163.835 Z-2.886 F3048
X51.997 Y163.932 Z-2.89 F3048
X51.942 Y164.024 Z-2.894 F3048
X51.88 Y164.113 Z-2.898 F3048
X51.812 Y164.196 Z-2.902 F3048
X51.739 Y164.275 Z-2.906 F3048
X51.66 Y164.348 Z-2.91 F3048
X51.576 Y164.416 Z-2.914 F3048
X51.487 Y164.477 Z-2.917 F3048
X51.395 Y164.532 Z-2.921 F3048
X51.298 Y164.58 Z-2.925 F3048
X51.199 Y164.621 Z-2.929 F3048
X51.097 Y164.655 Z-2.933 F3048
X50.993 Y164.682 Z-2.937 F3048
X50.887 Y164.702 Z-2.941 F3048
X50.78 Y164.713 Z-2.945 F3048
X50.672 Y164.717 Z-2.949 F3048
X50.564 Y164.714 Z-2.953 F3048
X50.457 Y164.703 Z-2.957 F3048
X50.351 Y164.684 Z-2.961 F3048
X50.247 Y164.658 Z-2.964 F3048
X50.144 Y164.624 Z-2.968 F3048
X50.045 Y164.584 Z-2.972 F3048
X49.948 Y164.536 Z-2.976 F3048
X49.855 Y164.482 Z-2.98 F3048
X49.766 Y164.421 Z-2.984 F3048
X49.682 Y164.354 Z-2.988 F3048
X49.603 Y164.281 Z-2.992 F3048
X49.529 Y164.203 Z-2.996 F3048
X49.46 Y164.12 Z-3 F3048
X49.398 Y164.032 Z-3.004 F3048
X49.342 Y163.94 Z-3.008 F3048
X49.293 Y163.844 Z-3.011 F3048
X49.251 Y163.745 Z-3.015 F3048
X49.216 Y163.643 Z-3.019 F3048
X49.188 Y163.54 Z-3.023 F3048
X49.168 Y163.434 Z-3.027 F3048
X49.155 Y163.327 Z-3.031 F3048
X49.15 Y163.22 Z-3.035 F3048
X49.152 Y163.112 Z-3.039 F3048
X49.163 Y163.005 Z-3.043 F3048
X49.18 Y162.899 Z-3.047 F3048
X49.205 Y162.795 Z-3.051 F3048
X49.238 Y162.692 Z-3.055 F3048
X49.277 Y162.592 Z-3.058 F3048
X49.324 Y162.495 Z-3.062 F3048
X49.377 Y162.402 Z-3.066 F3048
X49.437 Y162.312 Z-3.07 F3048
X49.503 Y162.228 Z-3.074 F3048
X49.575 Y162.148 Z-3.078 F3048
X49.653 Y162.073 Z-3.082 F3048
X49.735 Y162.004 Z-3.086 F3048
X49.822 Y161.941 Z-3.09 F3048
X49.914 Y161.884 Z-3.094 F3048
X50.009 Y161.834 Z-3.098 F3048
X50.108 Y161.791 Z-3.102 F3048
X50.209 Y161.755 Z-3.105 F3048
X50.312 Y161.726 Z-3.109 F3048
X50.418 Y161.705 Z-3.113 F3048
X50.525 Y161.691 Z-3.117 F3048
X50.632 Y161.685 Z-3.121 F3048
X50.739 Y161.686 Z-3.125 F3048
X50.846 Y161.695 Z-3.129 F3048
X50.952 Y161.712 Z-3.133 F3048
X51.057 Y161.736 Z-3.137 F3048
X51.16 Y161.768 Z-3.141 F3048
X51.26 Y161.806 Z-3.145 F3048
X51.357 Y161.852 Z-3.149 F3048
X51.451 Y161.904 Z-3.152 F3048
X51.541 Y161.963 Z-3.156 F3048
X51.626 Y162.028 Z-3.16 F3048
X51.707 Y162.099 Z-3.164 F3048
X51.782 Y162.176 Z-3.168 F3048
X51.852 Y162.258 Z-3.172 F3048
X51.915 Y162.344 Z-3.176 F3048
X51.973 Y162.435 Z-3.18 F3048
X52.024 Y162.529 Z-3.184 F3048
X52.068 Y162.627 Z-3.188 F3048
X52.105 Y162.728 Z-3.192 F3048
X52.134 Y162.831 Z-3.196 F3048
X52.157 Y162.937 Z-3.199 F3048
X52.172 Y163.043 Z-3.203 F3048
X52.179 Y163.15 Z-3.207 F3048
Y163.257 Z-3.211 F3048
X52.171 Y163.365 Z-3.215 F3048
X52.155 Y163.471 Z-3.219 F3048
X52.132 Y163.576 Z-3.223 F3048
X52.102 Y163.679 Z-3.227 F3048
X52.064 Y163.779 Z-3.231 F3048
X52.019 Y163.877 Z-3.235 F3048
X51.968 Y163.971 Z-3.239 F3048
X51.91 Y164.061 Z-3.243 F3048
X51.846 Y164.147 Z-3.247 F3048
X51.775 Y164.228 Z-3.25 F3048
X51.7 Y164.304 Z-3.254 F3048
X51.619 Y164.375 Z-3.258 F3048
X51.533 Y164.439 Z-3.262 F3048
X51.443 Y164.497 Z-3.266 F3048
X51.349 Y164.549 Z-3.27 F3048
X51.252 Y164.594 Z-3.274 F3048
X51.151 Y164.632 Z-3.278 F3048
X51.048 Y164.663 Z-3.282 F3048
X50.944 Y164.686 Z-3.286 F3048
X50.838 Y164.702 Z-3.29 F3048
X50.731 Y164.71 Z-3.294 F3048
X50.623 Y164.711 Z-3.297 F3048
X50.516 Y164.704 Z-3.301 F3048
X50.41 Y164.689 Z-3.305 F3048
X50.305 Y164.667 Z-3.309 F3048
X50.202 Y164.638 Z-3.313 F3048
X50.101 Y164.601 Z-3.317 F3048
X50.003 Y164.558 Z-3.321 F3048
X49.908 Y164.507 Z-3.325 F3048
X49.818 Y164.45 Z-3.329 F3048
X49.731 Y164.387 Z-3.333 F3048
X49.649 Y164.317 Z-3.337 F3048
X49.573 Y164.242 Z-3.341 F3048
X49.502 Y164.162 Z-3.344 F3048
X49.436 Y164.077 Z-3.348 F3048
X49.377 Y163.988 Z-3.352 F3048
X49.325 Y163.894 Z-3.356 F3048
X49.279 Y163.798 Z-3.36 F3048
X49.24 Y163.698 Z-3.364 F3048
X49.208 Y163.595 Z-3.368 F3048
X49.184 Y163.491 Z-3.372 F3048
X49.167 Y163.385 Z-3.376 F3048
X49.158 Y163.278 Z-3.38 F3048
X49.156 Y163.171 Z-3.384 F3048
X49.162 Y163.064 Z-3.388 F3048
X49.176 Y162.958 Z-3.391 F3048
X49.197 Y162.853 Z-3.395 F3048
X49.225 Y162.75 Z-3.399 F3048
X49.261 Y162.649 Z-3.403 F3048
X49.303 Y162.55 Z-3.407 F3048
X49.353 Y162.455 Z-3.411 F3048
X49.409 Y162.364 Z-3.415 F3048
X49.471 Y162.277 Z-3.419 F3048
X49.54 Y162.195 Z-3.423 F3048
X49.614 Y162.117 Z-3.427 F3048
X49.693 Y162.046 Z-3.431 F3048
X49.778 Y161.979 Z-3.435 F3048
X49.867 Y161.92 Z-3.438 F3048
X49.959 Y161.866 Z-3.442 F3048
X50.056 Y161.819 Z-3.446 F3048
X50.155 Y161.78 Z-3.45 F3048
X50.257 Y161.747 Z-3.454 F3048
X50.361 Y161.722 Z-3.458 F3048
X50.467 Y161.704 Z-3.462 F3048
X50.573 Y161.693 Z-3.466 F3048
X50.68 Y161.691 Z-3.47 F3048
X50.787 Y161.696 Z-3.474 F3048
X50.893 Y161.708 Z-3.478 F3048
X50.998 Y161.728 Z-3.482 F3048
X51.102 Y161.755 Z-3.485 F3048
X51.203 Y161.79 Z-3.489 F3048
X51.302 Y161.831 Z-3.493 F3048
X51.397 Y161.88 Z-3.497 F3048
X51.489 Y161.935 Z-3.501 F3048
X51.576 Y161.997 Z-3.505 F3048
X51.659 Y162.064 Z-3.509 F3048
X51.737 Y162.138 Z-3.513 F3048
X51.81 Y162.216 Z-3.517 F3048
X51.876 Y162.3 Z-3.521 F3048
X51.937 Y162.388 Z-3.525 F3048
X51.991 Y162.48 Z-3.529 F3048
X52.039 Y162.576 Z-3.532 F3048
X52.08 Y162.675 Z-3.536 F3048
X52.113 Y162.777 Z-3.54 F3048
X52.14 Y162.88 Z-3.544 F3048
X52.159 Y162.986 Z-3.548 F3048
X52.17 Y163.092 Z-3.552 F3048
X52.174 Y163.199 Z-3.556 F3048
G3 X49.157 I-1.508 F3048
X52.174 I1.508 F3048
( MOVEMENT_CUTTING)
G1 X52.178 Y163.359 F3048
X52.363 Y163.941 F3048
X52.395 Y164.088 F3048
X52.402 Y164.238 F3048
X52.387 Y164.387 F3048
X52.353 Y164.533 F3048
X52.302 Y164.674 F3048
X52.237 Y164.809 F3048
X52.158 Y164.937 F3048
X52.062 Y165.063 F3048
X51.95 Y165.184 F3048
X51.822 Y165.3 F3048
X51.677 Y165.407 F3048
X51.516 Y165.503 F3048
X51.341 Y165.587 F3048
X51.154 Y165.656 F3048
X50.955 Y165.708 F3048
X50.746 Y165.741 F3048
X50.531 Y165.755 F3048
X50.31 Y165.749 F3048
X50.088 Y165.721 F3048
X49.865 Y165.671 F3048
X49.645 Y165.599 F3048
X49.43 Y165.506 F3048
X49.222 Y165.391 F3048
X49.025 Y165.255 F3048
X48.84 Y165.101 F3048
X48.669 Y164.928 F3048
X48.514 Y164.738 F3048
X48.378 Y164.534 F3048
X48.261 Y164.316 F3048
X48.164 Y164.088 F3048
X48.09 Y163.85 F3048
X48.038 Y163.606 F3048
X48.01 Y163.357 F3048
X48.005 Y163.107 F3048
X48.025 Y162.856 F3048
X48.068 Y162.608 F3048
X48.135 Y162.365 F3048
X48.224 Y162.129 F3048
X48.336 Y161.903 F3048
X48.468 Y161.688 F3048
X48.621 Y161.486 F3048
X48.792 Y161.3 F3048
X48.981 Y161.13 F3048
X49.184 Y160.98 F3048
X49.401 Y160.849 F3048
X49.63 Y160.739 F3048
X49.868 Y160.652 F3048
X50.113 Y160.588 F3048
X50.364 Y160.547 F3048
X50.617 Y160.53 F3048
X50.871 Y160.538 F3048
X51.123 Y160.569 F3048
X51.37 Y160.624 F3048
X51.612 Y160.703 F3048
X51.845 Y160.804 F3048
X52.067 Y160.927 F3048
X52.276 Y161.07 F3048
X52.471 Y161.233 F3048
X52.65 Y161.413 F3048
X52.811 Y161.61 F3048
X53.005 Y161.9 F3048
X53.291 Y162.43 F3048
X53.452 Y162.81 F3048
X53.555 Y163.141 F3048
X53.621 Y163.449 F3048
X53.655 Y163.745 F3048
X53.66 Y164.032 F3048
X53.639 Y164.312 F3048
X53.591 Y164.586 F3048
X53.518 Y164.855 F3048
X53.419 Y165.117 F3048
X53.294 Y165.37 F3048
X53.158 Y165.591 F3048
X53.144 Y165.611 F3048
X53.128 Y165.631 F3048
X53.105 Y165.659 F3048
X53.041 Y165.734 F3048
X52.976 Y165.785 F3048
X52.327 Y166.243 F3048
X52.287 Y166.27 F3048
X52.247 Y166.291 F3048
X52.101 Y166.345 F3048
X51.517 Y166.552 F3048
X51.371 Y166.6 F3048
X51.225 Y166.614 F3048
X50.496 Y166.664 F3048
X50.423 Y166.665 F3048
X50.35 Y166.652 F3048
X49.547 Y166.485 F3048
X49.511 Y166.475 F3048
X49.474 Y166.461 F3048
X49.182 Y166.311 F3048
X48.745 Y166.084 F3048
X48.672 Y166.044 F3048
X48.635 Y166.017 F3048
X48.015 Y165.438 F3048
X47.98 Y165.403 F3048
X47.952 Y165.367 F3048
X47.508 Y164.638 F3048
X47.472 Y164.565 F3048
X47.449 Y164.492 F3048
X47.245 Y163.762 F3048
X47.226 Y163.689 F3048
X47.221 Y163.653 F3048
X47.22 Y163.616 F3048
Y162.886 F3048
X47.222 Y162.74 F3048
X47.227 Y162.704 F3048
X47.236 Y162.667 F3048
X47.461 Y161.865 F3048
X47.473 Y161.828 F3048
X47.49 Y161.792 F3048
X47.533 Y161.719 F3048
X47.932 Y161.062 F3048
X47.956 Y161.025 F3048
X47.986 Y160.989 F3048
X48.015 Y160.96 F3048
X48.609 Y160.405 F3048
X48.643 Y160.375 F3048
X48.677 Y160.351 F3048
X48.745 Y160.314 F3048
X49.413 Y159.967 F3048
X49.474 Y159.937 F3048
X49.511 Y159.923 F3048
X49.547 Y159.913 F3048
X50.35 Y159.746 F3048
X50.423 Y159.733 F3048
X50.496 Y159.734 F3048
X51.225 Y159.784 F3048
X51.371 Y159.798 F3048
X51.449 Y159.821 F3048
X52.101 Y160.053 F3048
X52.247 Y160.107 F3048
X52.261 Y160.113 F3048
X52.393 Y160.201 F3048
X52.976 Y160.613 F3048
X53.024 Y160.649 F3048
X53.071 Y160.697 F3048
X53.612 Y161.363 F3048
X53.633 Y161.395 F3048
X53.651 Y161.427 F3048
X53.998 Y162.224 F3048
X54.011 Y162.263 F3048
X54.019 Y162.302 F3048
X54.12 Y163.032 F3048
X54.138 Y163.178 F3048
X54.139 Y163.215 F3048
X54.136 Y163.251 F3048
X54.025 Y164.054 F3048
X54.016 Y164.114 F3048
X54.008 Y164.144 F3048
X53.998 Y164.174 F3048
X53.67 Y164.93 F3048
X53.634 Y165.003 F3048
X53.58 Y165.076 F3048
X53.128 Y165.631 F3048
( MOVEMENT_LEAD_OUT)
G3 X52.89 Y165.739 I-0.239 J-0.209 F3048
G1 X52.889 F3048
G3 X52.704 Y165.68 J-0.318 F3048
G1 X52.678 Y165.649 Z-3.553 F3048
X52.652 Y165.618 Z-3.545 F3048
X52.627 Y165.588 Z-3.532 F3048
X52.603 Y165.56 Z-3.514 F3048
X52.595 Y165.523 Z-3.488 F3048
X52.587 Y165.49 Z-3.456 F3048
X52.581 Y165.462 Z-3.42 F3048
X52.575 Y165.439 Z-3.38 F3048
X52.572 Y165.422 Z-3.338 F3048
Y165.41 Z-3.289 F3048
Y165.406 Z-3.239 F3048
( MOVEMENT_CUTTING)
( Safe G1 --> G0)
G0 Z5 F300
( Safe G1 --> G0)
X49.883 Y161.825 F7500
G1 Z-1.056 F3048
( MOVEMENT_RAMP_HELIX)
X49.983 Y161.773 Z-1.06 F3048
X50.085 Y161.728 Z-1.064 F3048
X50.191 Y161.691 Z-1.068 F3048
X50.299 Y161.661 Z-1.072 F3048
X50.409 Y161.639 Z-1.076 F3048
X50.52 Y161.625 Z-1.08 F3048
X50.632 Y161.618 Z-1.083 F3048
X50.745 Y161.62 Z-1.087 F3048
X50.856 Y161.63 Z-1.091 F3048
X50.967 Y161.647 Z-1.095 F3048
X51.076 Y161.672 Z-1.099 F3048
X51.184 Y161.705 Z-1.103 F3048
X51.288 Y161.746 Z-1.107 F3048
X51.39 Y161.794 Z-1.111 F3048
X51.487 Y161.849 Z-1.115 F3048
X51.581 Y161.91 Z-1.119 F3048
X51.67 Y161.978 Z-1.123 F3048
X51.754 Y162.053 Z-1.127 F3048
X51.833 Y162.133 Z-1.13 F3048
X51.905 Y162.218 Z-1.134 F3048
X51.972 Y162.309 Z-1.138 F3048
X52.032 Y162.404 Z-1.142 F3048
X52.085 Y162.502 Z-1.146 F3048
X52.13 Y162.605 Z-1.15 F3048
X52.169 Y162.71 Z-1.154 F3048
X52.2 Y162.818 Z-1.158 F3048
X52.223 Y162.928 Z-1.162 F3048
X52.238 Y163.039 Z-1.166 F3048
X52.246 Y163.151 Z-1.17 F3048
X52.245 Y163.263 Z-1.174 F3048
X52.237 Y163.374 Z-1.177 F3048
X52.22 Y163.485 Z-1.181 F3048
X52.196 Y163.595 Z-1.185 F3048
X52.164 Y163.702 Z-1.189 F3048
X52.125 Y163.807 Z-1.193 F3048
X52.078 Y163.909 Z-1.197 F3048
X52.024 Y164.007 Z-1.201 F3048
X51.963 Y164.101 Z-1.205 F3048
X51.896 Y164.191 Z-1.209 F3048
X51.823 Y164.275 Z-1.213 F3048
X51.743 Y164.354 Z-1.217 F3048
X51.659 Y164.428 Z-1.221 F3048
X51.569 Y164.495 Z-1.224 F3048
X51.475 Y164.556 Z-1.228 F3048
X51.377 Y164.61 Z-1.232 F3048
X51.275 Y164.656 Z-1.236 F3048
X51.17 Y164.696 Z-1.24 F3048
X51.063 Y164.728 Z-1.244 F3048
X50.953 Y164.752 Z-1.248 F3048
X50.842 Y164.768 Z-1.252 F3048
X50.731 Y164.777 Z-1.256 F3048
X50.619 Z-1.26 F3048
X50.507 Y164.77 Z-1.264 F3048
X50.396 Y164.754 Z-1.268 F3048
X50.286 Y164.731 Z-1.271 F3048
X50.179 Y164.7 Z-1.275 F3048
X50.074 Y164.662 Z-1.279 F3048
X49.971 Y164.616 Z-1.283 F3048
X49.873 Y164.563 Z-1.287 F3048
X49.778 Y164.504 Z-1.291 F3048
X49.688 Y164.437 Z-1.295 F3048
X49.603 Y164.365 Z-1.299 F3048
X49.523 Y164.287 Z-1.303 F3048
X49.449 Y164.203 Z-1.307 F3048
X49.381 Y164.114 Z-1.311 F3048
X49.319 Y164.02 Z-1.315 F3048
X49.265 Y163.923 Z-1.318 F3048
X49.217 Y163.822 Z-1.322 F3048
X49.177 Y163.717 Z-1.326 F3048
X49.144 Y163.61 Z-1.33 F3048
X49.118 Y163.501 Z-1.334 F3048
X49.101 Y163.391 Z-1.338 F3048
X49.091 Y163.279 Z-1.342 F3048
X49.09 Y163.167 Z-1.346 F3048
X49.096 Y163.056 Z-1.35 F3048
X49.11 Y162.945 Z-1.354 F3048
X49.132 Y162.835 Z-1.358 F3048
X49.162 Y162.727 Z-1.362 F3048
X49.2 Y162.622 Z-1.365 F3048
X49.244 Y162.519 Z-1.369 F3048
X49.296 Y162.42 Z-1.373 F3048
X49.355 Y162.325 Z-1.377 F3048
X49.42 Y162.234 Z-1.381 F3048
X49.492 Y162.148 Z-1.385 F3048
X49.57 Y162.068 Z-1.389 F3048
X49.653 Y161.993 Z-1.393 F3048
X49.741 Y161.924 Z-1.397 F3048
X49.833 Y161.862 Z-1.401 F3048
X49.93 Y161.806 Z-1.405 F3048
X50.031 Y161.757 Z-1.409 F3048
X50.135 Y161.716 Z-1.412 F3048
X50.241 Y161.682 Z-1.416 F3048
X50.35 Y161.656 Z-1.42 F3048
X50.46 Y161.638 Z-1.424 F3048
X50.571 Y161.627 Z-1.428 F3048
X50.683 Y161.624 Z-1.432 F3048
X50.795 Y161.629 Z-1.436 F3048
X50.906 Y161.643 Z-1.44 F3048
X51.015 Y161.664 Z-1.444 F3048
X51.123 Y161.692 Z-1.448 F3048
X51.229 Y161.729 Z-1.452 F3048
X51.332 Y161.772 Z-1.456 F3048
X51.432 Y161.823 Z-1.46 F3048
