%
(Fusion CAM 2.0.18961)
( Posts processor: MPCNC21.cps)
( Gcode generated: Friday, April 26, 2024 5:51:11 PM GMT)
( Document: wireWiggler v176)
( Setup: boxDoor)
(When using Fusion for Personal Use, the feedrate of rapid)
(moves is reduced to match the feedrate of cutting moves,)
(which can increase machining time. Unrestricted rapid moves)
(are available with a Fusion Subscription.)
( )
( Ranges Table:)
(   X: Min=3.412 Max=153.807 Size=150.395)
(   Y: Min=3.412 Max=185.115 Size=181.703)
(   Z: Min=-6.85 Max=3 Size=9.85)
( )
( Tools Table:)
(  T2 D=3.175 CR=0 - ZMIN=-6.85 - flat end mill )
( )
( Feedrate and Scaling Properties:)
(   Feed: Travel speed X/Y = 7500)
(   Feed: Travel Speed Z = 300)
(   Feed: Enforce Feedrate = true)
(   Feed: Scale Feedrate = false)
(   Feed: Max XY Cut Speed = 900)
(   Feed: Max Z Cut Speed = 180)
(   Feed: Max Toolpath Speed = 1000)
( )
( G1->G0 Mapping Properties:)
(   Map: First G1 -> G0 Rapid = true)
(   Map: G1s -> G0 Rapids = true)
(   Map: SafeZ Mode = Retract : default = 0)
(   Map: Allow Rapid Z = true)
( )
( *** START begin ***)
( --- Start custom gcode C:\Users\Kevin\Documents\Fusion 360\NC Programs\start.gcode)
% vfd enable
M6 T0
% LED ON
M62 P0
% spindle relays on
M62 P1
%( *** START end ***)
( )
( *** SECTION begin ***)
(   X Min: 3.412 - X Max: 153.807)
(   Y Min: 3.412 - Y Max: 185.115)
(   Z Min: -6.85 - Z Max: 3)
( SafeZ retract level: 3)
( boxDoorTabs - Milling - Tool: 2 -  flat end mill)
( COMMAND_START_SPINDLE)
( COMMAND_SPINDLE_CLOCKWISE)
( >>> Spindle Speed 18000)
M3 S18000
( COMMAND_COOLANT_ON)
( >>> WARNING: No matching Coolant channel : Flood requested)
( MOVEMENT_PLUNGE)
( First G1 --> G0)
G0 Z3 F300
X3.412 Y49.305 F7500
G1 Z0.635 F339
Z0.2 F339
( MOVEMENT_RAMP)
Y94.264 Z-1.37 F3048
( MOVEMENT_FINISH_CUTTING)
Y158.128 F3048
G17 G2 X30.4 Y185.115 I26.987 F3048
G1 X126.82 F3048
G2 X153.807 Y158.128 J-26.987 F3048
G1 Y30.4 F3048
G2 X126.82 Y3.412 I-26.987 F3048
G1 X30.4 F3048
G2 X3.412 Y30.4 J26.987 F3048
G1 Y94.264 F3048
Y158.128 F3048
G2 X30.4 Y185.115 I26.987 F3048
G1 X126.82 F3048
G2 X153.807 Y158.128 J-26.987 F3048
G1 Y30.4 F3048
G2 X126.82 Y3.412 I-26.987 F3048
G1 X30.4 F3048
G2 X3.412 Y30.4 J26.987 F3048
G1 Y94.264 F3048
( MOVEMENT_RAMP)
Y136.588 Z-2.74 F3048
( MOVEMENT_FINISH_CUTTING)
Y158.128 F3048
G2 X30.4 Y185.115 I26.987 F3048
G1 X126.82 F3048
G2 X153.807 Y158.128 J-26.987 F3048
G1 Y30.4 F3048
G2 X126.82 Y3.412 I-26.987 F3048
G1 X30.4 F3048
G2 X3.412 Y30.4 J26.987 F3048
G1 Y94.264 F3048
Y136.588 F3048
Y158.128 F3048
G2 X30.4 Y185.115 I26.987 F3048
G1 X126.82 F3048
G2 X153.807 Y158.128 J-26.987 F3048
G1 Y30.4 F3048
G2 X126.82 Y3.412 I-26.987 F3048
G1 X30.4 F3048
G2 X3.412 Y30.4 J26.987 F3048
G1 Y94.264 F3048
Y136.588 F3048
( MOVEMENT_RAMP)
Y158.128 Z-3.437 F3048
X3.416 Y158.59 Z-3.452 F3048
X3.428 Y159.052 Z-3.467 F3048
X3.448 Y159.513 Z-3.482 F3048
X3.476 Y159.974 Z-3.497 F3048
X3.511 Y160.434 Z-3.512 F3048
X3.555 Y160.894 Z-3.527 F3048
X3.606 Y161.353 Z-3.542 F3048
X3.665 Y161.811 Z-3.557 F3048
X3.732 Y162.268 Z-3.572 F3048
X3.807 Y162.724 Z-3.587 F3048
X3.889 Y163.178 Z-3.602 F3048
X3.98 Y163.631 Z-3.617 F3048
X4.078 Y164.083 Z-3.632 F3048
X4.183 Y164.532 Z-3.647 F3048
X4.297 Y164.98 Z-3.662 F3048
X4.418 Y165.426 Z-3.676 F3048
X4.547 Y165.869 Z-3.691 F3048
X4.683 Y166.31 Z-3.706 F3048
X4.827 Y166.749 Z-3.721 F3048
X4.978 Y167.186 Z-3.736 F3048
X5.137 Y167.619 Z-3.751 F3048
X5.303 Y168.05 Z-3.766 F3048
X5.476 Y168.478 Z-3.781 F3048
X5.657 Y168.903 Z-3.796 F3048
X5.845 Y169.325 Z-3.811 F3048
X6.04 Y169.744 Z-3.826 F3048
X6.243 Y170.159 Z-3.841 F3048
X6.452 Y170.571 Z-3.856 F3048
X6.668 Y170.979 Z-3.871 F3048
X6.892 Y171.383 Z-3.886 F3048
X7.122 Y171.783 Z-3.901 F3048
X7.359 Y172.18 Z-3.916 F3048
X7.603 Y172.572 Z-3.931 F3048
X7.854 Y172.96 Z-3.946 F3048
X8.111 Y173.343 Z-3.961 F3048
X8.374 Y173.723 Z-3.975 F3048
X8.644 Y174.097 Z-3.99 F3048
X8.921 Y174.467 Z-4.005 F3048
X9.204 Y174.832 Z-4.02 F3048
X9.493 Y175.193 Z-4.035 F3048
X9.788 Y175.548 Z-4.05 F3048
X10.089 Y175.898 Z-4.065 F3048
X10.396 Y176.243 Z-4.08 F3048
X10.709 Y176.583 Z-4.095 F3048
X11.027 Y176.917 Z-4.11 F3048
( MOVEMENT_FINISH_CUTTING)
G2 X30.4 Y185.115 I19.373 J-18.789 F3048
G1 X126.82 F3048
G2 X153.807 Y158.128 J-26.987 F3048
G1 Y30.4 F3048
G2 X126.82 Y3.412 I-26.987 F3048
G1 X30.4 F3048
G2 X3.412 Y30.4 J26.987 F3048
G1 Y136.588 F3048
Y158.128 F3048
G2 X30.4 Y185.115 I26.987 F3048
G1 X126.82 F3048
G2 X153.807 Y158.128 J-26.987 F3048
G1 Y30.4 F3048
G2 X126.82 Y3.412 I-26.987 F3048
G1 X30.4 F3048
G2 X3.412 Y30.4 J26.987 F3048
G1 Y136.588 F3048
Y158.128 F3048
G2 X11.027 Y176.917 I26.987 F3048
( MOVEMENT_RAMP)
G1 X11.35 Y177.244 Z-4.125 F3048
X11.679 Y177.566 Z-4.14 F3048
X12.013 Y177.882 Z-4.155 F3048
X12.352 Y178.193 Z-4.17 F3048
X12.696 Y178.497 Z-4.184 F3048
X13.046 Y178.796 Z-4.199 F3048
X13.4 Y179.088 Z-4.214 F3048
X13.76 Y179.375 Z-4.229 F3048
X14.124 Y179.655 Z-4.244 F3048
X14.493 Y179.929 Z-4.259 F3048
X14.867 Y180.197 Z-4.274 F3048
X15.245 Y180.459 Z-4.289 F3048
X15.628 Y180.714 Z-4.303 F3048
X16.015 Y180.962 Z-4.318 F3048
X16.406 Y181.204 Z-4.333 F3048
X16.801 Y181.439 Z-4.348 F3048
X17.2 Y181.667 Z-4.363 F3048
X17.603 Y181.888 Z-4.378 F3048
X18.009 Y182.103 Z-4.393 F3048
X18.42 Y182.311 Z-4.408 F3048
X18.833 Y182.511 Z-4.423 F3048
X19.25 Y182.705 Z-4.437 F3048
X19.671 Y182.891 Z-4.452 F3048
X20.094 Y183.07 Z-4.467 F3048
X20.52 Y183.242 Z-4.482 F3048
X20.95 Y183.407 Z-4.497 F3048
X21.382 Y183.564 Z-4.512 F3048
X21.816 Y183.714 Z-4.527 F3048
X22.253 Y183.857 Z-4.542 F3048
X22.693 Y183.992 Z-4.556 F3048
X23.135 Y184.119 Z-4.571 F3048
X23.578 Y184.239 Z-4.586 F3048
X24.024 Y184.352 Z-4.601 F3048
X24.472 Y184.456 Z-4.616 F3048
X24.921 Y184.554 Z-4.631 F3048
X25.372 Y184.643 Z-4.646 F3048
X25.825 Y184.725 Z-4.661 F3048
X26.278 Y184.799 Z-4.676 F3048
X26.733 Y184.865 Z-4.69 F3048
X27.189 Y184.924 Z-4.705 F3048
X27.646 Y184.975 Z-4.72 F3048
X28.104 Y185.018 Z-4.735 F3048
X28.562 Y185.053 Z-4.75 F3048
X29.021 Y185.08 Z-4.765 F3048
X29.481 Y185.1 Z-4.78 F3048
X29.94 Y185.112 Z-4.795 F3048
X30.4 Y185.115 Z-4.809 F3048
X36.958 Z-5.022 F3048
Z-4.85 F3048
X51.115 F3048
( MOVEMENT_FINISH_CUTTING)
X55.133 F3048
( MOVEMENT_PLUNGE)
Z-5.48 F339
( MOVEMENT_FINISH_CUTTING)
X105.585 F3048
( MOVEMENT_REDUCED)
X106.22 F762
( MOVEMENT_FINISH_CUTTING)
Z-4.85 F3048
X124.396 F3048
( MOVEMENT_PLUNGE)
Z-5.48 F339
( MOVEMENT_FINISH_CUTTING)
X126.82 F3048
G2 X153.807 Y158.128 J-26.987 F3048
G1 Y146.916 F3048
( MOVEMENT_REDUCED)
Y146.281 F762
( MOVEMENT_FINISH_CUTTING)
Z-4.85 F3048
Y128.107 F3048
( MOVEMENT_PLUNGE)
Z-5.48 F339
( MOVEMENT_FINISH_CUTTING)
Y60.291 F3048
( MOVEMENT_REDUCED)
Y59.656 F762
( MOVEMENT_FINISH_CUTTING)
Z-4.85 F3048
Y41.481 F3048
( MOVEMENT_PLUNGE)
Z-5.48 F339
( MOVEMENT_FINISH_CUTTING)
Y30.4 F3048
G2 X126.82 Y3.412 I-26.987 F3048
G1 X123.873 F3048
( MOVEMENT_REDUCED)
X123.238 F762
( MOVEMENT_FINISH_CUTTING)
Z-4.85 F3048
X105.063 F3048
( MOVEMENT_PLUNGE)
Z-5.48 F339
( MOVEMENT_FINISH_CUTTING)
X52.681 F3048
( MOVEMENT_REDUCED)
X52.046 F762
( MOVEMENT_FINISH_CUTTING)
Z-4.85 F3048
X33.871 F3048
( MOVEMENT_PLUNGE)
Z-5.48 F339
( MOVEMENT_FINISH_CUTTING)
X30.4 F3048
G2 X3.412 Y30.4 J26.987 F3048
G1 Y41.811 F3048
( MOVEMENT_REDUCED)
Y42.445 F762
( MOVEMENT_FINISH_CUTTING)
Z-4.85 F3048
Y60.62 F3048
( MOVEMENT_PLUNGE)
Z-5.48 F339
( MOVEMENT_FINISH_CUTTING)
Y124.192 F3048
( MOVEMENT_REDUCED)
Y124.827 F762
( MOVEMENT_FINISH_CUTTING)
Z-4.85 F3048
Y143.003 F3048
( MOVEMENT_PLUNGE)
Z-5.48 F339
( MOVEMENT_FINISH_CUTTING)
Y158.128 F3048
G2 X30.4 Y185.115 I26.987 F3048
G1 X36.323 F3048
( MOVEMENT_REDUCED)
X36.958 F762
( MOVEMENT_FINISH_CUTTING)
Z-4.85 F3048
X55.133 F3048
( MOVEMENT_PLUNGE)
Z-5.48 F339
( MOVEMENT_FINISH_CUTTING)
X105.585 F3048
( MOVEMENT_REDUCED)
X106.22 F762
( MOVEMENT_FINISH_CUTTING)
Z-4.85 F3048
X124.396 F3048
( MOVEMENT_PLUNGE)
Z-5.48 F339
( MOVEMENT_FINISH_CUTTING)
X126.82 F3048
G2 X153.807 Y158.128 J-26.987 F3048
G1 Y146.916 F3048
( MOVEMENT_REDUCED)
Y146.281 F762
( MOVEMENT_FINISH_CUTTING)
Z-4.85 F3048
Y128.107 F3048
( MOVEMENT_PLUNGE)
Z-5.48 F339
( MOVEMENT_FINISH_CUTTING)
Y60.291 F3048
( MOVEMENT_REDUCED)
Y59.656 F762
( MOVEMENT_FINISH_CUTTING)
Z-4.85 F3048
Y41.481 F3048
( MOVEMENT_PLUNGE)
Z-5.48 F339
( MOVEMENT_FINISH_CUTTING)
Y30.4 F3048
G2 X126.82 Y3.412 I-26.987 F3048
G1 X123.873 F3048
( MOVEMENT_REDUCED)
X123.238 F762
( MOVEMENT_FINISH_CUTTING)
Z-4.85 F3048
X105.063 F3048
( MOVEMENT_PLUNGE)
Z-5.48 F339
( MOVEMENT_FINISH_CUTTING)
X52.681 F3048
( MOVEMENT_REDUCED)
X52.046 F762
( MOVEMENT_FINISH_CUTTING)
Z-4.85 F3048
X33.871 F3048
( MOVEMENT_PLUNGE)
Z-5.48 F339
( MOVEMENT_FINISH_CUTTING)
X30.4 F3048
G2 X3.412 Y30.4 J26.987 F3048
G1 Y41.811 F3048
( MOVEMENT_REDUCED)
Y42.445 F762
( MOVEMENT_FINISH_CUTTING)
Z-4.85 F3048
Y60.62 F3048
( MOVEMENT_PLUNGE)
Z-5.48 F339
( MOVEMENT_FINISH_CUTTING)
Y124.192 F3048
( MOVEMENT_REDUCED)
Y124.827 F762
( MOVEMENT_FINISH_CUTTING)
Z-4.85 F3048
Y143.003 F3048
( MOVEMENT_PLUNGE)
Z-5.48 F339
( MOVEMENT_FINISH_CUTTING)
Y158.128 F3048
G2 X30.4 Y185.115 I26.987 F3048
G1 X36.323 F3048
( MOVEMENT_REDUCED)
X36.958 F762
( MOVEMENT_FINISH_CUTTING)
Z-4.85 F3048
X51.115 F3048
( MOVEMENT_RAMP)
X55.133 F3048
( MOVEMENT_PLUNGE)
Z-5.61 F339
( MOVEMENT_RAMP)
X93.439 Z-6.85 F3048
( MOVEMENT_FINISH_CUTTING)
X105.585 F3048
( MOVEMENT_REDUCED)
X106.22 F762
( MOVEMENT_FINISH_CUTTING)
Z-4.85 F3048
X124.396 F3048
( MOVEMENT_PLUNGE)
Z-6.85 F339
( MOVEMENT_FINISH_CUTTING)
X126.82 F3048
G2 X153.807 Y158.128 J-26.987 F3048
G1 Y146.916 F3048
( MOVEMENT_REDUCED)
Y146.281 F762
( MOVEMENT_FINISH_CUTTING)
Z-4.85 F3048
Y128.107 F3048
( MOVEMENT_PLUNGE)
Z-6.85 F339
( MOVEMENT_FINISH_CUTTING)
Y60.291 F3048
( MOVEMENT_REDUCED)
Y59.656 F762
( MOVEMENT_FINISH_CUTTING)
Z-4.85 F3048
Y41.481 F3048
( MOVEMENT_PLUNGE)
Z-6.85 F339
( MOVEMENT_FINISH_CUTTING)
Y30.4 F3048
G2 X126.82 Y3.412 I-26.987 F3048
G1 X123.873 F3048
( MOVEMENT_REDUCED)
X123.238 F762
( MOVEMENT_FINISH_CUTTING)
Z-4.85 F3048
X105.063 F3048
( MOVEMENT_PLUNGE)
Z-6.85 F339
( MOVEMENT_FINISH_CUTTING)
X52.681 F3048
( MOVEMENT_REDUCED)
X52.046 F762
( MOVEMENT_FINISH_CUTTING)
Z-4.85 F3048
X33.871 F3048
( MOVEMENT_PLUNGE)
Z-6.85 F339
( MOVEMENT_FINISH_CUTTING)
X30.4 F3048
G2 X3.412 Y30.4 J26.987 F3048
G1 Y41.811 F3048
( MOVEMENT_REDUCED)
Y42.445 F762
( MOVEMENT_FINISH_CUTTING)
Z-4.85 F3048
Y60.62 F3048
( MOVEMENT_PLUNGE)
Z-6.85 F339
( MOVEMENT_FINISH_CUTTING)
Y124.192 F3048
( MOVEMENT_REDUCED)
Y124.827 F762
( MOVEMENT_FINISH_CUTTING)
Z-4.85 F3048
Y143.003 F3048
( MOVEMENT_PLUNGE)
Z-6.85 F339
( MOVEMENT_FINISH_CUTTING)
Y158.128 F3048
G2 X30.4 Y185.115 I26.987 F3048
G1 X36.323 F3048
( MOVEMENT_REDUCED)
X36.958 F762
( MOVEMENT_FINISH_CUTTING)
Z-4.85 F3048
X55.133 F3048
( MOVEMENT_PLUNGE)
Z-6.85 F339
( MOVEMENT_FINISH_CUTTING)
X105.585 F3048
( MOVEMENT_REDUCED)
X106.22 F762
( MOVEMENT_FINISH_CUTTING)
Z-4.85 F3048
X124.396 F3048
( MOVEMENT_PLUNGE)
Z-6.85 F339
( MOVEMENT_FINISH_CUTTING)
X126.82 F3048
G2 X153.807 Y158.128 J-26.987 F3048
G1 Y146.916 F3048
( MOVEMENT_REDUCED)
Y146.281 F762
( MOVEMENT_FINISH_CUTTING)
Z-4.85 F3048
Y128.107 F3048
( MOVEMENT_PLUNGE)
Z-6.85 F339
( MOVEMENT_FINISH_CUTTING)
Y60.291 F3048
( MOVEMENT_REDUCED)
Y59.656 F762
( MOVEMENT_FINISH_CUTTING)
Z-4.85 F3048
Y41.481 F3048
( MOVEMENT_PLUNGE)
Z-6.85 F339
( MOVEMENT_FINISH_CUTTING)
Y30.4 F3048
G2 X126.82 Y3.412 I-26.987 F3048
G1 X123.873 F3048
( MOVEMENT_REDUCED)
X123.238 F762
( MOVEMENT_FINISH_CUTTING)
Z-4.85 F3048
X105.063 F3048
( MOVEMENT_PLUNGE)
Z-6.85 F339
( MOVEMENT_FINISH_CUTTING)
X52.681 F3048
( MOVEMENT_REDUCED)
X52.046 F762
( MOVEMENT_FINISH_CUTTING)
Z-4.85 F3048
X33.871 F3048
( MOVEMENT_PLUNGE)
Z-6.85 F339
( MOVEMENT_FINISH_CUTTING)
X30.4 F3048
G2 X3.412 Y30.4 J26.987 F3048
G1 Y41.811 F3048
( MOVEMENT_REDUCED)
Y42.445 F762
( MOVEMENT_FINISH_CUTTING)
Z-4.85 F3048
Y60.62 F3048
( MOVEMENT_PLUNGE)
Z-6.85 F339
( MOVEMENT_FINISH_CUTTING)
Y124.192 F3048
( MOVEMENT_REDUCED)
Y124.827 F762
( MOVEMENT_FINISH_CUTTING)
Z-4.85 F3048
Y143.003 F3048
( MOVEMENT_PLUNGE)
Z-6.85 F339
( MOVEMENT_FINISH_CUTTING)
Y158.128 F3048
G2 X30.4 Y185.115 I26.987 F3048
G1 X36.323 F3048
( MOVEMENT_REDUCED)
X36.958 F762
( MOVEMENT_FINISH_CUTTING)
Z-4.85 F3048
X55.133 F3048
( MOVEMENT_PLUNGE)
Z-6.85 F339
( MOVEMENT_FINISH_CUTTING)
X93.439 F3048
( MOVEMENT_CUTTING)
( Safe G1 --> G0)
G0 Z3 F300
( *** SECTION end ***)
()
( *** STOP begin ***)
( --- Start custom gcode C:\Users\Kevin\Documents\Fusion 360\NC Programs\end.gcode)
% spindle relays off
M63 P1
% LED Off
M63 P0
%%
