%
(Fusion CAM 2.0.18961)
( Posts processor: MPCNC21.cps)
( Gcode generated: Friday, April 26, 2024 5:50:30 PM GMT)
( Document: wireWiggler v176)
( Setup: boxBack-full)
(When using Fusion for Personal Use, the feedrate of rapid)
(moves is reduced to match the feedrate of cutting moves,)
(which can increase machining time. Unrestricted rapid moves)
(are available with a Fusion Subscription.)
( )
( Ranges Table:)
(   X: Min=7.588 Max=189.471 Size=181.883)
(   Y: Min=7.588 Max=220.779 Size=213.191)
(   Z: Min=-12.438 Max=15 Size=27.438)
( )
( Tools Table:)
(  T2 D=3.175 CR=0 - ZMIN=-12.438 - flat end mill )
( )
( Feedrate and Scaling Properties:)
(   Feed: Travel speed X/Y = 7500)
(   Feed: Travel Speed Z = 300)
(   Feed: Enforce Feedrate = true)
(   Feed: Scale Feedrate = false)
(   Feed: Max XY Cut Speed = 900)
(   Feed: Max Z Cut Speed = 180)
(   Feed: Max Toolpath Speed = 1000)
( )
( G1->G0 Mapping Properties:)
(   Map: First G1 -> G0 Rapid = true)
(   Map: G1s -> G0 Rapids = true)
(   Map: SafeZ Mode = Retract : default = 0)
(   Map: Allow Rapid Z = true)
( )
( *** START begin ***)
( --- Start custom gcode C:\Users\Kevin\Documents\Fusion 360\NC Programs\start.gcode)
% vfd enable
M6 T0
% LED ON
M62 P0
% spindle relays on
M62 P1
%( *** START end ***)
( )
( *** SECTION begin ***)
(   X Min: 44.426 - X Max: 189.471)
(   Y Min: 44.425 - Y Max: 220.779)
(   Z Min: -6.35 - Z Max: 15)
( SafeZ retract level: 5)
( boxBackAdaptive - Milling - Tool: 2 -  flat end mill)
( COMMAND_START_SPINDLE)
( COMMAND_SPINDLE_CLOCKWISE)
( >>> Spindle Speed 18000)
M3 S18000
( COMMAND_COOLANT_ON)
( >>> WARNING: No matching Coolant channel : Flood requested)
( MOVEMENT_CUTTING)
( First G1 --> G0)
G0 Z15 F300
X181.935 Y197.187 F7500
( Safe G1 --> G0)
Z5 F300
G1 Z2.5 F3048
( MOVEMENT_RAMP_HELIX)
X182.034 Y197.135 Z2.496 F3048
X182.137 Y197.09 Z2.492 F3048
X182.243 Y197.052 Z2.488 F3048
X182.351 Y197.023 Z2.484 F3048
X182.461 Y197.001 Z2.48 F3048
X182.572 Y196.986 Z2.476 F3048
X182.684 Y196.98 Z2.473 F3048
X182.797 Y196.982 Z2.469 F3048
X182.908 Y196.991 Z2.465 F3048
X183.019 Y197.009 Z2.461 F3048
X183.128 Y197.034 Z2.457 F3048
X183.236 Y197.067 Z2.453 F3048
X183.34 Y197.107 Z2.449 F3048
X183.442 Y197.155 Z2.445 F3048
X183.539 Y197.21 Z2.441 F3048
X183.633 Y197.272 Z2.437 F3048
X183.722 Y197.34 Z2.433 F3048
X183.806 Y197.414 Z2.429 F3048
X183.885 Y197.494 Z2.426 F3048
X183.957 Y197.58 Z2.422 F3048
X184.024 Y197.67 Z2.418 F3048
X184.084 Y197.765 Z2.414 F3048
X184.137 Y197.864 Z2.41 F3048
X184.182 Y197.966 Z2.406 F3048
X184.221 Y198.072 Z2.402 F3048
X184.252 Y198.18 Z2.398 F3048
X184.275 Y198.289 Z2.394 F3048
X184.29 Y198.4 Z2.39 F3048
X184.298 Y198.512 Z2.386 F3048
X184.297 Y198.624 Z2.382 F3048
X184.288 Y198.736 Z2.379 F3048
X184.272 Y198.847 Z2.375 F3048
X184.248 Y198.956 Z2.371 F3048
X184.216 Y199.064 Z2.367 F3048
X184.177 Y199.168 Z2.363 F3048
X184.13 Y199.27 Z2.359 F3048
X184.076 Y199.368 Z2.355 F3048
X184.015 Y199.463 Z2.351 F3048
X183.948 Y199.552 Z2.347 F3048
X183.875 Y199.637 Z2.343 F3048
X183.795 Y199.716 Z2.339 F3048
X183.711 Y199.789 Z2.335 F3048
X183.621 Y199.857 Z2.332 F3048
X183.527 Y199.917 Z2.328 F3048
X183.429 Y199.971 Z2.324 F3048
X183.327 Y200.018 Z2.32 F3048
X183.222 Y200.057 Z2.316 F3048
X183.115 Y200.089 Z2.312 F3048
X183.005 Y200.113 Z2.308 F3048
X182.894 Y200.13 Z2.304 F3048
X182.783 Y200.138 Z2.3 F3048
X182.671 Y200.139 Z2.296 F3048
X182.559 Y200.131 Z2.292 F3048
X182.448 Y200.116 Z2.288 F3048
X182.338 Y200.093 Z2.285 F3048
X182.231 Y200.062 Z2.281 F3048
X182.126 Y200.024 Z2.277 F3048
X182.023 Y199.978 Z2.273 F3048
X181.925 Y199.925 Z2.269 F3048
X181.83 Y199.865 Z2.265 F3048
X181.74 Y199.799 Z2.261 F3048
X181.655 Y199.727 Z2.257 F3048
X181.575 Y199.648 Z2.253 F3048
X181.501 Y199.564 Z2.249 F3048
X181.433 Y199.476 Z2.245 F3048
X181.371 Y199.382 Z2.241 F3048
X181.317 Y199.285 Z2.238 F3048
X181.269 Y199.183 Z2.234 F3048
X181.228 Y199.079 Z2.23 F3048
X181.196 Y198.972 Z2.226 F3048
X181.17 Y198.863 Z2.222 F3048
X181.153 Y198.752 Z2.218 F3048
X181.143 Y198.641 Z2.214 F3048
X181.142 Y198.529 Z2.21 F3048
X181.148 Y198.417 Z2.206 F3048
X181.162 Y198.306 Z2.202 F3048
X181.184 Y198.197 Z2.198 F3048
X181.214 Y198.089 Z2.194 F3048
X181.251 Y197.983 Z2.191 F3048
X181.296 Y197.881 Z2.187 F3048
X181.348 Y197.782 Z2.183 F3048
X181.407 Y197.687 Z2.179 F3048
X181.472 Y197.596 Z2.175 F3048
X181.544 Y197.51 Z2.171 F3048
X181.621 Y197.429 Z2.167 F3048
X181.704 Y197.354 Z2.163 F3048
X181.793 Y197.286 Z2.159 F3048
X181.885 Y197.223 Z2.155 F3048
X181.982 Y197.168 Z2.151 F3048
X182.083 Y197.119 Z2.147 F3048
X182.187 Y197.078 Z2.144 F3048
X182.293 Y197.044 Z2.14 F3048
X182.402 Y197.018 Z2.136 F3048
X182.512 Y196.999 Z2.132 F3048
X182.623 Y196.989 Z2.128 F3048
X182.735 Y196.986 Z2.124 F3048
X182.847 Y196.991 Z2.12 F3048
X182.958 Y197.004 Z2.116 F3048
X183.067 Y197.025 Z2.112 F3048
X183.175 Y197.054 Z2.108 F3048
X183.281 Y197.09 Z2.104 F3048
X183.384 Y197.134 Z2.1 F3048
X183.483 Y197.185 Z2.096 F3048
X183.579 Y197.242 Z2.093 F3048
X183.67 Y197.307 Z2.089 F3048
X183.757 Y197.378 Z2.085 F3048
X183.838 Y197.454 Z2.081 F3048
X183.914 Y197.537 Z2.077 F3048
X183.983 Y197.624 Z2.073 F3048
X184.047 Y197.716 Z2.069 F3048
X184.103 Y197.812 Z2.065 F3048
X184.153 Y197.913 Z2.061 F3048
X184.195 Y198.016 Z2.057 F3048
X184.23 Y198.122 Z2.053 F3048
X184.257 Y198.23 Z2.049 F3048
X184.277 Y198.34 Z2.046 F3048
X184.288 Y198.451 Z2.042 F3048
X184.292 Y198.563 Z2.038 F3048
X184.288 Y198.674 Z2.034 F3048
X184.276 Y198.785 Z2.03 F3048
X184.256 Y198.895 Z2.026 F3048
X184.229 Y199.003 Z2.022 F3048
X184.193 Y199.109 Z2.018 F3048
X184.151 Y199.212 Z2.014 F3048
X184.101 Y199.312 Z2.01 F3048
X184.044 Y199.408 Z2.006 F3048
X183.981 Y199.5 Z2.002 F3048
X183.911 Y199.587 Z1.999 F3048
X183.835 Y199.669 Z1.995 F3048
X183.754 Y199.745 Z1.991 F3048
X183.667 Y199.816 Z1.987 F3048
X183.576 Y199.88 Z1.983 F3048
X183.48 Y199.937 Z1.979 F3048
X183.38 Y199.988 Z1.975 F3048
X183.277 Y200.031 Z1.971 F3048
X183.172 Y200.067 Z1.967 F3048
X183.064 Y200.095 Z1.963 F3048
X182.954 Y200.116 Z1.959 F3048
X182.843 Y200.129 Z1.955 F3048
X182.732 Y200.133 Z1.952 F3048
X182.62 Y200.13 Z1.948 F3048
X182.509 Y200.119 Z1.944 F3048
X182.399 Y200.101 Z1.94 F3048
X182.291 Y200.074 Z1.936 F3048
X182.185 Y200.04 Z1.932 F3048
X182.082 Y199.998 Z1.928 F3048
X181.981 Y199.95 Z1.924 F3048
X181.885 Y199.894 Z1.92 F3048
X181.793 Y199.831 Z1.916 F3048
X181.705 Y199.763 Z1.912 F3048
X181.622 Y199.688 Z1.908 F3048
X181.545 Y199.607 Z1.905 F3048
X181.474 Y199.521 Z1.901 F3048
X181.409 Y199.431 Z1.897 F3048
X181.351 Y199.335 Z1.893 F3048
X181.3 Y199.237 Z1.889 F3048
X181.255 Y199.134 Z1.885 F3048
X181.218 Y199.029 Z1.881 F3048
X181.189 Y198.921 Z1.877 F3048
X181.168 Y198.812 Z1.873 F3048
X181.154 Y198.701 Z1.869 F3048
X181.148 Y198.59 Z1.865 F3048
X181.15 Y198.479 Z1.861 F3048
X181.16 Y198.368 Z1.858 F3048
X181.177 Y198.258 Z1.854 F3048
X181.203 Y198.149 Z1.85 F3048
X181.236 Y198.043 Z1.846 F3048
X181.276 Y197.939 Z1.842 F3048
X181.324 Y197.838 Z1.838 F3048
X181.379 Y197.741 Z1.834 F3048
X181.44 Y197.648 Z1.83 F3048
X181.508 Y197.56 Z1.826 F3048
X181.582 Y197.477 Z1.822 F3048
X181.662 Y197.399 Z1.818 F3048
X181.747 Y197.327 Z1.814 F3048
X181.837 Y197.262 Z1.811 F3048
X181.932 Y197.203 Z1.807 F3048
X182.03 Y197.15 Z1.803 F3048
X182.132 Y197.105 Z1.799 F3048
X182.236 Y197.067 Z1.795 F3048
X182.343 Y197.037 Z1.791 F3048
X182.452 Y197.014 Z1.787 F3048
X182.563 Y196.999 Z1.783 F3048
X182.674 Y196.992 Z1.779 F3048
X182.785 Y196.993 Z1.775 F3048
X182.896 Y197.002 Z1.771 F3048
X183.006 Y197.019 Z1.767 F3048
X183.115 Y197.043 Z1.763 F3048
X183.222 Y197.075 Z1.76 F3048
X183.326 Y197.115 Z1.756 F3048
X183.427 Y197.161 Z1.752 F3048
X183.524 Y197.215 Z1.748 F3048
X183.618 Y197.276 Z1.744 F3048
X183.707 Y197.343 Z1.74 F3048
X183.79 Y197.416 Z1.736 F3048
X183.869 Y197.495 Z1.732 F3048
X183.942 Y197.579 Z1.728 F3048
X184.008 Y197.669 Z1.724 F3048
X184.068 Y197.762 Z1.72 F3048
X184.121 Y197.86 Z1.716 F3048
X184.167 Y197.961 Z1.713 F3048
X184.206 Y198.065 Z1.709 F3048
X184.237 Y198.172 Z1.705 F3048
X184.261 Y198.281 Z1.701 F3048
X184.277 Y198.391 Z1.697 F3048
X184.285 Y198.502 Z1.693 F3048
Y198.613 Z1.689 F3048
X184.278 Y198.724 Z1.685 F3048
X184.262 Y198.834 Z1.681 F3048
X184.239 Y198.943 Z1.677 F3048
X184.208 Y199.049 Z1.673 F3048
X184.169 Y199.154 Z1.669 F3048
X184.124 Y199.255 Z1.666 F3048
X184.071 Y199.353 Z1.662 F3048
X184.011 Y199.447 Z1.658 F3048
X183.945 Y199.536 Z1.654 F3048
X183.873 Y199.621 Z1.65 F3048
X183.795 Y199.7 Z1.646 F3048
X183.711 Y199.773 Z1.642 F3048
X183.623 Y199.841 Z1.638 F3048
X183.529 Y199.902 Z1.634 F3048
X183.432 Y199.956 Z1.63 F3048
X183.332 Y200.003 Z1.626 F3048
X183.228 Y200.043 Z1.622 F3048
X183.121 Y200.075 Z1.619 F3048
X183.013 Y200.1 Z1.615 F3048
X182.903 Y200.117 Z1.611 F3048
X182.793 Y200.126 Z1.607 F3048
X182.682 Y200.127 Z1.603 F3048
X182.571 Y200.12 Z1.599 F3048
X182.461 Y200.106 Z1.595 F3048
X182.352 Y200.084 Z1.591 F3048
X182.245 Y200.054 Z1.587 F3048
X182.14 Y200.017 Z1.583 F3048
X182.039 Y199.972 Z1.579 F3048
X181.94 Y199.92 Z1.575 F3048
X181.846 Y199.861 Z1.572 F3048
X181.756 Y199.796 Z1.568 F3048
X181.671 Y199.725 Z1.564 F3048
X181.591 Y199.648 Z1.56 F3048
X181.517 Y199.565 Z1.556 F3048
X181.449 Y199.477 Z1.552 F3048
X181.387 Y199.385 Z1.548 F3048
X181.332 Y199.288 Z1.544 F3048
X181.284 Y199.188 Z1.54 F3048
X181.243 Y199.085 Z1.536 F3048
X181.21 Y198.979 Z1.532 F3048
X181.184 Y198.871 Z1.528 F3048
X181.166 Y198.761 Z1.525 F3048
X181.156 Y198.651 Z1.521 F3048
X181.154 Y198.54 Z1.517 F3048
X181.159 Y198.429 Z1.513 F3048
X181.173 Y198.318 Z1.509 F3048
X181.194 Y198.21 Z1.505 F3048
X181.222 Y198.102 Z1.501 F3048
X181.259 Y197.998 Z1.497 F3048
X181.302 Y197.896 Z1.493 F3048
X181.353 Y197.797 Z1.489 F3048
X181.411 Y197.702 Z1.485 F3048
X181.475 Y197.612 Z1.481 F3048
X181.546 Y197.526 Z1.478 F3048
X181.622 Y197.446 Z1.474 F3048
X181.704 Y197.371 Z1.47 F3048
X181.791 Y197.302 Z1.466 F3048
X181.883 Y197.239 Z1.462 F3048
X181.978 Y197.184 Z1.458 F3048
X182.078 Y197.135 Z1.454 F3048
X182.181 Y197.093 Z1.45 F3048
X182.286 Y197.059 Z1.446 F3048
X182.394 Y197.032 Z1.442 F3048
X182.503 Y197.013 Z1.438 F3048
X182.614 Y197.001 Z1.434 F3048
X182.724 Y196.998 Z1.431 F3048
X182.835 Y197.002 Z1.427 F3048
X182.946 Y197.015 Z1.423 F3048
X183.055 Y197.035 Z1.419 F3048
X183.162 Y197.062 Z1.415 F3048
X183.267 Y197.098 Z1.411 F3048
X183.37 Y197.14 Z1.407 F3048
X183.469 Y197.19 Z1.403 F3048
X183.564 Y197.247 Z1.399 F3048
X183.655 Y197.31 Z1.395 F3048
X183.741 Y197.38 Z1.391 F3048
X183.822 Y197.455 Z1.387 F3048
X183.898 Y197.536 Z1.383 F3048
X183.967 Y197.623 Z1.38 F3048
X184.031 Y197.713 Z1.376 F3048
X184.087 Y197.809 Z1.372 F3048
X184.137 Y197.908 Z1.368 F3048
X184.18 Y198.01 Z1.364 F3048
X184.215 Y198.115 Z1.36 F3048
X184.243 Y198.222 Z1.356 F3048
X184.263 Y198.331 Z1.352 F3048
X184.276 Y198.441 Z1.348 F3048
X184.28 Y198.552 Z1.344 F3048
X184.277 Y198.663 Z1.34 F3048
X184.265 Y198.773 Z1.336 F3048
X184.246 Y198.882 Z1.333 F3048
X184.22 Y198.99 Z1.329 F3048
X184.186 Y199.095 Z1.325 F3048
X184.144 Y199.198 Z1.321 F3048
X184.095 Y199.297 Z1.317 F3048
X184.039 Y199.393 Z1.313 F3048
X183.977 Y199.485 Z1.309 F3048
X183.908 Y199.571 Z1.305 F3048
X183.834 Y199.653 Z1.301 F3048
X183.753 Y199.73 Z1.297 F3048
X183.668 Y199.8 Z1.293 F3048
X183.578 Y199.864 Z1.289 F3048
X183.483 Y199.922 Z1.286 F3048
X183.385 Y199.972 Z1.282 F3048
X183.283 Y200.016 Z1.278 F3048
X183.178 Y200.052 Z1.274 F3048
X183.072 Y200.081 Z1.27 F3048
X182.963 Y200.102 Z1.266 F3048
X182.853 Y200.116 Z1.262 F3048
X182.743 Y200.121 Z1.258 F3048
X182.632 Y200.119 Z1.254 F3048
X182.522 Y200.109 Z1.25 F3048
X182.413 Y200.091 Z1.246 F3048
X182.305 Y200.065 Z1.242 F3048
X182.199 Y200.032 Z1.239 F3048
X182.096 Y199.992 Z1.235 F3048
X181.996 Y199.944 Z1.231 F3048
X181.9 Y199.889 Z1.227 F3048
X181.808 Y199.828 Z1.223 F3048
X181.721 Y199.76 Z1.219 F3048
X181.638 Y199.686 Z1.215 F3048
X181.561 Y199.607 Z1.211 F3048
X181.49 Y199.522 Z1.207 F3048
X181.425 Y199.432 Z1.203 F3048
X181.367 Y199.338 Z1.199 F3048
X181.315 Y199.241 Z1.195 F3048
X181.27 Y199.139 Z1.192 F3048
X181.233 Y199.035 Z1.188 F3048
X181.203 Y198.928 Z1.184 F3048
X181.181 Y198.82 Z1.18 F3048
X181.167 Y198.711 Z1.176 F3048
X181.16 Y198.6 Z1.172 F3048
X181.161 Y198.49 Z1.168 F3048
X181.17 Y198.38 Z1.164 F3048
X181.187 Y198.27 Z1.16 F3048
X181.212 Y198.163 Z1.156 F3048
X181.244 Y198.057 Z1.152 F3048
X181.283 Y197.954 Z1.148 F3048
X181.33 Y197.853 Z1.145 F3048
X181.384 Y197.757 Z1.141 F3048
X181.444 Y197.664 Z1.137 F3048
X181.511 Y197.576 Z1.133 F3048
X181.584 Y197.493 Z1.129 F3048
X181.662 Y197.416 Z1.125 F3048
X181.746 Y197.344 Z1.121 F3048
X181.835 Y197.278 Z1.117 F3048
X181.929 Y197.218 Z1.113 F3048
X182.026 Y197.166 Z1.109 F3048
X182.126 Y197.12 Z1.105 F3048
X182.23 Y197.082 Z1.101 F3048
X182.336 Y197.051 Z1.098 F3048
X182.444 Y197.028 Z1.094 F3048
X182.554 Y197.013 Z1.09 F3048
X182.664 Y197.005 Z1.086 F3048
X182.775 Z1.082 F3048
X182.885 Y197.013 Z1.078 F3048
X182.994 Y197.029 Z1.074 F3048
X183.102 Y197.052 Z1.07 F3048
X183.208 Y197.083 Z1.066 F3048
X183.312 Y197.122 Z1.062 F3048
X183.412 Y197.167 Z1.058 F3048
X183.509 Y197.22 Z1.054 F3048
X183.602 Y197.28 Z1.05 F3048
X183.691 Y197.346 Z1.047 F3048
X183.774 Y197.418 Z1.043 F3048
X183.853 Y197.495 Z1.039 F3048
X183.925 Y197.578 Z1.035 F3048
X183.992 Y197.667 Z1.031 F3048
X184.052 Y197.759 Z1.027 F3048
X184.105 Y197.856 Z1.023 F3048
X184.152 Y197.956 Z1.019 F3048
X184.191 Y198.059 Z1.015 F3048
X184.223 Y198.165 Z1.011 F3048
X184.247 Y198.272 Z1.007 F3048
X184.264 Y198.382 Z1.003 F3048
X184.272 Y198.492 Z1 F3048
X184.273 Y198.602 Z0.996 F3048
X184.267 Y198.712 Z0.992 F3048
X184.252 Y198.822 Z0.988 F3048
X184.229 Y198.93 Z0.984 F3048
X184.199 Y199.036 Z0.98 F3048
X184.162 Y199.14 Z0.976 F3048
X184.117 Y199.241 Z0.972 F3048
X184.065 Y199.338 Z0.968 F3048
X184.007 Y199.432 Z0.964 F3048
X183.942 Y199.521 Z0.96 F3048
X183.871 Y199.605 Z0.956 F3048
X183.794 Y199.684 Z0.953 F3048
X183.712 Y199.758 Z0.949 F3048
X183.624 Y199.825 Z0.945 F3048
X183.532 Y199.886 Z0.941 F3048
X183.436 Y199.94 Z0.937 F3048
X183.337 Y199.987 Z0.933 F3048
X183.234 Y200.028 Z0.929 F3048
X183.129 Y200.06 Z0.925 F3048
X183.022 Y200.086 Z0.921 F3048
X182.913 Y200.103 Z0.917 F3048
X182.803 Y200.113 Z0.913 F3048
X182.693 Y200.115 Z0.909 F3048
X182.583 Y200.109 Z0.906 F3048
X182.473 Y200.096 Z0.902 F3048
X182.365 Y200.074 Z0.898 F3048
X182.259 Y200.045 Z0.894 F3048
X182.154 Y200.009 Z0.89 F3048
X182.053 Y199.965 Z0.886 F3048
X181.955 Y199.915 Z0.882 F3048
X181.861 Y199.857 Z0.878 F3048
X181.772 Y199.793 Z0.874 F3048
X181.687 Y199.723 Z0.87 F3048
X181.607 Y199.646 Z0.866 F3048
X181.533 Y199.565 Z0.862 F3048
X181.465 Y199.478 Z0.859 F3048
X181.403 Y199.387 Z0.855 F3048
X181.348 Y199.292 Z0.851 F3048
X181.299 Y199.193 Z0.847 F3048
X181.258 Y199.09 Z0.843 F3048
X181.224 Y198.986 Z0.839 F3048
X181.198 Y198.879 Z0.835 F3048
X181.18 Y198.77 Z0.831 F3048
X181.169 Y198.661 Z0.827 F3048
X181.166 Y198.55 Z0.823 F3048
X181.17 Y198.44 Z0.819 F3048
X181.183 Y198.331 Z0.815 F3048
X181.203 Y198.223 Z0.812 F3048
X181.231 Y198.116 Z0.808 F3048
X181.266 Y198.012 Z0.804 F3048
X181.309 Y197.91 Z0.8 F3048
X181.359 Y197.812 Z0.796 F3048
X181.415 Y197.718 Z0.792 F3048
X181.478 Y197.628 Z0.788 F3048
X181.548 Y197.542 Z0.784 F3048
X181.623 Y197.462 Z0.78 F3048
X181.704 Y197.387 Z0.776 F3048
X181.79 Y197.318 Z0.772 F3048
X181.88 Y197.255 Z0.768 F3048
X181.975 Y197.199 Z0.765 F3048
X182.074 Y197.15 Z0.761 F3048
X182.175 Y197.108 Z0.757 F3048
X182.28 Y197.073 Z0.753 F3048
X182.387 Y197.046 Z0.749 F3048
X182.495 Y197.026 Z0.745 F3048
X182.604 Y197.014 Z0.741 F3048
X182.714 Y197.01 Z0.737 F3048
X182.824 Y197.014 Z0.733 F3048
X182.933 Y197.025 Z0.729 F3048
X183.042 Y197.044 Z0.725 F3048
X183.148 Y197.071 Z0.721 F3048
X183.253 Y197.105 Z0.718 F3048
X183.355 Y197.147 Z0.714 F3048
X183.453 Y197.196 Z0.71 F3048
X183.548 Y197.251 Z0.706 F3048
X183.639 Y197.313 Z0.702 F3048
X183.725 Y197.382 Z0.698 F3048
X183.806 Y197.456 Z0.694 F3048
X183.882 Y197.536 Z0.69 F3048
X183.951 Y197.621 Z0.686 F3048
X184.015 Y197.711 Z0.682 F3048
X184.072 Y197.805 Z0.678 F3048
X184.122 Y197.903 Z0.674 F3048
X184.165 Y198.004 Z0.67 F3048
X184.201 Y198.108 Z0.667 F3048
X184.229 Y198.215 Z0.663 F3048
X184.25 Y198.323 Z0.659 F3048
X184.263 Y198.432 Z0.655 F3048
X184.268 Y198.542 Z0.651 F3048
X184.265 Y198.652 Z0.647 F3048
X184.255 Y198.761 Z0.643 F3048
X184.237 Y198.87 Z0.639 F3048
X184.211 Y198.977 Z0.635 F3048
X184.178 Y199.081 Z0.631 F3048
X184.137 Y199.184 Z0.627 F3048
X184.089 Y199.282 Z0.623 F3048
X184.035 Y199.378 Z0.62 F3048
X183.974 Y199.469 Z0.616 F3048
X183.906 Y199.556 Z0.612 F3048
X183.832 Y199.637 Z0.608 F3048
X183.753 Y199.713 Z0.604 F3048
X183.669 Y199.784 Z0.6 F3048
X183.58 Y199.848 Z0.596 F3048
X183.487 Y199.906 Z0.592 F3048
X183.389 Y199.957 Z0.588 F3048
X183.289 Y200.001 Z0.584 F3048
X183.185 Y200.038 Z0.58 F3048
X183.079 Y200.067 Z0.576 F3048
X182.971 Y200.089 Z0.573 F3048
X182.863 Y200.103 Z0.569 F3048
X182.753 Y200.109 Z0.565 F3048
X182.643 Y200.107 Z0.561 F3048
X182.534 Y200.098 Z0.557 F3048
X182.425 Y200.081 Z0.553 F3048
X182.318 Y200.056 Z0.549 F3048
X182.213 Y200.024 Z0.545 F3048
X182.11 Y199.985 Z0.541 F3048
X182.011 Y199.938 Z0.537 F3048
X181.915 Y199.884 Z0.533 F3048
X181.823 Y199.824 Z0.529 F3048
X181.736 Y199.757 Z0.526 F3048
X181.654 Y199.684 Z0.522 F3048
X181.577 Y199.606 Z0.518 F3048
X181.506 Y199.523 Z0.514 F3048
X181.441 Y199.434 Z0.51 F3048
X181.382 Y199.341 Z0.506 F3048
X181.33 Y199.245 Z0.502 F3048
X181.285 Y199.145 Z0.498 F3048
X181.248 Y199.042 Z0.494 F3048
X181.218 Y198.936 Z0.49 F3048
X181.195 Y198.829 Z0.486 F3048
X181.18 Y198.72 Z0.482 F3048
X181.172 Y198.611 Z0.479 F3048
X181.173 Y198.501 Z0.475 F3048
X181.181 Y198.392 Z0.471 F3048
X181.197 Y198.283 Z0.467 F3048
X181.221 Y198.176 Z0.463 F3048
X181.252 Y198.071 Z0.459 F3048
X181.29 Y197.968 Z0.455 F3048
X181.336 Y197.868 Z0.451 F3048
X181.389 Y197.772 Z0.447 F3048
X181.448 Y197.68 Z0.443 F3048
X181.514 Y197.592 Z0.439 F3048
X181.586 Y197.509 Z0.435 F3048
X181.663 Y197.431 Z0.432 F3048
X181.746 Y197.359 Z0.428 F3048
X181.834 Y197.294 Z0.424 F3048
X181.926 Y197.234 Z0.42 F3048
X182.022 Y197.181 Z0.416 F3048
X182.122 Y197.135 Z0.412 F3048
X182.224 Y197.097 Z0.408 F3048
X182.329 Y197.065 Z0.404 F3048
X182.436 Y197.042 Z0.4 F3048
X182.545 Y197.026 Z0.396 F3048
X182.654 Y197.017 Z0.392 F3048
X182.764 Z0.388 F3048
X182.873 Y197.024 Z0.385 F3048
X182.981 Y197.039 Z0.381 F3048
X183.089 Y197.061 Z0.377 F3048
X183.194 Y197.091 Z0.373 F3048
X183.297 Y197.129 Z0.369 F3048
X183.397 Y197.174 Z0.365 F3048
X183.494 Y197.225 Z0.361 F3048
X183.586 Y197.284 Z0.357 F3048
X183.675 Y197.348 Z0.353 F3048
X183.758 Y197.419 Z0.349 F3048
X183.837 Y197.496 Z0.345 F3048
X183.909 Y197.578 Z0.341 F3048
X183.976 Y197.665 Z0.337 F3048
X184.036 Y197.757 Z0.334 F3048
X184.09 Y197.852 Z0.33 F3048
X184.137 Y197.951 Z0.326 F3048
X184.176 Y198.053 Z0.322 F3048
X184.209 Y198.158 Z0.318 F3048
X184.233 Y198.265 Z0.314 F3048
X184.251 Y198.373 Z0.31 F3048
X184.26 Y198.482 Z0.306 F3048
X184.262 Y198.592 Z0.302 F3048
X184.256 Y198.701 Z0.298 F3048
X184.242 Y198.81 Z0.294 F3048
X184.22 Y198.917 Z0.29 F3048
X184.191 Y199.022 Z0.287 F3048
X184.155 Y199.126 Z0.283 F3048
X184.111 Y199.226 Z0.279 F3048
X184.06 Y199.323 Z0.275 F3048
X184.003 Y199.416 Z0.271 F3048
X183.939 Y199.505 Z0.267 F3048
X183.869 Y199.589 Z0.263 F3048
X183.793 Y199.668 Z0.259 F3048
X183.712 Y199.741 Z0.255 F3048
X183.626 Y199.809 Z0.251 F3048
X183.535 Y199.87 Z0.247 F3048
X183.44 Y199.924 Z0.243 F3048
X183.342 Y199.972 Z0.24 F3048
X183.24 Y200.013 Z0.236 F3048
X183.136 Y200.046 Z0.232 F3048
X183.029 Y200.072 Z0.228 F3048
X182.921 Y200.09 Z0.224 F3048
X182.812 Y200.1 Z0.22 F3048
X182.703 Y200.103 Z0.216 F3048
X182.594 Y200.098 Z0.212 F3048
X182.485 Y200.085 Z0.208 F3048
X182.377 Y200.065 Z0.204 F3048
X182.272 Y200.037 Z0.2 F3048
X182.168 Y200.001 Z0.196 F3048
X182.067 Y199.959 Z0.193 F3048
X181.97 Y199.909 Z0.189 F3048
X181.876 Y199.853 Z0.185 F3048
X181.787 Y199.79 Z0.181 F3048
X181.702 Y199.721 Z0.177 F3048
X181.623 Y199.646 Z0.173 F3048
X181.549 Y199.565 Z0.169 F3048
X181.481 Y199.48 Z0.165 F3048
X181.419 Y199.39 Z0.161 F3048
X181.363 Y199.295 Z0.157 F3048
X181.315 Y199.198 Z0.153 F3048
X181.273 Y199.096 Z0.149 F3048
X181.239 Y198.993 Z0.146 F3048
X181.212 Y198.887 Z0.142 F3048
X181.193 Y198.779 Z0.138 F3048
X181.182 Y198.67 Z0.134 F3048
X181.178 Y198.561 Z0.13 F3048
X181.182 Y198.452 Z0.126 F3048
X181.193 Y198.343 Z0.122 F3048
X181.213 Y198.236 Z0.118 F3048
X181.24 Y198.13 Z0.114 F3048
X181.274 Y198.026 Z0.11 F3048
X181.316 Y197.925 Z0.106 F3048
X181.365 Y197.827 Z0.102 F3048
X181.42 Y197.733 Z0.099 F3048
X181.482 Y197.643 Z0.095 F3048
X181.55 Y197.557 Z0.091 F3048
X181.625 Y197.477 Z0.087 F3048
X181.704 Y197.402 Z0.083 F3048
X181.789 Y197.334 Z0.079 F3048
X181.878 Y197.271 Z0.075 F3048
X181.972 Y197.215 Z0.071 F3048
X182.069 Y197.165 Z0.067 F3048
X182.17 Y197.123 Z0.063 F3048
X182.273 Y197.088 Z0.059 F3048
X182.379 Y197.06 Z0.055 F3048
X182.486 Y197.04 Z0.052 F3048
X182.594 Y197.027 Z0.048 F3048
X182.703 Y197.022 Z0.044 F3048
X182.813 Y197.025 Z0.04 F3048
X182.921 Y197.036 Z0.036 F3048
X183.029 Y197.054 Z0.032 F3048
X183.135 Y197.08 Z0.028 F3048
X183.239 Y197.113 Z0.024 F3048
X183.34 Y197.154 Z0.02 F3048
X183.438 Y197.202 Z0.016 F3048
X183.533 Y197.256 Z0.012 F3048
X183.623 Y197.317 Z0.008 F3048
X183.709 Y197.385 Z0.005 F3048
X183.79 Y197.458 Z0.001 F3048
X183.866 Y197.537 Z-0.003 F3048
X183.935 Y197.621 Z-0.007 F3048
X183.999 Y197.709 Z-0.011 F3048
X184.056 Y197.802 Z-0.015 F3048
X184.107 Y197.899 Z-0.019 F3048
X184.15 Y198 Z-0.023 F3048
X184.186 Y198.102 Z-0.027 F3048
X184.215 Y198.208 Z-0.031 F3048
X184.236 Y198.315 Z-0.035 F3048
X184.25 Y198.423 Z-0.039 F3048
X184.256 Y198.532 Z-0.043 F3048
X184.254 Y198.641 Z-0.046 F3048
X184.244 Y198.749 Z-0.05 F3048
X184.227 Y198.857 Z-0.054 F3048
X184.202 Y198.963 Z-0.058 F3048
X184.17 Y199.067 Z-0.062 F3048
X184.13 Y199.169 Z-0.066 F3048
X184.084 Y199.267 Z-0.07 F3048
X184.03 Y199.362 Z-0.074 F3048
X183.97 Y199.453 Z-0.078 F3048
X183.903 Y199.54 Z-0.082 F3048
X183.831 Y199.621 Z-0.086 F3048
X183.753 Y199.697 Z-0.09 F3048
X183.67 Y199.768 Z-0.093 F3048
X183.582 Y199.832 Z-0.097 F3048
X183.489 Y199.89 Z-0.101 F3048
X183.393 Y199.941 Z-0.105 F3048
X183.294 Y199.986 Z-0.109 F3048
X183.191 Y200.023 Z-0.113 F3048
X183.086 Y200.053 Z-0.117 F3048
X182.979 Y200.075 Z-0.121 F3048
X182.871 Y200.09 Z-0.125 F3048
X182.763 Y200.097 Z-0.129 F3048
X182.653 Y200.096 Z-0.133 F3048
X182.545 Y200.087 Z-0.137 F3048
X182.437 Y200.071 Z-0.14 F3048
X182.331 Y200.047 Z-0.144 F3048
X182.227 Y200.016 Z-0.148 F3048
X182.125 Y199.978 Z-0.152 F3048
X182.026 Y199.932 Z-0.156 F3048
X181.931 Y199.879 Z-0.16 F3048
X181.839 Y199.82 Z-0.164 F3048
X181.752 Y199.755 Z-0.168 F3048
X181.67 Y199.683 Z-0.172 F3048
X181.593 Y199.606 Z-0.176 F3048
X181.522 Y199.523 Z-0.18 F3048
X181.457 Y199.436 Z-0.184 F3048
X181.398 Y199.344 Z-0.187 F3048
X181.346 Y199.249 Z-0.191 F3048
X181.301 Y199.15 Z-0.195 F3048
X181.263 Y199.048 Z-0.199 F3048
X181.232 Y198.943 Z-0.203 F3048
X181.209 Y198.837 Z-0.207 F3048
X181.193 Y198.729 Z-0.211 F3048
X181.185 Y198.621 Z-0.215 F3048
Y198.512 Z-0.219 F3048
X181.192 Y198.403 Z-0.223 F3048
X181.207 Y198.295 Z-0.227 F3048
X181.23 Y198.189 Z-0.231 F3048
X181.26 Y198.084 Z-0.234 F3048
X181.298 Y197.982 Z-0.238 F3048
X181.342 Y197.883 Z-0.242 F3048
X181.394 Y197.787 Z-0.246 F3048
X181.452 Y197.695 Z-0.25 F3048
X181.517 Y197.607 Z-0.254 F3048
X181.588 Y197.525 Z-0.258 F3048
X181.664 Y197.447 Z-0.262 F3048
X181.746 Y197.375 Z-0.266 F3048
X181.832 Y197.309 Z-0.27 F3048
X181.923 Y197.25 Z-0.274 F3048
X182.018 Y197.197 Z-0.278 F3048
X182.117 Y197.151 Z-0.281 F3048
X182.218 Y197.112 Z-0.285 F3048
X182.322 Y197.08 Z-0.289 F3048
X182.428 Y197.056 Z-0.293 F3048
X182.536 Y197.039 Z-0.297 F3048
X182.644 Y197.03 Z-0.301 F3048
X182.753 Y197.029 Z-0.305 F3048
X182.861 Y197.035 Z-0.309 F3048
X182.969 Y197.049 Z-0.313 F3048
X183.076 Y197.071 Z-0.317 F3048
X183.181 Y197.1 Z-0.321 F3048
X183.283 Y197.136 Z-0.325 F3048
X183.383 Y197.18 Z-0.328 F3048
X183.479 Y197.231 Z-0.332 F3048
X183.571 Y197.288 Z-0.336 F3048
X183.659 Y197.352 Z-0.34 F3048
X183.743 Y197.422 Z-0.344 F3048
X183.821 Y197.497 Z-0.348 F3048
X183.894 Y197.578 Z-0.352 F3048
X183.96 Y197.664 Z-0.356 F3048
X184.021 Y197.754 Z-0.36 F3048
X184.075 Y197.849 Z-0.364 F3048
X184.122 Y197.946 Z-0.368 F3048
X184.162 Y198.048 Z-0.372 F3048
X184.194 Y198.151 Z-0.376 F3048
X184.22 Y198.257 Z-0.379 F3048
X184.237 Y198.364 Z-0.383 F3048
X184.247 Y198.472 Z-0.387 F3048
X184.25 Y198.581 Z-0.391 F3048
X184.244 Y198.689 Z-0.395 F3048
X184.231 Y198.797 Z-0.399 F3048
X184.211 Y198.904 Z-0.403 F3048
X184.183 Y199.009 Z-0.407 F3048
X184.147 Y199.111 Z-0.411 F3048
X184.105 Y199.211 Z-0.415 F3048
X184.055 Y199.308 Z-0.419 F3048
X183.998 Y199.401 Z-0.423 F3048
X183.936 Y199.489 Z-0.426 F3048
X183.867 Y199.573 Z-0.43 F3048
X183.792 Y199.652 Z-0.434 F3048
X183.712 Y199.725 Z-0.438 F3048
X183.627 Y199.793 Z-0.442 F3048
X183.537 Y199.854 Z-0.446 F3048
X183.443 Y199.909 Z-0.45 F3048
X183.346 Y199.957 Z-0.454 F3048
X183.245 Y199.998 Z-0.458 F3048
X183.142 Y200.032 Z-0.462 F3048
X183.037 Y200.058 Z-0.466 F3048
X182.93 Y200.077 Z-0.47 F3048
X182.822 Y200.088 Z-0.473 F3048
X182.713 Y200.091 Z-0.477 F3048
X182.605 Y200.087 Z-0.481 F3048
X182.497 Y200.075 Z-0.485 F3048
X182.39 Y200.055 Z-0.489 F3048
X182.285 Y200.028 Z-0.493 F3048
X182.182 Y199.994 Z-0.497 F3048
X182.082 Y199.952 Z-0.501 F3048
X181.985 Y199.904 Z-0.505 F3048
X181.892 Y199.848 Z-0.509 F3048
X181.803 Y199.786 Z-0.513 F3048
X181.718 Y199.718 Z-0.517 F3048
X181.639 Y199.644 Z-0.52 F3048
X181.565 Y199.565 Z-0.524 F3048
X181.497 Y199.481 Z-0.528 F3048
X181.435 Y199.392 Z-0.532 F3048
X181.379 Y199.299 Z-0.536 F3048
X181.33 Y199.202 Z-0.54 F3048
X181.288 Y199.102 Z-0.544 F3048
X181.254 Y198.999 Z-0.548 F3048
X181.226 Y198.894 Z-0.552 F3048
X181.207 Y198.787 Z-0.556 F3048
X181.194 Y198.679 Z-0.56 F3048
X181.19 Y198.571 Z-0.564 F3048
X181.193 Y198.463 Z-0.567 F3048
X181.204 Y198.355 Z-0.571 F3048
X181.222 Y198.248 Z-0.575 F3048
X181.248 Y198.143 Z-0.579 F3048
X181.282 Y198.04 Z-0.583 F3048
X181.322 Y197.939 Z-0.587 F3048
X181.37 Y197.842 Z-0.591 F3048
X181.425 Y197.748 Z-0.595 F3048
X181.485 Y197.658 Z-0.599 F3048
X181.553 Y197.573 Z-0.603 F3048
X181.626 Y197.493 Z-0.607 F3048
X181.704 Y197.419 Z-0.611 F3048
X181.788 Y197.35 Z-0.614 F3048
X181.876 Y197.287 Z-0.618 F3048
X181.968 Y197.23 Z-0.622 F3048
X182.065 Y197.181 Z-0.626 F3048
X182.164 Y197.138 Z-0.63 F3048
X182.267 Y197.102 Z-0.634 F3048
X182.371 Y197.074 Z-0.638 F3048
X182.478 Y197.053 Z-0.642 F3048
X182.585 Y197.04 Z-0.646 F3048
X182.693 Y197.034 Z-0.65 F3048
X182.802 Y197.037 Z-0.654 F3048
X182.91 Y197.046 Z-0.658 F3048
X183.017 Y197.064 Z-0.661 F3048
X183.122 Y197.089 Z-0.665 F3048
X183.225 Y197.121 Z-0.669 F3048
X183.326 Y197.161 Z-0.673 F3048
X183.424 Y197.208 Z-0.677 F3048
X183.518 Y197.261 Z-0.681 F3048
X183.608 Y197.321 Z-0.685 F3048
X183.694 Y197.387 Z-0.689 F3048
X183.775 Y197.459 Z-0.693 F3048
X183.85 Y197.537 Z-0.697 F3048
X183.92 Y197.62 Z-0.701 F3048
X183.983 Y197.707 Z-0.705 F3048
X184.041 Y197.799 Z-0.708 F3048
X184.091 Y197.895 Z-0.712 F3048
X184.135 Y197.994 Z-0.716 F3048
X184.171 Y198.096 Z-0.72 F3048
X184.201 Y198.2 Z-0.724 F3048
X184.222 Y198.306 Z-0.728 F3048
X184.237 Y198.413 Z-0.732 F3048
X184.243 Y198.521 Z-0.736 F3048
X184.242 Y198.63 Z-0.74 F3048
X184.233 Y198.737 Z-0.744 F3048
X184.217 Y198.844 Z-0.748 F3048
X184.193 Y198.95 Z-0.752 F3048
X184.162 Y199.053 Z-0.756 F3048
X184.123 Y199.155 Z-0.759 F3048
X184.077 Y199.253 Z-0.763 F3048
X184.025 Y199.347 Z-0.767 F3048
X183.966 Y199.438 Z-0.771 F3048
X183.9 Y199.524 Z-0.775 F3048
X183.829 Y199.606 Z-0.779 F3048
X183.752 Y199.682 Z-0.783 F3048
X183.67 Y199.752 Z-0.787 F3048
X183.583 Y199.817 Z-0.791 F3048
X183.492 Y199.875 Z-0.795 F3048
X183.397 Y199.926 Z-0.799 F3048
X183.298 Y199.971 Z-0.803 F3048
X183.197 Y200.008 Z-0.806 F3048
X183.093 Y200.039 Z-0.81 F3048
X182.988 Y200.061 Z-0.814 F3048
X182.881 Y200.077 Z-0.818 F3048
X182.773 Y200.084 Z-0.822 F3048
X182.665 Z-0.826 F3048
X182.557 Y200.076 Z-0.83 F3048
X182.45 Y200.061 Z-0.834 F3048
X182.344 Y200.038 Z-0.838 F3048
X182.241 Y200.008 Z-0.842 F3048
X182.139 Y199.97 Z-0.846 F3048
X182.041 Y199.926 Z-0.85 F3048
X181.946 Y199.874 Z-0.853 F3048
X181.855 Y199.816 Z-0.857 F3048
X181.768 Y199.752 Z-0.861 F3048
X181.686 Y199.681 Z-0.865 F3048
X181.609 Y199.605 Z-0.869 F3048
X181.538 Y199.524 Z-0.873 F3048
X181.473 Y199.437 Z-0.877 F3048
X181.414 Y199.347 Z-0.881 F3048
X181.361 Y199.252 Z-0.885 F3048
X181.316 Y199.154 Z-0.889 F3048
X181.277 Y199.053 Z-0.893 F3048
X181.246 Y198.95 Z-0.897 F3048
X181.222 Y198.844 Z-0.9 F3048
X181.206 Y198.738 Z-0.904 F3048
X181.197 Y198.63 Z-0.908 F3048
X181.196 Y198.522 Z-0.912 F3048
X181.203 Y198.414 Z-0.916 F3048
X181.217 Y198.307 Z-0.92 F3048
X181.239 Y198.202 Z-0.924 F3048
X181.268 Y198.098 Z-0.928 F3048
X181.305 Y197.996 Z-0.932 F3048
X181.349 Y197.897 Z-0.936 F3048
X181.399 Y197.802 Z-0.94 F3048
X181.456 Y197.711 Z-0.944 F3048
X181.52 Y197.623 Z-0.947 F3048
X181.589 Y197.541 Z-0.951 F3048
X181.665 Y197.463 Z-0.955 F3048
X181.745 Y197.391 Z-0.959 F3048
X181.831 Y197.325 Z-0.963 F3048
X181.921 Y197.266 Z-0.967 F3048
X182.014 Y197.212 Z-0.971 F3048
X182.112 Y197.166 Z-0.975 F3048
X182.212 Y197.127 Z-0.979 F3048
X182.315 Y197.094 Z-0.983 F3048
X182.42 Y197.07 Z-0.987 F3048
X182.527 Y197.052 Z-0.991 F3048
X182.635 Y197.043 Z-0.994 F3048
X182.742 Y197.04 Z-0.998 F3048
X182.85 Y197.046 Z-1.002 F3048
X182.957 Y197.059 Z-1.006 F3048
X183.063 Y197.08 Z-1.01 F3048
X183.167 Y197.108 Z-1.014 F3048
X183.269 Y197.144 Z-1.018 F3048
X183.368 Y197.187 Z-1.022 F3048
X183.464 Y197.236 Z-1.026 F3048
X183.556 Y197.292 Z-1.03 F3048
X183.644 Y197.355 Z-1.034 F3048
X183.727 Y197.424 Z-1.038 F3048
X183.805 Y197.498 Z-1.041 F3048
X183.877 Y197.578 Z-1.045 F3048
X183.944 Y197.662 Z-1.049 F3048
X184.005 Y197.752 Z-1.053 F3048
X184.059 Y197.845 Z-1.057 F3048
X184.106 Y197.942 Z-1.061 F3048
X184.147 Y198.042 Z-1.065 F3048
X184.18 Y198.144 Z-1.069 F3048
X184.205 Y198.249 Z-1.073 F3048
X184.224 Y198.355 Z-1.077 F3048
X184.235 Y198.463 Z-1.081 F3048
X184.238 Y198.57 Z-1.085 F3048
X184.233 Y198.678 Z-1.089 F3048
X184.221 Y198.785 Z-1.092 F3048
X184.201 Y198.891 Z-1.096 F3048
X184.174 Y198.995 Z-1.1 F3048
X184.139 Y199.098 Z-1.104 F3048
X184.098 Y199.197 Z-1.108 F3048
X184.049 Y199.293 Z-1.112 F3048
X183.994 Y199.386 Z-1.116 F3048
X183.932 Y199.474 Z-1.12 F3048
X183.864 Y199.558 Z-1.124 F3048
X183.791 Y199.637 Z-1.128 F3048
X183.712 Y199.71 Z-1.132 F3048
X183.628 Y199.777 Z-1.136 F3048
X183.539 Y199.839 Z-1.139 F3048
X183.447 Y199.893 Z-1.143 F3048
X183.35 Y199.942 Z-1.147 F3048
X183.251 Y199.983 Z-1.151 F3048
X183.149 Y200.017 Z-1.155 F3048
X183.045 Y200.044 Z-1.159 F3048
X182.939 Y200.063 Z-1.163 F3048
X182.832 Y200.075 Z-1.167 F3048
X182.724 Y200.079 Z-1.171 F3048
X182.616 Y200.076 Z-1.175 F3048
X182.509 Y200.064 Z-1.179 F3048
X182.403 Y200.046 Z-1.183 F3048
X182.299 Y200.02 Z-1.186 F3048
X182.196 Y199.986 Z-1.19 F3048
X182.097 Y199.945 Z-1.194 F3048
X182 Y199.898 Z-1.198 F3048
X181.907 Y199.843 Z-1.202 F3048
X181.818 Y199.783 Z-1.206 F3048
X181.734 Y199.716 Z-1.21 F3048
X181.655 Y199.643 Z-1.214 F3048
X181.581 Y199.565 Z-1.218 F3048
X181.512 Y199.481 Z-1.222 F3048
X181.45 Y199.393 Z-1.226 F3048
X181.394 Y199.301 Z-1.23 F3048
X181.345 Y199.206 Z-1.233 F3048
X181.303 Y199.107 Z-1.237 F3048
X181.268 Y199.005 Z-1.241 F3048
X181.24 Y198.901 Z-1.245 F3048
X181.22 Y198.796 Z-1.249 F3048
X181.207 Y198.689 Z-1.253 F3048
X181.202 Y198.581 Z-1.257 F3048
X181.204 Y198.474 Z-1.261 F3048
X181.214 Y198.367 Z-1.265 F3048
X181.232 Y198.261 Z-1.269 F3048
X181.257 Y198.156 Z-1.273 F3048
X181.29 Y198.054 Z-1.277 F3048
X181.329 Y197.954 Z-1.28 F3048
X181.376 Y197.857 Z-1.284 F3048
X181.429 Y197.763 Z-1.288 F3048
X181.489 Y197.674 Z-1.292 F3048
X181.555 Y197.589 Z-1.296 F3048
X181.627 Y197.509 Z-1.3 F3048
X181.705 Y197.435 Z-1.304 F3048
X181.787 Y197.366 Z-1.308 F3048
X181.874 Y197.303 Z-1.312 F3048
X181.966 Y197.246 Z-1.316 F3048
X182.061 Y197.196 Z-1.32 F3048
X182.159 Y197.153 Z-1.324 F3048
X182.261 Y197.117 Z-1.327 F3048
X182.364 Y197.088 Z-1.331 F3048
X182.47 Y197.067 Z-1.335 F3048
X182.576 Y197.053 Z-1.339 F3048
X182.684 Y197.047 Z-1.343 F3048
X182.791 Y197.048 Z-1.347 F3048
X182.898 Y197.057 Z-1.351 F3048
X183.004 Y197.074 Z-1.355 F3048
X183.109 Y197.098 Z-1.359 F3048
X183.212 Y197.129 Z-1.363 F3048
X183.312 Y197.168 Z-1.367 F3048
X183.409 Y197.213 Z-1.371 F3048
X183.503 Y197.266 Z-1.374 F3048
X183.593 Y197.325 Z-1.378 F3048
X183.678 Y197.39 Z-1.382 F3048
X183.759 Y197.461 Z-1.386 F3048
X183.834 Y197.537 Z-1.39 F3048
X183.904 Y197.619 Z-1.394 F3048
X183.967 Y197.706 Z-1.398 F3048
X184.025 Y197.796 Z-1.402 F3048
X184.076 Y197.891 Z-1.406 F3048
X184.12 Y197.989 Z-1.41 F3048
X184.157 Y198.09 Z-1.414 F3048
X184.186 Y198.193 Z-1.418 F3048
X184.209 Y198.298 Z-1.421 F3048
X184.224 Y198.404 Z-1.425 F3048
X184.231 Y198.512 Z-1.429 F3048
X184.23 Y198.619 Z-1.433 F3048
X184.222 Y198.726 Z-1.437 F3048
X184.207 Y198.832 Z-1.441 F3048
X184.184 Y198.937 Z-1.445 F3048
X184.153 Y199.04 Z-1.449 F3048
X184.116 Y199.141 Z-1.453 F3048
X184.071 Y199.238 Z-1.457 F3048
X184.02 Y199.333 Z-1.461 F3048
X183.962 Y199.423 Z-1.465 F3048
X183.898 Y199.509 Z-1.469 F3048
X183.827 Y199.59 Z-1.472 F3048
X183.752 Y199.666 Z-1.476 F3048
X183.671 Y199.736 Z-1.48 F3048
X183.585 Y199.801 Z-1.484 F3048
X183.495 Y199.859 Z-1.488 F3048
X183.401 Y199.911 Z-1.492 F3048
X183.304 Y199.956 Z-1.496 F3048
X183.203 Y199.993 Z-1.5 F3048
X183.1 Y200.024 Z-1.504 F3048
X182.996 Y200.047 Z-1.508 F3048
X182.89 Y200.063 Z-1.512 F3048
X182.783 Y200.072 Z-1.516 F3048
X182.675 Z-1.519 F3048
X182.568 Y200.065 Z-1.523 F3048
X182.462 Y200.051 Z-1.527 F3048
X182.357 Y200.029 Z-1.531 F3048
X182.254 Y199.999 Z-1.535 F3048
X182.153 Y199.963 Z-1.539 F3048
X182.055 Y199.919 Z-1.543 F3048
X181.96 Y199.869 Z-1.547 F3048
X181.87 Y199.812 Z-1.551 F3048
X181.783 Y199.748 Z-1.555 F3048
X181.701 Y199.679 Z-1.559 F3048
X181.625 Y199.604 Z-1.563 F3048
X181.554 Y199.524 Z-1.566 F3048
X181.488 Y199.439 Z-1.57 F3048
X181.429 Y199.349 Z-1.574 F3048
X181.377 Y199.256 Z-1.578 F3048
X181.331 Y199.159 Z-1.582 F3048
X181.292 Y199.059 Z-1.586 F3048
X181.26 Y198.957 Z-1.59 F3048
X181.236 Y198.853 Z-1.594 F3048
X181.219 Y198.747 Z-1.598 F3048
X181.21 Y198.64 Z-1.602 F3048
X181.208 Y198.533 Z-1.606 F3048
X181.214 Y198.426 Z-1.61 F3048
X181.228 Y198.32 Z-1.613 F3048
X181.249 Y198.215 Z-1.617 F3048
X181.277 Y198.111 Z-1.621 F3048
X181.312 Y198.01 Z-1.625 F3048
X181.355 Y197.912 Z-1.629 F3048
X181.405 Y197.817 Z-1.633 F3048
X181.461 Y197.726 Z-1.637 F3048
X181.523 Y197.639 Z-1.641 F3048
X181.592 Y197.556 Z-1.645 F3048
X181.666 Y197.479 Z-1.649 F3048
X181.745 Y197.407 Z-1.653 F3048
X181.83 Y197.341 Z-1.657 F3048
X181.919 Y197.281 Z-1.66 F3048
X182.011 Y197.228 Z-1.664 F3048
X182.108 Y197.181 Z-1.668 F3048
X182.207 Y197.141 Z-1.672 F3048
X182.309 Y197.109 Z-1.676 F3048
X182.413 Y197.083 Z-1.68 F3048
X182.519 Y197.065 Z-1.684 F3048
X182.625 Y197.055 Z-1.688 F3048
X182.732 Y197.052 Z-1.692 F3048
X182.839 Y197.057 Z-1.696 F3048
X182.945 Y197.07 Z-1.7 F3048
X183.05 Y197.089 Z-1.704 F3048
X183.154 Y197.117 Z-1.707 F3048
X183.255 Y197.151 Z-1.711 F3048
X183.354 Y197.193 Z-1.715 F3048
X183.449 Y197.242 Z-1.719 F3048
X183.541 Y197.297 Z-1.723 F3048
X183.628 Y197.358 Z-1.727 F3048
X183.711 Y197.426 Z-1.731 F3048
X183.789 Y197.499 Z-1.735 F3048
X183.862 Y197.578 Z-1.739 F3048
X183.928 Y197.661 Z-1.743 F3048
X183.989 Y197.75 Z-1.747 F3048
X184.043 Y197.842 Z-1.751 F3048
X184.091 Y197.938 Z-1.754 F3048
X184.132 Y198.037 Z-1.758 F3048
X184.165 Y198.138 Z-1.762 F3048
X184.192 Y198.242 Z-1.766 F3048
X184.21 Y198.347 Z-1.77 F3048
X184.222 Y198.454 Z-1.774 F3048
X184.226 Y198.561 Z-1.778 F3048
G17 G3 X181.209 I-1.508 F3048
X184.226 I1.508 F3048
( MOVEMENT_CUTTING)
G1 X184.23 Y198.721 F3048
X184.415 Y199.303 F3048
X184.447 Y199.45 F3048
X184.453 Y199.599 F3048
X184.439 Y199.749 F3048
X184.405 Y199.895 F3048
X184.354 Y200.036 F3048
X184.289 Y200.171 F3048
X184.21 Y200.298 F3048
X184.114 Y200.424 F3048
X184.002 Y200.546 F3048
X183.874 Y200.662 F3048
X183.729 Y200.769 F3048
X183.568 Y200.865 F3048
X183.393 Y200.949 F3048
X183.206 Y201.017 F3048
X183.007 Y201.069 F3048
X182.798 Y201.103 F3048
X182.583 Y201.117 F3048
X182.362 Y201.111 F3048
X182.14 Y201.082 F3048
X181.917 Y201.033 F3048
X181.697 Y200.961 F3048
X181.482 Y200.867 F3048
X181.274 Y200.752 F3048
X181.077 Y200.617 F3048
X180.892 Y200.462 F3048
X180.721 Y200.289 F3048
X180.566 Y200.1 F3048
X180.43 Y199.895 F3048
X180.313 Y199.678 F3048
X180.216 Y199.449 F3048
X180.142 Y199.212 F3048
X180.09 Y198.968 F3048
X180.062 Y198.719 F3048
X180.057 Y198.468 F3048
X180.077 Y198.218 F3048
X180.12 Y197.97 F3048
X180.186 Y197.727 F3048
X180.276 Y197.491 F3048
X180.388 Y197.264 F3048
X180.52 Y197.049 F3048
X180.673 Y196.848 F3048
X180.844 Y196.661 F3048
X181.033 Y196.492 F3048
X181.236 Y196.341 F3048
X181.453 Y196.211 F3048
X181.682 Y196.101 F3048
X181.92 Y196.014 F3048
X182.165 Y195.949 F3048
X182.416 Y195.909 F3048
X182.669 Y195.892 F3048
X182.923 Y195.899 F3048
X183.175 Y195.931 F3048
X183.422 Y195.986 F3048
X183.664 Y196.064 F3048
X183.897 Y196.166 F3048
X184.119 Y196.288 F3048
X184.328 Y196.432 F3048
X184.523 Y196.595 F3048
X184.702 Y196.775 F3048
X184.863 Y196.972 F3048
X185.057 Y197.262 F3048
X185.343 Y197.792 F3048
X185.503 Y198.172 F3048
X185.607 Y198.503 F3048
X185.673 Y198.811 F3048
X185.707 Y199.106 F3048
X185.712 Y199.393 F3048
X185.691 Y199.673 F3048
X185.643 Y199.948 F3048
X185.57 Y200.217 F3048
X185.471 Y200.479 F3048
X185.346 Y200.732 F3048
X185.196 Y200.975 F3048
X185.022 Y201.205 F3048
X184.824 Y201.421 F3048
X184.604 Y201.619 F3048
X184.362 Y201.799 F3048
X184.1 Y201.957 F3048
X183.82 Y202.091 F3048
X183.523 Y202.201 F3048
X183.212 Y202.282 F3048
X182.889 Y202.335 F3048
X182.558 Y202.357 F3048
X182.222 Y202.348 F3048
X181.884 Y202.306 F3048
X181.548 Y202.231 F3048
X181.217 Y202.124 F3048
X180.895 Y201.984 F3048
X180.585 Y201.813 F3048
X180.29 Y201.612 F3048
X180.014 Y201.382 F3048
X179.76 Y201.126 F3048
X179.53 Y200.845 F3048
X179.327 Y200.542 F3048
X179.153 Y200.22 F3048
X179.009 Y199.881 F3048
X178.898 Y199.529 F3048
X178.821 Y199.168 F3048
X178.779 Y198.799 F3048
X178.771 Y198.428 F3048
X178.799 Y198.056 F3048
X178.863 Y197.688 F3048
X178.961 Y197.328 F3048
X179.093 Y196.978 F3048
X179.258 Y196.642 F3048
X179.454 Y196.322 F3048
X179.68 Y196.023 F3048
X179.934 Y195.746 F3048
X180.213 Y195.495 F3048
X180.515 Y195.271 F3048
X180.836 Y195.076 F3048
X181.175 Y194.913 F3048
X181.528 Y194.783 F3048
X181.892 Y194.687 F3048
X182.264 Y194.626 F3048
X182.639 Y194.6 F3048
X183.016 Y194.61 F3048
X183.39 Y194.657 F3048
X183.757 Y194.738 F3048
X184.116 Y194.854 F3048
X184.462 Y195.003 F3048
X184.792 Y195.185 F3048
X185.107 Y195.4 F3048
X185.414 Y195.656 F3048
X185.755 Y195.999 F3048
X186.07 Y196.383 F3048
X186.345 Y196.793 F3048
X186.574 Y197.215 F3048
X186.757 Y197.645 F3048
X186.893 Y198.077 F3048
X186.986 Y198.509 F3048
X187.036 Y198.939 F3048
X187.044 Y199.364 F3048
X187.013 Y199.783 F3048
X186.943 Y200.195 F3048
X186.834 Y200.596 F3048
X186.687 Y200.984 F3048
X186.505 Y201.358 F3048
X186.286 Y201.713 F3048
X186.034 Y202.049 F3048
X185.749 Y202.36 F3048
X185.432 Y202.646 F3048
X185.087 Y202.903 F3048
X184.715 Y203.128 F3048
X184.319 Y203.319 F3048
X183.903 Y203.473 F3048
X183.468 Y203.588 F3048
X183.021 Y203.662 F3048
X182.564 Y203.694 F3048
X182.101 Y203.681 F3048
X181.638 Y203.625 F3048
X181.178 Y203.523 F3048
X180.727 Y203.378 F3048
X180.288 Y203.188 F3048
X179.867 Y202.957 F3048
X179.467 Y202.685 F3048
X179.093 Y202.374 F3048
X178.748 Y202.028 F3048
X178.437 Y201.649 F3048
X178.162 Y201.24 F3048
X177.926 Y200.806 F3048
X177.732 Y200.35 F3048
X177.582 Y199.876 F3048
X177.477 Y199.389 F3048
X177.419 Y198.892 F3048
X177.408 Y198.392 F3048
X177.445 Y197.892 F3048
X177.53 Y197.397 F3048
X177.661 Y196.912 F3048
X177.838 Y196.44 F3048
X178.059 Y195.988 F3048
X178.323 Y195.558 F3048
X178.626 Y195.154 F3048
X178.967 Y194.781 F3048
X179.341 Y194.442 F3048
X179.747 Y194.14 F3048
X180.179 Y193.878 F3048
X180.635 Y193.657 F3048
X181.109 Y193.481 F3048
X181.599 Y193.351 F3048
X182.098 Y193.268 F3048
X182.603 Y193.233 F3048
X183.11 Y193.246 F3048
X183.613 Y193.308 F3048
X184.108 Y193.416 F3048
X184.591 Y193.572 F3048
X185.061 Y193.774 F3048
X185.517 Y194.024 F3048
X185.968 Y194.331 F3048
X186.41 Y194.697 F3048
X186.827 Y195.115 F3048
X187.207 Y195.578 F3048
X187.542 Y196.074 F3048
X187.826 Y196.596 F3048
X188.057 Y197.137 F3048
X188.233 Y197.69 F3048
X188.353 Y198.25 F3048
X188.42 Y198.812 F3048
X188.432 Y199.372 F3048
X188.392 Y199.927 F3048
X188.299 Y200.472 F3048
X188.156 Y201.004 F3048
X187.963 Y201.52 F3048
X187.721 Y202.015 F3048
X187.433 Y202.485 F3048
X187.101 Y202.928 F3048
X186.726 Y203.34 F3048
X186.311 Y203.716 F3048
X185.86 Y204.053 F3048
X185.374 Y204.348 F3048
X184.859 Y204.597 F3048
X184.318 Y204.798 F3048
X183.756 Y204.948 F3048
X183.178 Y205.045 F3048
X182.589 Y205.086 F3048
X181.995 Y205.071 F3048
X181.4 Y204.999 F3048
X180.811 Y204.871 F3048
X180.234 Y204.685 F3048
X179.673 Y204.445 F3048
X179.135 Y204.15 F3048
X178.626 Y203.805 F3048
X178.149 Y203.41 F3048
X177.71 Y202.971 F3048
X177.314 Y202.49 F3048
X176.964 Y201.972 F3048
X176.664 Y201.421 F3048
X176.417 Y200.843 F3048
X176.225 Y200.242 F3048
X176.091 Y199.625 F3048
X176.017 Y198.997 F3048
X176.012 Y198.789 F3048
X176.013 Y198.737 F3048
X176.019 Y198.684 F3048
X176.03 Y198.633 F3048
X176.065 Y198.498 F3048
X176.099 Y198.352 F3048
X176.15 Y197.768 F3048
X176.238 Y197.132 F3048
X176.346 Y196.614 F3048
X176.511 Y196.081 F3048
X176.733 Y195.547 F3048
X177.011 Y195.025 F3048
X177.344 Y194.523 F3048
X177.731 Y194.046 F3048
X178.167 Y193.601 F3048
X178.648 Y193.195 F3048
X179.169 Y192.835 F3048
X179.725 Y192.525 F3048
X180.308 Y192.268 F3048
X180.915 Y192.067 F3048
X181.539 Y191.925 F3048
X182.173 Y191.843 F3048
X182.813 Y191.821 F3048
X183.453 Y191.861 F3048
X184.086 Y191.96 F3048
X184.708 Y192.12 F3048
X185.312 Y192.339 F3048
X185.893 Y192.613 F3048
X186.446 Y192.939 F3048
X186.967 Y193.314 F3048
X187.454 Y193.733 F3048
X187.904 Y194.191 F3048
X188.315 Y194.685 F3048
X188.683 Y195.211 F3048
X189.004 Y195.767 F3048
X189.277 Y196.348 F3048
X189.406 Y196.698 F3048
X189.427 Y196.774 F3048
X189.439 Y196.851 F3048
X189.44 Y196.93 F3048
X189.318 Y198.936 F3048
X189.287 Y199.373 F3048
X189.268 Y199.519 F3048
X188.84 Y201.854 F3048
X188.781 Y202.146 F3048
X188.751 Y202.292 F3048
X188.599 Y202.774 F3048
X188.445 Y203.135 F3048
X188.239 Y203.514 F3048
X187.98 Y203.9 F3048
X187.643 Y204.31 F3048
X187.235 Y204.72 F3048
X186.768 Y205.108 F3048
X186.253 Y205.459 F3048
X185.69 Y205.768 F3048
X185.101 Y206.023 F3048
X184.491 Y206.225 F3048
X183.866 Y206.372 F3048
X183.231 Y206.466 F3048
X182.59 Y206.506 F3048
X181.948 Y206.493 F3048
X181.309 Y206.427 F3048
X180.678 Y206.308 F3048
X180.06 Y206.134 F3048
X179.458 Y205.91 F3048
X178.876 Y205.638 F3048
X178.319 Y205.319 F3048
X177.788 Y204.958 F3048
X177.288 Y204.555 F3048
X176.823 Y204.112 F3048
X176.396 Y203.632 F3048
X176.01 Y203.119 F3048
X175.665 Y202.577 F3048
X175.364 Y202.01 F3048
X175.186 Y201.598 F3048
X175.143 Y201.443 F3048
X175.145 Y201.283 F3048
X175.192 Y201.129 F3048
X175.534 Y200.395 F3048
X175.599 Y200.249 F3048
X175.989 Y198.79 F3048
X176.03 Y198.633 F3048
( MOVEMENT_LEAD_OUT)
X176.046 Y198.586 Z-1.758 F3048
X176.07 Y198.542 Z-1.738 F3048
X176.1 Y198.502 Z-1.718 F3048
X176.136 Y198.467 Z-1.698 F3048
X176.176 Y198.439 Z-1.678 F3048
X176.221 Y198.417 Z-1.658 F3048
X176.269 Y198.402 Z-1.638 F3048
X176.318 Y198.395 Z-1.618 F3048
X176.368 Y198.396 Z-1.598 F3048
X176.417 Y198.405 Z-1.578 F3048
G3 X176.258 Y199.02 I-0.079 J0.307 F3048
X176.091 Y198.512 I0.079 J-0.307 F3048
( MOVEMENT_LINK_DIRECT)
G1 X176.345 Y198.2 F3048
G3 X176.838 Y198.6 I0.246 J0.2 F3048
X176.305 Y198.538 I-0.246 J-0.2 F3048
X176.203 Y198.262 I1.426 J-0.687 F3048
( MOVEMENT_LEAD_IN)
G1 X176.18 Y198.165 Z-1.618 F3048
X176.163 Y198.066 Z-1.658 F3048
X176.153 Y197.967 Z-1.698 F3048
X176.148 Y197.868 Z-1.738 F3048
X176.15 Y197.768 Z-1.778 F3048
( MOVEMENT_CUTTING)
X176.26 Y196.522 F3048
X176.264 Y196.454 F3048
X176.27 Y196.017 F3048
Y194.849 F3048
X176.279 Y194.689 F3048
X176.312 Y194.458 F3048
X176.373 Y194.21 F3048
X176.478 Y193.909 F3048
X176.615 Y193.612 F3048
X176.823 Y193.254 F3048
X177.07 Y192.908 F3048
X177.406 Y192.521 F3048
X177.828 Y192.121 F3048
X178.298 Y191.754 F3048
X178.839 Y191.408 F3048
X179.41 Y191.114 F3048
X180.004 Y190.87 F3048
X180.616 Y190.676 F3048
X181.241 Y190.531 F3048
X181.877 Y190.436 F3048
X182.517 Y190.394 F3048
X182.839 Y190.4 F3048
X182.999 Y190.408 F3048
X183.64 Y190.45 F3048
X184.275 Y190.543 F3048
X184.901 Y190.688 F3048
X185.512 Y190.884 F3048
X186.107 Y191.127 F3048
X186.681 Y191.415 F3048
X187.232 Y191.744 F3048
X187.758 Y192.112 F3048
X188.255 Y192.519 F3048
X188.721 Y192.961 F3048
X189.153 Y193.436 F3048
X189.347 Y193.681 F3048
X189.415 Y193.789 F3048
X189.456 Y193.909 F3048
X189.471 Y194.036 F3048
X189.47 Y196.017 F3048
X189.466 Y196.454 F3048
X189.459 Y196.6 F3048
X189.44 Y196.93 F3048
( MOVEMENT_LEAD_OUT)
X189.434 Y196.973 Z-1.76 F3048
X189.422 Y197.015 Z-1.743 F3048
X189.405 Y197.055 Z-1.725 F3048
X189.383 Y197.093 Z-1.708 F3048
X189.355 Y197.127 Z-1.69 F3048
X189.324 Y197.156 Z-1.673 F3048
X189.289 Y197.189 Z-1.654 F3048
X189.26 Y197.226 Z-1.635 F3048
X189.237 Y197.268 Z-1.616 F3048
X189.22 Y197.312 Z-1.597 F3048
X189.21 Y197.358 Z-1.578 F3048
Y197.36 F3048
X189.177 Y197.604 F3048
( MOVEMENT_LINK_DIRECT)
X188.67 Y201.363 F3048
G2 X188.685 Y201.51 I0.315 J0.042 F3048
G3 X188.756 Y201.796 I-1.494 J0.521 F3048
( MOVEMENT_LEAD_IN)
G1 X188.767 Y201.895 Z-1.618 F3048
X188.773 Y201.994 Z-1.658 F3048
X188.772 Y202.094 Z-1.698 F3048
X188.765 Y202.194 Z-1.738 F3048
X188.751 Y202.292 Z-1.778 F3048
( MOVEMENT_CUTTING)
X188.713 Y202.438 F3048
X187.985 Y204.773 F3048
X187.932 Y204.926 F3048
X187.822 Y205.211 F3048
X187.718 Y205.447 F3048
X187.599 Y205.66 F3048
X187.425 Y205.91 F3048
X187.218 Y206.155 F3048
X186.934 Y206.432 F3048
X186.604 Y206.698 F3048
X186.172 Y206.983 F3048
X185.661 Y207.254 F3048
X185.086 Y207.492 F3048
X184.472 Y207.681 F3048
X183.844 Y207.815 F3048
X183.208 Y207.9 F3048
X182.566 Y207.938 F3048
X181.924 Y207.929 F3048
X181.284 Y207.875 F3048
X180.65 Y207.773 F3048
X180.026 Y207.624 F3048
X179.413 Y207.432 F3048
X178.814 Y207.199 F3048
X178.233 Y206.926 F3048
X177.672 Y206.615 F3048
X177.133 Y206.265 F3048
X176.621 Y205.877 F3048
X176.137 Y205.455 F3048
X175.683 Y205.001 F3048
X175.261 Y204.517 F3048
X174.871 Y204.007 F3048
X174.517 Y203.471 F3048
X174.356 Y203.184 F3048
X174.298 Y203.035 F3048
X174.284 Y202.876 F3048
X174.314 Y202.719 F3048
X174.387 Y202.576 F3048
X174.777 Y202.019 F3048
X175.192 Y201.129 F3048
( MOVEMENT_LEAD_OUT)
X175.218 Y201.087 Z-1.758 F3048
X175.25 Y201.049 Z-1.738 F3048
X175.288 Y201.017 Z-1.718 F3048
X175.33 Y200.991 Z-1.698 F3048
X175.376 Y200.972 Z-1.678 F3048
X175.424 Y200.96 Z-1.658 F3048
X175.473 Y200.956 Z-1.639 F3048
X175.523 Y200.959 Z-1.619 F3048
X175.571 Y200.971 Z-1.599 F3048
X175.62 Y200.986 Z-1.578 F3048
X175.857 Y201.062 F3048
( MOVEMENT_LINK_DIRECT)
X187.389 Y204.732 F3048
( MOVEMENT_LEAD_IN)
X187.619 Y204.805 F3048
X187.626 Y204.808 F3048
X187.672 Y204.828 Z-1.598 F3048
X187.714 Y204.854 Z-1.618 F3048
X187.751 Y204.888 Z-1.638 F3048
X187.782 Y204.926 Z-1.658 F3048
X187.808 Y204.969 Z-1.678 F3048
X187.826 Y205.015 Z-1.698 F3048
X187.837 Y205.064 Z-1.718 F3048
X187.84 Y205.114 Z-1.738 F3048
X187.835 Y205.163 Z-1.758 F3048
X187.822 Y205.211 Z-1.778 F3048
( MOVEMENT_CUTTING)
X187.766 Y205.357 F3048
X186.912 Y207.255 F3048
X186.808 Y207.457 F3048
X186.691 Y207.641 F3048
X186.542 Y207.832 F3048
X186.358 Y208.026 F3048
X186.106 Y208.246 F3048
X185.822 Y208.45 F3048
X185.44 Y208.671 F3048
X184.995 Y208.877 F3048
X184.453 Y209.066 F3048
X183.83 Y209.22 F3048
X183.195 Y209.316 F3048
X182.554 Y209.364 F3048
X181.912 Y209.366 F3048
X181.271 Y209.324 F3048
X180.635 Y209.239 F3048
X180.005 Y209.112 F3048
X179.385 Y208.946 F3048
X178.776 Y208.743 F3048
X178.179 Y208.504 F3048
X177.598 Y208.231 F3048
X177.034 Y207.925 F3048
X176.489 Y207.584 F3048
X175.967 Y207.21 F3048
X175.469 Y206.805 F3048
X174.995 Y206.372 F3048
X174.548 Y205.911 F3048
X174.128 Y205.425 F3048
X173.736 Y204.916 F3048
X173.504 Y204.557 F3048
X173.427 Y204.408 F3048
X173.37 Y204.239 F3048
X173.369 Y204.061 F3048
X173.422 Y203.891 F3048
X173.525 Y203.746 F3048
X173.633 Y203.635 F3048
X173.659 Y203.606 F3048
X173.768 Y203.46 F3048
X174.387 Y202.576 F3048
( MOVEMENT_LEAD_OUT)
X174.416 Y202.542 Z-1.76 F3048
X174.45 Y202.513 Z-1.742 F3048
X174.488 Y202.489 Z-1.724 F3048
X174.529 Y202.47 Z-1.706 F3048
X174.572 Y202.457 Z-1.688 F3048
X174.616 Y202.451 Z-1.67 F3048
X174.661 Z-1.652 F3048
X174.706 Y202.457 Z-1.634 F3048
X174.749 Y202.469 Z-1.616 F3048
X174.837 Y202.501 Z-1.578 F3048
X175.07 Y202.586 F3048
( MOVEMENT_LINK_DIRECT)
X186.505 Y206.755 F3048
( MOVEMENT_LEAD_IN)
X186.727 Y206.836 F3048
G3 X186.738 Y206.841 I-0.109 J0.298 F3048
G1 X186.783 Y206.863 Z-1.598 F3048
X186.823 Y206.892 Z-1.618 F3048
X186.859 Y206.927 Z-1.638 F3048
X186.888 Y206.967 Z-1.658 F3048
X186.911 Y207.012 Z-1.678 F3048
X186.927 Y207.059 Z-1.698 F3048
X186.935 Y207.108 Z-1.718 F3048
Y207.158 Z-1.738 F3048
X186.927 Y207.207 Z-1.758 F3048
X186.912 Y207.255 Z-1.778 F3048
( MOVEMENT_CUTTING)
X186.765 Y207.58 F3048
X186.711 Y207.692 F3048
X186.638 Y207.838 F3048
X185.844 Y209.152 F3048
X185.699 Y209.366 F3048
X185.57 Y209.523 F3048
X185.393 Y209.7 F3048
X185.188 Y209.87 F3048
X184.925 Y210.048 F3048
X184.602 Y210.225 F3048
X184.199 Y210.399 F3048
X183.725 Y210.551 F3048
X183.133 Y210.68 F3048
X182.496 Y210.758 F3048
X181.854 Y210.781 F3048
X181.212 Y210.756 F3048
X180.574 Y210.689 F3048
X179.94 Y210.582 F3048
X179.315 Y210.436 F3048
X178.699 Y210.256 F3048
X178.093 Y210.043 F3048
X177.499 Y209.798 F3048
X176.919 Y209.523 F3048
X176.354 Y209.217 F3048
X175.806 Y208.882 F3048
X175.278 Y208.518 F3048
X174.769 Y208.125 F3048
X174.283 Y207.706 F3048
X173.819 Y207.262 F3048
X173.378 Y206.795 F3048
X172.963 Y206.305 F3048
X172.682 Y205.919 F3048
X172.513 Y205.633 F3048
X172.384 Y205.358 F3048
X172.382 Y205.35 F3048
X172.349 Y205.192 F3048
X172.363 Y205.031 F3048
X172.42 Y204.88 F3048
X172.518 Y204.752 F3048
X172.789 Y204.482 F3048
X173.525 Y203.746 F3048
( MOVEMENT_LEAD_OUT)
X173.561 Y203.716 Z-1.759 F3048
X173.6 Y203.692 Z-1.741 F3048
X173.643 Y203.675 Z-1.722 F3048
X173.687 Y203.663 Z-1.704 F3048
X173.733 Y203.658 Z-1.685 F3048
X173.779 Y203.66 Z-1.667 F3048
X173.825 Y203.668 Z-1.648 F3048
X173.868 Y203.683 Z-1.63 F3048
X173.987 Y203.733 Z-1.578 F3048
X174.216 Y203.831 F3048
( MOVEMENT_LINK_DIRECT)
X185.493 Y208.621 F3048
( MOVEMENT_LEAD_IN)
X185.69 Y208.705 F3048
G3 X185.721 Y208.72 I-0.124 J0.292 F3048
G1 X185.763 Y208.748 Z-1.598 F3048
X185.799 Y208.781 Z-1.618 F3048
X185.83 Y208.821 Z-1.638 F3048
X185.854 Y208.864 Z-1.658 F3048
X185.872 Y208.911 Z-1.678 F3048
X185.882 Y208.959 Z-1.698 F3048
X185.884 Y209.009 Z-1.718 F3048
X185.878 Y209.059 Z-1.738 F3048
X185.864 Y209.107 Z-1.758 F3048
X185.844 Y209.152 Z-1.778 F3048
( MOVEMENT_CUTTING)
X185.226 Y210.174 F3048
X185.16 Y210.279 F3048
X184.673 Y210.903 F3048
X184.496 Y211.107 F3048
X184.347 Y211.249 F3048
X184.15 Y211.404 F3048
X183.902 Y211.563 F3048
X183.616 Y211.71 F3048
X183.246 Y211.858 F3048
X182.812 Y211.985 F3048
X182.284 Y212.087 F3048
X181.645 Y212.147 F3048
X181.003 Y212.148 F3048
X180.363 Y212.099 F3048
X179.727 Y212.007 F3048
X179.098 Y211.878 F3048
X178.477 Y211.714 F3048
X177.866 Y211.517 F3048
X177.265 Y211.289 F3048
X176.676 Y211.033 F3048
X176.101 Y210.749 F3048
X175.539 Y210.437 F3048
X174.993 Y210.1 F3048
X174.463 Y209.736 F3048
X173.951 Y209.349 F3048
X173.458 Y208.937 F3048
X172.986 Y208.502 F3048
X172.534 Y208.046 F3048
X172.108 Y207.565 F3048
X171.747 Y207.094 F3048
X171.536 Y206.755 F3048
X171.399 Y206.481 F3048
X171.297 Y206.215 F3048
X171.28 Y206.153 F3048
X171.259 Y205.979 F3048
X171.292 Y205.806 F3048
X171.376 Y205.652 F3048
X171.502 Y205.531 F3048
X172.174 Y205.06 F3048
X172.32 Y204.948 F3048
X172.518 Y204.752 F3048
( MOVEMENT_LEAD_OUT)
X172.555 Y204.722 Z-1.759 F3048
X172.596 Y204.699 Z-1.74 F3048
X172.641 Y204.681 Z-1.721 F3048
X172.687 Y204.671 Z-1.701 F3048
X172.735 Y204.668 Z-1.682 F3048
X172.782 Y204.671 Z-1.663 F3048
X172.829 Y204.682 Z-1.644 F3048
X172.873 Y204.7 Z-1.625 F3048
X172.978 Y204.752 Z-1.578 F3048
X173.201 Y204.861 F3048
( MOVEMENT_LINK_DIRECT)
X184.383 Y210.346 F3048
( MOVEMENT_LEAD_IN)
X184.556 Y210.431 F3048
G3 X184.603 Y210.46 I-0.14 J0.285 F3048
G1 X184.641 Y210.492 Z-1.598 F3048
X184.673 Y210.53 Z-1.618 F3048
X184.699 Y210.573 Z-1.638 F3048
X184.718 Y210.619 Z-1.658 F3048
X184.73 Y210.667 Z-1.678 F3048
X184.733 Y210.717 Z-1.698 F3048
X184.729 Y210.766 Z-1.718 F3048
X184.718 Y210.815 Z-1.738 F3048
X184.699 Y210.861 Z-1.758 F3048
X184.673 Y210.903 Z-1.778 F3048
( MOVEMENT_CUTTING)
X183.643 Y212.217 F3048
X183.462 Y212.443 F3048
X183.359 Y212.559 F3048
X183.214 Y212.694 F3048
X183.024 Y212.839 F3048
X182.816 Y212.969 F3048
X182.544 Y213.105 F3048
X182.223 Y213.229 F3048
X181.823 Y213.341 F3048
X181.357 Y213.425 F3048
X180.773 Y213.473 F3048
X180.131 Y213.465 F3048
X179.492 Y213.402 F3048
X178.859 Y213.296 F3048
X178.233 Y213.151 F3048
X177.617 Y212.972 F3048
X177.01 Y212.761 F3048
X176.414 Y212.522 F3048
X175.829 Y212.256 F3048
X175.257 Y211.964 F3048
X174.698 Y211.648 F3048
X174.154 Y211.308 F3048
X173.624 Y210.945 F3048
X173.11 Y210.56 F3048
X172.613 Y210.153 F3048
X172.134 Y209.725 F3048
X171.676 Y209.276 F3048
X171.241 Y208.802 F3048
X170.838 Y208.302 F3048
X170.533 Y207.844 F3048
X170.347 Y207.499 F3048
X170.227 Y207.213 F3048
X170.144 Y206.949 F3048
X170.123 Y206.847 F3048
X170.115 Y206.656 F3048
X170.171 Y206.474 F3048
X170.283 Y206.32 F3048
X170.44 Y206.211 F3048
X170.707 Y206.087 F3048
X170.715 Y206.082 F3048
X171.502 Y205.531 F3048
( MOVEMENT_LEAD_OUT)
X171.545 Y205.507 Z-1.758 F3048
X171.592 Y205.491 Z-1.738 F3048
X171.64 Y205.482 Z-1.719 F3048
X171.689 Y205.48 Z-1.699 F3048
X171.738 Y205.486 Z-1.679 F3048
X171.785 Y205.499 Z-1.659 F3048
X171.83 Y205.52 Z-1.64 F3048
X171.964 Y205.595 Z-1.578 F3048
X172.181 Y205.716 F3048
( MOVEMENT_LINK_DIRECT)
X183.183 Y211.875 F3048
( MOVEMENT_LEAD_IN)
X183.363 Y211.976 F3048
G3 X183.398 Y211.999 I-0.155 J0.277 F3048
G1 X183.435 Y212.032 Z-1.598 F3048
X183.467 Y212.07 Z-1.618 F3048
X183.492 Y212.113 Z-1.638 F3048
X183.511 Y212.159 Z-1.658 F3048
X183.522 Y212.208 Z-1.678 F3048
X183.525 Y212.257 Z-1.698 F3048
X183.52 Y212.307 Z-1.718 F3048
X183.508 Y212.355 Z-1.738 F3048
X183.488 Y212.401 Z-1.758 F3048
X183.462 Y212.443 Z-1.778 F3048
( MOVEMENT_CUTTING)
X183.409 Y212.509 F3048
X183.286 Y212.655 F3048
X181.972 Y213.968 F3048
X181.861 Y214.069 F3048
X181.698 Y214.188 F3048
X181.487 Y214.314 F3048
X181.252 Y214.426 F3048
X180.953 Y214.534 F3048
X180.599 Y214.625 F3048
X180.155 Y214.696 F3048
X179.642 Y214.728 F3048
X179 Y214.707 F3048
X178.363 Y214.625 F3048
X177.734 Y214.495 F3048
X177.114 Y214.327 F3048
X176.504 Y214.126 F3048
X175.905 Y213.895 F3048
X175.317 Y213.638 F3048
X174.74 Y213.356 F3048
X174.175 Y213.05 F3048
X173.624 Y212.721 F3048
X173.086 Y212.37 F3048
X172.562 Y211.998 F3048
X172.054 Y211.606 F3048
X171.561 Y211.194 F3048
X171.086 Y210.762 F3048
X170.631 Y210.309 F3048
X170.198 Y209.834 F3048
X169.797 Y209.333 F3048
X169.454 Y208.824 F3048
X169.219 Y208.391 F3048
X169.071 Y208.045 F3048
X168.982 Y207.765 F3048
X168.926 Y207.502 F3048
X168.909 Y207.358 F3048
X168.916 Y207.18 F3048
X168.977 Y207.013 F3048
X169.087 Y206.872 F3048
X169.235 Y206.773 F3048
X170.44 Y206.211 F3048
( MOVEMENT_LEAD_OUT)
X170.482 Y206.197 Z-1.76 F3048
X170.526 Y206.188 Z-1.742 F3048
X170.57 Y206.186 Z-1.725 F3048
X170.614 Y206.19 Z-1.707 F3048
X170.657 Y206.2 Z-1.689 F3048
X170.699 Y206.216 Z-1.671 F3048
X170.737 Y206.237 Z-1.654 F3048
X170.895 Y206.34 Z-1.578 F3048
X171.104 Y206.475 F3048
( MOVEMENT_LINK_DIRECT)
X181.751 Y213.381 F3048
( MOVEMENT_LEAD_IN)
X181.913 Y213.485 F3048
G3 X181.957 Y213.52 I-0.173 J0.266 F3048
G1 X181.99 Y213.556 Z-1.598 F3048
X182.018 Y213.598 Z-1.618 F3048
X182.038 Y213.643 Z-1.638 F3048
X182.052 Y213.691 Z-1.658 F3048
X182.057 Y213.741 Z-1.678 F3048
X182.055 Y213.79 Z-1.698 F3048
X182.045 Y213.839 Z-1.718 F3048
X182.028 Y213.886 Z-1.738 F3048
X182.003 Y213.929 Z-1.758 F3048
X181.972 Y213.968 Z-1.778 F3048
( MOVEMENT_CUTTING)
X181.366 Y214.574 F3048
X181.232 Y214.698 F3048
X180.491 Y215.279 F3048
X180.25 Y215.449 F3048
X180.07 Y215.552 F3048
X179.846 Y215.653 F3048
X179.565 Y215.749 F3048
X179.249 Y215.824 F3048
X178.846 Y215.88 F3048
X178.371 Y215.901 F3048
X177.792 Y215.871 F3048
X177.157 Y215.777 F3048
X176.531 Y215.631 F3048
X175.917 Y215.444 F3048
X175.314 Y215.224 F3048
X174.722 Y214.975 F3048
X174.142 Y214.7 F3048
X173.573 Y214.401 F3048
X173.017 Y214.081 F3048
X172.473 Y213.739 F3048
X171.943 Y213.376 F3048
X171.427 Y212.994 F3048
X170.925 Y212.594 F3048
X170.439 Y212.174 F3048
X169.97 Y211.735 F3048
X169.52 Y211.276 F3048
X169.094 Y210.796 F3048
X168.697 Y210.291 F3048
X168.338 Y209.759 F3048
X168.056 Y209.247 F3048
X167.869 Y208.813 F3048
X167.753 Y208.454 F3048
X167.691 Y208.172 F3048
X167.658 Y207.898 F3048
X167.651 Y207.661 F3048
X167.652 Y207.652 F3048
X167.691 Y207.48 F3048
X167.781 Y207.328 F3048
X167.913 Y207.21 F3048
X168.074 Y207.139 F3048
X168.818 Y206.94 F3048
X168.964 Y206.894 F3048
X169.11 Y206.831 F3048
X169.235 Y206.773 F3048
( MOVEMENT_LEAD_OUT)
X169.279 Y206.758 Z-1.759 F3048
X169.325 Y206.75 Z-1.74 F3048
X169.372 Y206.748 Z-1.722 F3048
X169.418 Y206.753 Z-1.703 F3048
X169.464 Y206.765 Z-1.684 F3048
X169.506 Y206.784 Z-1.665 F3048
X169.546 Y206.809 Z-1.647 F3048
X169.684 Y206.91 Z-1.578 F3048
X169.885 Y207.056 F3048
( MOVEMENT_LINK_DIRECT)
X180.335 Y214.678 F3048
( MOVEMENT_LEAD_IN)
X180.474 Y214.779 F3048
G3 X180.53 Y214.832 I-0.187 J0.257 F3048
G1 X180.558 Y214.872 Z-1.598 F3048
X180.581 Y214.917 Z-1.618 F3048
X180.596 Y214.964 Z-1.638 F3048
X180.603 Y215.014 Z-1.658 F3048
Y215.063 Z-1.678 F3048
X180.595 Y215.112 Z-1.698 F3048
X180.579 Y215.16 Z-1.718 F3048
X180.556 Y215.204 Z-1.738 F3048
X180.526 Y215.244 Z-1.758 F3048
X180.491 Y215.279 Z-1.778 F3048
( MOVEMENT_CUTTING)
X179.369 Y216.157 F3048
X178.886 Y216.521 F3048
X178.562 Y216.697 F3048
X178.338 Y216.793 F3048
X178.094 Y216.87 F3048
X177.781 Y216.938 F3048
X177.422 Y216.98 F3048
X176.968 Y216.991 F3048
X176.438 Y216.952 F3048
X175.804 Y216.845 F3048
X175.184 Y216.68 F3048
X174.576 Y216.473 F3048
X173.98 Y216.232 F3048
X173.398 Y215.962 F3048
X172.827 Y215.668 F3048
X172.269 Y215.35 F3048
X171.723 Y215.012 F3048
X171.189 Y214.655 F3048
X170.669 Y214.279 F3048
X170.162 Y213.884 F3048
X169.67 Y213.472 F3048
X169.194 Y213.041 F3048
X168.736 Y212.591 F3048
X168.298 Y212.121 F3048
X167.884 Y211.63 F3048
X167.498 Y211.117 F3048
X167.146 Y210.579 F3048
X166.839 Y210.016 F3048
X166.617 Y209.499 F3048
X166.471 Y209.04 F3048
X166.395 Y208.693 F3048
X166.358 Y208.384 F3048
X166.352 Y208.128 F3048
X166.365 Y207.95 F3048
X166.414 Y207.755 F3048
X166.528 Y207.59 F3048
X166.691 Y207.474 F3048
X166.885 Y207.421 F3048
X166.921 Y207.418 F3048
X167.043 Y207.401 F3048
X167.213 Y207.365 F3048
X167.359 Y207.331 F3048
X168.074 Y207.139 F3048
( MOVEMENT_LEAD_OUT)
X168.123 Y207.132 Z-1.758 F3048
X168.171 Z-1.739 F3048
X168.22 Y207.14 Z-1.719 F3048
X168.266 Y207.155 Z-1.7 F3048
X168.31 Y207.177 Z-1.68 F3048
X168.35 Y207.205 Z-1.66 F3048
X168.507 Y207.337 Z-1.578 F3048
X168.697 Y207.496 F3048
( MOVEMENT_LINK_DIRECT)
X178.748 Y215.911 F3048
( MOVEMENT_LEAD_IN)
X178.891 Y216.03 F3048
G3 X178.934 Y216.075 I-0.204 J0.243 F3048
G1 X178.962 Y216.116 Z-1.598 F3048
X178.984 Y216.161 Z-1.618 F3048
X178.998 Y216.209 Z-1.638 F3048
X179.004 Y216.258 Z-1.658 F3048
X179.002 Y216.308 Z-1.678 F3048
X178.993 Y216.357 Z-1.698 F3048
X178.976 Y216.404 Z-1.718 F3048
X178.953 Y216.447 Z-1.738 F3048
X178.922 Y216.487 Z-1.758 F3048
X178.886 Y216.521 Z-1.778 F3048
( MOVEMENT_CUTTING)
X178.448 Y216.786 F3048
X177.074 Y217.617 F3048
X176.887 Y217.718 F3048
X176.704 Y217.795 F3048
X176.474 Y217.867 F3048
X176.195 Y217.926 F3048
X175.876 Y217.962 F3048
X175.48 Y217.969 F3048
X175.005 Y217.932 F3048
X174.43 Y217.832 F3048
X173.811 Y217.662 F3048
X173.207 Y217.443 F3048
X172.618 Y217.187 F3048
X172.043 Y216.901 F3048
X171.482 Y216.59 F3048
X170.933 Y216.257 F3048
X170.396 Y215.903 F3048
X169.873 Y215.532 F3048
X169.362 Y215.142 F3048
X168.865 Y214.735 F3048
X168.384 Y214.31 F3048
X167.919 Y213.867 F3048
X167.472 Y213.406 F3048
X167.046 Y212.926 F3048
X166.643 Y212.425 F3048
X166.267 Y211.905 F3048
X165.923 Y211.363 F3048
X165.617 Y210.798 F3048
X165.361 Y210.217 F3048
X165.18 Y209.674 F3048
X165.075 Y209.212 F3048
X165.026 Y208.838 F3048
X165.015 Y208.534 F3048
X165.031 Y208.274 F3048
X165.071 Y208.021 F3048
X165.086 Y207.962 F3048
X165.155 Y207.801 F3048
X165.27 Y207.668 F3048
X165.42 Y207.576 F3048
X165.591 Y207.535 F3048
X166.885 Y207.421 F3048
( MOVEMENT_LEAD_OUT)
X166.928 Y207.422 Z-1.761 F3048
X166.971 Y207.429 Z-1.743 F3048
X167.013 Y207.441 Z-1.726 F3048
X167.052 Y207.459 Z-1.709 F3048
X167.089 Y207.482 Z-1.691 F3048
X167.122 Y207.509 Z-1.674 F3048
X167.294 Y207.675 Z-1.578 F3048
X167.473 Y207.847 F3048
( MOVEMENT_LINK_DIRECT)
X176.994 Y217 F3048
( MOVEMENT_LEAD_IN)
X177.121 Y217.122 F3048
G3 X177.166 Y217.178 I-0.22 J0.229 F3048
G1 X177.19 Y217.221 Z-1.598 F3048
X177.207 Y217.268 Z-1.618 F3048
X177.216 Y217.317 Z-1.638 F3048
X177.218 Y217.367 Z-1.658 F3048
X177.211 Y217.416 Z-1.678 F3048
X177.197 Y217.464 Z-1.698 F3048
X177.176 Y217.509 Z-1.718 F3048
X177.148 Y217.55 Z-1.738 F3048
X177.114 Y217.586 Z-1.758 F3048
X177.074 Y217.617 Z-1.778 F3048
( MOVEMENT_CUTTING)
X176.831 Y217.763 F3048
X176.551 Y217.929 F3048
X176.405 Y218.013 F3048
X175.092 Y218.605 F3048
X174.874 Y218.69 F3048
X174.666 Y218.749 F3048
X174.412 Y218.796 F3048
X174.104 Y218.823 F3048
X173.748 Y218.82 F3048
X173.312 Y218.775 F3048
X172.775 Y218.667 F3048
X172.16 Y218.482 F3048
X171.564 Y218.243 F3048
X170.985 Y217.964 F3048
X170.422 Y217.655 F3048
X169.874 Y217.321 F3048
X169.339 Y216.965 F3048
X168.818 Y216.59 F3048
X168.31 Y216.197 F3048
X167.816 Y215.787 F3048
X167.337 Y215.359 F3048
X166.874 Y214.914 F3048
X166.428 Y214.452 F3048
X166 Y213.973 F3048
X165.594 Y213.476 F3048
X165.211 Y212.96 F3048
X164.857 Y212.424 F3048
X164.536 Y211.868 F3048
X164.25 Y211.293 F3048
X164.007 Y210.699 F3048
X163.818 Y210.095 F3048
X163.708 Y209.576 F3048
X163.655 Y209.101 F3048
X163.648 Y208.737 F3048
X163.672 Y208.427 F3048
X163.717 Y208.17 F3048
X163.764 Y207.999 F3048
X163.841 Y207.83 F3048
X163.968 Y207.696 F3048
X164.132 Y207.609 F3048
X164.315 Y207.579 F3048
X165.025 F3048
X165.171 Y207.57 F3048
X165.591 Y207.535 F3048
( MOVEMENT_LEAD_OUT)
X165.638 Y207.536 Z-1.759 F3048
X165.684 Y207.544 Z-1.74 F3048
X165.729 Y207.559 Z-1.721 F3048
X165.771 Y207.58 Z-1.702 F3048
X165.81 Y207.607 Z-1.683 F3048
X165.844 Y207.64 Z-1.664 F3048
X165.987 Y207.801 Z-1.578 F3048
X166.152 Y207.986 F3048
( MOVEMENT_LINK_DIRECT)
X175.081 Y217.987 F3048
( MOVEMENT_LEAD_IN)
X175.189 Y218.108 F3048
G3 X175.237 Y218.18 I-0.237 J0.211 F3048
G1 X175.255 Y218.226 Z-1.598 F3048
X175.266 Y218.274 Z-1.618 F3048
X175.269 Y218.324 Z-1.638 F3048
X175.265 Y218.374 Z-1.658 F3048
X175.253 Y218.422 Z-1.678 F3048
X175.233 Y218.468 Z-1.698 F3048
X175.206 Y218.51 Z-1.718 F3048
X175.173 Y218.547 Z-1.738 F3048
X175.135 Y218.579 Z-1.758 F3048
X175.092 Y218.605 Z-1.778 F3048
( MOVEMENT_CUTTING)
X174.044 Y219.076 F3048
X173.925 Y219.129 F3048
X173.487 Y219.285 F3048
X173.341 Y219.332 F3048
X173.05 Y219.423 F3048
X172.759 Y219.498 F3048
X172.51 Y219.537 F3048
X172.237 Y219.554 F3048
X171.893 Y219.543 F3048
X171.501 Y219.492 F3048
X171.011 Y219.38 F3048
X170.411 Y219.182 F3048
X169.823 Y218.924 F3048
X169.255 Y218.624 F3048
X168.705 Y218.292 F3048
X168.172 Y217.935 F3048
X167.653 Y217.556 F3048
X167.149 Y217.158 F3048
X166.66 Y216.742 F3048
X166.185 Y216.309 F3048
X165.726 Y215.86 F3048
X165.284 Y215.395 F3048
X164.86 Y214.913 F3048
X164.455 Y214.414 F3048
X164.073 Y213.898 F3048
X163.715 Y213.365 F3048
X163.385 Y212.814 F3048
X163.088 Y212.244 F3048
X162.826 Y211.658 F3048
X162.603 Y211.056 F3048
X162.427 Y210.438 F3048
X162.309 Y209.83 F3048
X162.259 Y209.308 F3048
X162.258 Y208.871 F3048
X162.293 Y208.507 F3048
X162.345 Y208.236 F3048
X162.421 Y207.975 F3048
X162.436 Y207.938 F3048
X162.521 Y207.792 F3048
X162.646 Y207.677 F3048
X162.799 Y207.604 F3048
X162.966 Y207.579 F3048
X164.315 F3048
( MOVEMENT_LEAD_OUT)
X164.361 Y207.584 Z-1.759 F3048
X164.406 Y207.595 Z-1.741 F3048
X164.449 Y207.613 Z-1.722 F3048
X164.489 Y207.638 Z-1.703 F3048
X164.524 Y207.667 Z-1.685 F3048
X164.555 Y207.702 Z-1.666 F3048
X164.689 Y207.876 Z-1.578 F3048
X164.84 Y208.073 F3048
( MOVEMENT_LINK_DIRECT)
X173.107 Y218.813 F3048
( MOVEMENT_LEAD_IN)
X173.196 Y218.93 F3048
G3 X173.244 Y219.019 I-0.252 J0.194 F3048
G1 X173.257 Y219.067 Z-1.598 F3048
X173.262 Y219.116 Z-1.618 F3048
X173.259 Y219.166 Z-1.638 F3048
X173.249 Y219.215 Z-1.658 F3048
X173.231 Y219.261 Z-1.678 F3048
X173.206 Y219.304 Z-1.698 F3048
X173.174 Y219.343 Z-1.718 F3048
X173.137 Y219.376 Z-1.738 F3048
X173.095 Y219.403 Z-1.758 F3048
X173.05 Y219.423 Z-1.778 F3048
( MOVEMENT_CUTTING)
X171.007 Y220.059 F3048
X170.562 Y220.126 F3048
X170.309 Y220.14 F3048
X169.999 Y220.127 F3048
X169.65 Y220.079 F3048
X169.219 Y219.977 F3048
X168.694 Y219.798 F3048
X168.108 Y219.535 F3048
X167.547 Y219.223 F3048
X167.007 Y218.874 F3048
X166.487 Y218.498 F3048
X165.984 Y218.099 F3048
X165.496 Y217.681 F3048
X165.025 Y217.245 F3048
X164.569 Y216.793 F3048
X164.13 Y216.324 F3048
X163.708 Y215.84 F3048
X163.305 Y215.34 F3048
X162.922 Y214.825 F3048
X162.561 Y214.294 F3048
X162.225 Y213.746 F3048
X161.918 Y213.182 F3048
X161.642 Y212.603 F3048
X161.398 Y212.008 F3048
X161.191 Y211.4 F3048
X161.025 Y210.78 F3048
X160.907 Y210.149 F3048
X160.848 Y209.536 F3048
Y209.005 F3048
X160.885 Y208.611 F3048
X160.948 Y208.28 F3048
X161.024 Y208.022 F3048
X161.057 Y207.938 F3048
X161.143 Y207.792 F3048
X161.267 Y207.677 F3048
X161.42 Y207.604 F3048
X161.588 Y207.579 F3048
X162.966 F3048
( MOVEMENT_LEAD_OUT)
X163.016 Y207.584 Z-1.758 F3048
X163.064 Y207.598 Z-1.738 F3048
X163.11 Y207.618 Z-1.718 F3048
X163.151 Y207.646 Z-1.698 F3048
X163.188 Y207.68 Z-1.678 F3048
X163.219 Y207.719 Z-1.658 F3048
X163.329 Y207.884 Z-1.578 F3048
X163.468 Y208.09 F3048
( MOVEMENT_LINK_DIRECT)
X171.073 Y219.444 F3048
( MOVEMENT_LEAD_IN)
X171.166 Y219.583 F3048
G3 X171.202 Y219.655 I-0.264 J0.177 F3048
G1 X171.215 Y219.703 Z-1.598 F3048
X171.22 Y219.753 Z-1.618 F3048
X171.217 Y219.803 Z-1.638 F3048
X171.206 Y219.851 Z-1.658 F3048
X171.188 Y219.898 Z-1.678 F3048
X171.163 Y219.941 Z-1.698 F3048
X171.132 Y219.979 Z-1.718 F3048
X171.094 Y220.012 Z-1.738 F3048
X171.052 Y220.039 Z-1.758 F3048
X171.007 Y220.059 Z-1.778 F3048
( MOVEMENT_CUTTING)
X170.813 Y220.098 F3048
X170.715 Y220.117 F3048
X168.672 Y220.491 F3048
X168.417 Y220.525 F3048
X168.185 Y220.533 F3048
X167.916 Y220.516 F3048
X167.59 Y220.465 F3048
X167.217 Y220.369 F3048
X166.764 Y220.206 F3048
X166.209 Y219.944 F3048
X165.657 Y219.615 F3048
X165.131 Y219.247 F3048
X164.628 Y218.849 F3048
X164.143 Y218.427 F3048
X163.676 Y217.986 F3048
X163.228 Y217.527 F3048
X162.796 Y217.051 F3048
X162.383 Y216.56 F3048
X161.988 Y216.053 F3048
X161.613 Y215.532 F3048
X161.26 Y214.995 F3048
X160.93 Y214.444 F3048
X160.625 Y213.879 F3048
X160.347 Y213.3 F3048
X160.098 Y212.709 F3048
X159.882 Y212.104 F3048
X159.702 Y211.487 F3048
X159.562 Y210.861 F3048
X159.465 Y210.226 F3048
X159.419 Y209.585 F3048
X159.43 Y209.02 F3048
X159.478 Y208.6 F3048
X159.551 Y208.258 F3048
X159.634 Y207.993 F3048
X159.662 Y207.927 F3048
X159.749 Y207.785 F3048
X159.873 Y207.674 F3048
X160.023 Y207.603 F3048
X160.188 Y207.579 F3048
X161.588 F3048
( MOVEMENT_LEAD_OUT)
X161.634 Y207.583 Z-1.76 F3048
X161.678 Y207.595 Z-1.741 F3048
X161.721 Y207.613 Z-1.723 F3048
X161.76 Y207.637 Z-1.704 F3048
X161.796 Y207.666 Z-1.686 F3048
X161.827 Y207.7 Z-1.667 F3048
X161.852 Y207.738 Z-1.649 F3048
X161.94 Y207.891 Z-1.578 F3048
X162.063 Y208.106 F3048
( MOVEMENT_LINK_DIRECT)
X168.805 Y219.892 F3048
( MOVEMENT_LEAD_IN)
X168.88 Y220.024 F3048
G3 X168.914 Y220.113 I-0.276 J0.158 F3048
G1 X168.921 Y220.163 Z-1.598 F3048
X168.92 Y220.212 Z-1.618 F3048
X168.911 Y220.261 Z-1.638 F3048
X168.895 Y220.309 Z-1.658 F3048
X168.872 Y220.352 Z-1.678 F3048
X168.842 Y220.392 Z-1.698 F3048
X168.806 Y220.427 Z-1.718 F3048
X168.765 Y220.455 Z-1.738 F3048
X168.72 Y220.477 Z-1.758 F3048
X168.672 Y220.491 Z-1.778 F3048
( MOVEMENT_CUTTING)
X168.526 Y220.518 F3048
X168.089 Y220.593 F3048
X167.943 Y220.607 F3048
X166.192 Y220.713 F3048
X165.945 Y220.716 F3048
X165.694 Y220.694 F3048
X165.414 Y220.643 F3048
X165.07 Y220.546 F3048
X164.678 Y220.394 F3048
X164.201 Y220.155 F3048
X163.657 Y219.813 F3048
X163.146 Y219.425 F3048
X162.661 Y219.004 F3048
X162.199 Y218.558 F3048
X161.758 Y218.091 F3048
X161.336 Y217.607 F3048
X160.933 Y217.107 F3048
X160.55 Y216.591 F3048
X160.188 Y216.061 F3048
X159.847 Y215.517 F3048
X159.528 Y214.96 F3048
X159.233 Y214.389 F3048
X158.963 Y213.807 F3048
X158.72 Y213.212 F3048
X158.506 Y212.607 F3048
X158.323 Y211.991 F3048
X158.175 Y211.366 F3048
X158.066 Y210.733 F3048
X158 Y210.095 F3048
X157.981 Y209.453 F3048
X158.014 Y208.893 F3048
X158.078 Y208.485 F3048
X158.16 Y208.165 F3048
X158.235 Y207.957 F3048
X158.318 Y207.803 F3048
X158.444 Y207.682 F3048
X158.601 Y207.605 F3048
X158.773 Y207.579 F3048
X160.188 F3048
( MOVEMENT_LEAD_OUT)
X160.237 Y207.584 Z-1.758 F3048
X160.285 Y207.597 Z-1.738 F3048
X160.33 Y207.617 Z-1.719 F3048
X160.371 Y207.644 Z-1.699 F3048
X160.408 Y207.678 Z-1.679 F3048
X160.439 Y207.716 Z-1.659 F3048
X160.464 Y207.759 Z-1.639 F3048
X160.529 Y207.896 Z-1.578 F3048
X160.637 Y208.12 F3048
( MOVEMENT_LINK_DIRECT)
X166.389 Y220.137 F3048
( MOVEMENT_LEAD_IN)
X166.448 Y220.26 F3048
G3 X166.478 Y220.367 I-0.286 J0.137 F3048
G1 X166.479 Y220.417 Z-1.598 F3048
X166.472 Y220.466 Z-1.618 F3048
X166.457 Y220.514 Z-1.638 F3048
X166.435 Y220.558 Z-1.658 F3048
X166.406 Y220.599 Z-1.678 F3048
X166.372 Y220.635 Z-1.698 F3048
X166.332 Y220.665 Z-1.718 F3048
X166.288 Y220.688 Z-1.738 F3048
X166.241 Y220.704 Z-1.758 F3048
X166.192 Y220.713 Z-1.778 F3048
( MOVEMENT_CUTTING)
X165.171 Y220.774 F3048
X165.025 Y220.779 F3048
X163.857 F3048
X163.658 Y220.769 F3048
X163.424 Y220.734 F3048
X163.137 Y220.664 F3048
X162.823 Y220.554 F3048
X162.437 Y220.377 F3048
X161.995 Y220.12 F3048
X161.472 Y219.747 F3048
X160.987 Y219.326 F3048
X160.532 Y218.873 F3048
X160.102 Y218.396 F3048
X159.695 Y217.899 F3048
X159.311 Y217.385 F3048
X159.129 Y217.12 F3048
X158.996 Y216.919 F3048
X158.648 Y216.379 F3048
X158.322 Y215.826 F3048
X158.018 Y215.261 F3048
X157.738 Y214.682 F3048
X157.483 Y214.093 F3048
X157.254 Y213.493 F3048
X157.052 Y212.884 F3048
X156.88 Y212.265 F3048
X156.739 Y211.638 F3048
X156.631 Y211.005 F3048
X156.561 Y210.367 F3048
X156.534 Y209.725 F3048
X156.557 Y209.106 F3048
X156.622 Y208.615 F3048
X156.706 Y208.255 F3048
X156.799 Y207.976 F3048
X156.825 Y207.918 F3048
X156.912 Y207.779 F3048
X157.035 Y207.671 F3048
X157.184 Y207.602 F3048
X157.347 Y207.579 F3048
X158.773 F3048
( MOVEMENT_LEAD_OUT)
X158.818 Y207.583 Z-1.76 F3048
X158.862 Y207.595 Z-1.741 F3048
X158.905 Y207.612 Z-1.723 F3048
X158.944 Y207.636 Z-1.705 F3048
X158.979 Y207.664 Z-1.686 F3048
X159.01 Y207.698 Z-1.668 F3048
X159.036 Y207.736 Z-1.65 F3048
X159.056 Y207.777 Z-1.631 F3048
X159.106 Y207.9 Z-1.578 F3048
X159.199 Y208.13 F3048
( MOVEMENT_LINK_DIRECT)
X164.089 Y220.215 F3048
( MOVEMENT_LEAD_IN)
X164.141 Y220.342 F3048
G3 X164.164 Y220.45 I-0.294 J0.119 F3048
G1 X164.161 Y220.5 Z-1.598 F3048
X164.151 Y220.549 Z-1.618 F3048
X164.134 Y220.596 Z-1.638 F3048
X164.109 Y220.639 Z-1.658 F3048
X164.078 Y220.678 Z-1.678 F3048
X164.042 Y220.711 Z-1.698 F3048
X164 Y220.739 Z-1.718 F3048
X163.955 Y220.76 Z-1.738 F3048
X163.907 Y220.773 Z-1.758 F3048
X163.857 Y220.779 Z-1.778 F3048
( MOVEMENT_CUTTING)
X161.815 F3048
X161.614 Y220.768 F3048
X161.391 Y220.736 F3048
X161.147 Y220.676 F3048
X160.85 Y220.572 F3048
X160.529 Y220.425 F3048
X160.141 Y220.2 F3048
X159.687 Y219.875 F3048
X159.203 Y219.453 F3048
X158.756 Y218.991 F3048
X158.343 Y218.5 F3048
X157.956 Y217.988 F3048
X157.719 Y217.771 F3048
X157.158 Y217.459 F3048
X156.561 Y217.221 F3048
X156.306 Y217.098 F3048
X156.078 Y216.96 F3048
X155.93 Y216.85 F3048
X155.771 Y216.705 F3048
X155.669 Y216.595 F3048
X155.583 Y216.472 F3048
X155.498 Y216.325 F3048
X155.436 Y216.189 F3048
X155.393 Y216.045 F3048
X155.365 Y215.898 F3048
X155.362 Y215.748 F3048
X155.38 Y215.599 F3048
X155.557 Y214.981 F3048
X155.58 Y214.34 F3048
X155.521 Y213.7 F3048
X155.426 Y213.065 F3048
X155.322 Y212.431 F3048
X155.225 Y211.796 F3048
X155.146 Y211.159 F3048
X155.092 Y210.519 F3048
X155.072 Y209.877 F3048
X155.096 Y209.236 F3048
X155.166 Y208.681 F3048
X155.253 Y208.298 F3048
X155.345 Y208.015 F3048
X155.386 Y207.921 F3048
X155.473 Y207.781 F3048
X155.597 Y207.672 F3048
X155.747 Y207.602 F3048
X155.91 Y207.579 F3048
X157.347 F3048
( MOVEMENT_LEAD_OUT)
X157.394 Y207.584 Z-1.759 F3048
X157.44 Y207.596 Z-1.74 F3048
X157.483 Y207.615 Z-1.721 F3048
X157.523 Y207.64 Z-1.702 F3048
X157.559 Y207.67 Z-1.683 F3048
X157.59 Y207.706 Z-1.664 F3048
X157.616 Y207.746 Z-1.645 F3048
X157.635 Y207.789 Z-1.626 F3048
X157.675 Y207.902 Z-1.578 F3048
X157.758 Y208.136 F3048
( MOVEMENT_LINK_DIRECT)
X162.052 Y220.213 F3048
( MOVEMENT_LEAD_IN)
X162.103 Y220.355 F3048
G3 X162.121 Y220.45 I-0.299 J0.106 F3048
G1 X162.119 Y220.5 Z-1.598 F3048
X162.109 Y220.549 Z-1.618 F3048
X162.091 Y220.596 Z-1.638 F3048
X162.067 Y220.639 Z-1.658 F3048
X162.036 Y220.678 Z-1.678 F3048
X161.999 Y220.711 Z-1.698 F3048
X161.957 Y220.739 Z-1.718 F3048
X161.912 Y220.76 Z-1.738 F3048
X161.864 Y220.773 Z-1.758 F3048
X161.815 Y220.779 Z-1.778 F3048
( MOVEMENT_CUTTING)
X159.918 F3048
X159.684 Y220.767 F3048
X159.487 Y220.738 F3048
X159.253 Y220.681 F3048
X158.983 Y220.587 F3048
X158.691 Y220.452 F3048
X158.346 Y220.252 F3048
X157.824 Y219.878 F3048
X157.323 Y219.476 F3048
X156.779 Y219.134 F3048
X156.224 Y218.811 F3048
X155.693 Y218.474 F3048
X155.345 Y218.203 F3048
X155.055 Y217.93 F3048
X154.829 Y217.672 F3048
X154.643 Y217.413 F3048
X154.499 Y217.168 F3048
X154.386 Y216.923 F3048
X154.3 Y216.678 F3048
X154.236 Y216.424 F3048
X154.141 Y215.788 F3048
X154.099 Y215.148 F3048
X154.043 Y214.508 F3048
X153.969 Y213.87 F3048
X153.884 Y213.233 F3048
X153.799 Y212.597 F3048
X153.72 Y211.96 F3048
X153.657 Y211.321 F3048
X153.614 Y210.68 F3048
X153.6 Y210.038 F3048
X153.624 Y209.396 F3048
X153.693 Y208.788 F3048
X153.782 Y208.37 F3048
X153.878 Y208.065 F3048
X153.936 Y207.928 F3048
X154.022 Y207.785 F3048
X154.146 Y207.674 F3048
X154.297 Y207.603 F3048
X154.462 Y207.579 F3048
X155.91 F3048
( MOVEMENT_LEAD_OUT)
X155.958 Y207.584 Z-1.758 F3048
X156.005 Y207.597 Z-1.739 F3048
X156.05 Y207.616 Z-1.719 F3048
X156.091 Y207.643 Z-1.7 F3048
X156.127 Y207.675 Z-1.68 F3048
X156.158 Y207.712 Z-1.661 F3048
X156.183 Y207.754 Z-1.641 F3048
X156.201 Y207.799 Z-1.622 F3048
X156.234 Y207.903 Z-1.578 F3048
X156.31 Y208.14 F3048
( MOVEMENT_LINK_DIRECT)
X160.16 Y220.211 F3048
( MOVEMENT_LEAD_IN)
X160.209 Y220.365 F3048
G3 X160.224 Y220.45 I-0.302 J0.096 F3048
G1 X160.222 Y220.5 Z-1.598 F3048
X160.212 Y220.549 Z-1.618 F3048
X160.194 Y220.596 Z-1.638 F3048
X160.17 Y220.639 Z-1.658 F3048
X160.139 Y220.678 Z-1.678 F3048
X160.102 Y220.711 Z-1.698 F3048
X160.061 Y220.739 Z-1.718 F3048
X160.015 Y220.76 Z-1.738 F3048
X159.967 Y220.773 Z-1.758 F3048
X159.918 Y220.779 Z-1.778 F3048
( MOVEMENT_CUTTING)
X158.021 F3048
X157.699 Y220.762 F3048
X157.344 Y220.71 F3048
X156.856 Y220.591 F3048
X156.252 Y220.38 F3048
X155.677 Y220.116 F3048
X155.161 Y219.816 F3048
X154.705 Y219.49 F3048
X154.306 Y219.143 F3048
X153.966 Y218.785 F3048
X153.684 Y218.424 F3048
X153.449 Y218.057 F3048
X153.244 Y217.658 F3048
X153.046 Y217.16 F3048
X152.867 Y216.544 F3048
X152.74 Y215.914 F3048
X152.639 Y215.28 F3048
X152.546 Y214.644 F3048
X152.457 Y214.009 F3048
X152.37 Y213.372 F3048
X152.29 Y212.735 F3048
X152.221 Y212.097 F3048
X152.166 Y211.457 F3048
X152.131 Y210.815 F3048
X152.122 Y210.173 F3048
X152.146 Y209.532 F3048
X152.215 Y208.893 F3048
X152.308 Y208.431 F3048
X152.407 Y208.105 F3048
X152.478 Y207.933 F3048
X152.564 Y207.788 F3048
X152.688 Y207.675 F3048
X152.84 Y207.603 F3048
X153.006 Y207.579 F3048
X154.462 F3048
( MOVEMENT_LEAD_OUT)
X154.512 Y207.584 Z-1.758 F3048
X154.56 Y207.598 Z-1.738 F3048
X154.605 Y207.618 Z-1.718 F3048
X154.647 Y207.646 Z-1.698 F3048
X154.684 Y207.68 Z-1.678 F3048
X154.715 Y207.719 Z-1.658 F3048
X154.739 Y207.762 Z-1.638 F3048
X154.757 Y207.809 Z-1.618 F3048
X154.784 Y207.904 Z-1.578 F3048
X154.851 Y208.143 F3048
( MOVEMENT_LINK_DIRECT)
X158.269 Y220.21 F3048
( MOVEMENT_LEAD_IN)
X158.315 Y220.375 F3048
G3 X158.327 Y220.45 I-0.305 J0.087 F3048
G1 X158.325 Y220.5 Z-1.598 F3048
X158.315 Y220.549 Z-1.618 F3048
X158.298 Y220.596 Z-1.638 F3048
X158.273 Y220.639 Z-1.658 F3048
X158.242 Y220.678 Z-1.678 F3048
X158.205 Y220.711 Z-1.698 F3048
X158.164 Y220.739 Z-1.718 F3048
X158.119 Y220.76 Z-1.738 F3048
X158.071 Y220.773 Z-1.758 F3048
X158.021 Y220.779 Z-1.778 F3048
( MOVEMENT_CUTTING)
X155.395 F3048
X155.14 Y220.766 F3048
X154.906 Y220.732 F3048
X154.644 Y220.667 F3048
X154.366 Y220.571 F3048
X154.062 Y220.431 F3048
X153.736 Y220.241 F3048
X153.42 Y220.015 F3048
X153.095 Y219.732 F3048
X152.773 Y219.393 F3048
X152.457 Y218.99 F3048
X152.175 Y218.549 F3048
X151.895 Y218.002 F3048
X151.657 Y217.406 F3048
X151.469 Y216.792 F3048
X151.317 Y216.168 F3048
X151.19 Y215.538 F3048
X151.078 Y214.906 F3048
X150.978 Y214.271 F3048
X150.887 Y213.636 F3048
X150.807 Y212.999 F3048
X150.738 Y212.36 F3048
X150.685 Y211.72 F3048
X150.65 Y211.079 F3048
X150.639 Y210.437 F3048
X150.658 Y209.795 F3048
X150.714 Y209.155 F3048
X150.803 Y208.615 F3048
X150.907 Y208.223 F3048
X151.012 Y207.938 F3048
X151.029 Y207.902 F3048
X151.118 Y207.769 F3048
X151.24 Y207.666 F3048
X151.386 Y207.601 F3048
X151.544 Y207.579 F3048
X153.006 F3048
( MOVEMENT_LEAD_OUT)
X153.054 Y207.584 Z-1.759 F3048
X153.1 Y207.596 Z-1.74 F3048
X153.143 Y207.615 Z-1.721 F3048
X153.183 Y207.64 Z-1.702 F3048
X153.219 Y207.671 Z-1.683 F3048
X153.251 Y207.707 Z-1.664 F3048
X153.276 Y207.747 Z-1.644 F3048
X153.295 Y207.791 Z-1.625 F3048
X153.307 Y207.837 Z-1.606 F3048
X153.32 Y207.906 Z-1.578 F3048
X153.367 Y208.15 F3048
( MOVEMENT_LINK_DIRECT)
X155.658 Y220.206 F3048
( MOVEMENT_LEAD_IN)
X155.696 Y220.402 F3048
G3 X155.701 Y220.45 I-0.312 J0.059 F3048
G1 X155.699 Y220.5 Z-1.598 F3048
X155.689 Y220.549 Z-1.618 F3048
X155.671 Y220.596 Z-1.638 F3048
X155.647 Y220.639 Z-1.658 F3048
X155.616 Y220.678 Z-1.678 F3048
X155.579 Y220.711 Z-1.698 F3048
X155.537 Y220.739 Z-1.718 F3048
X155.492 Y220.76 Z-1.738 F3048
X155.444 Y220.773 Z-1.758 F3048
X155.395 Y220.779 Z-1.778 F3048
( MOVEMENT_CUTTING)
X153.498 F3048
X153.311 Y220.769 F3048
X153.123 Y220.742 F3048
X152.933 Y220.695 F3048
X152.709 Y220.617 F3048
X152.474 Y220.509 F3048
X152.219 Y220.361 F3048
X151.95 Y220.169 F3048
X151.665 Y219.92 F3048
X151.374 Y219.614 F3048
X151.061 Y219.214 F3048
X150.767 Y218.754 F3048
X150.474 Y218.183 F3048
X150.234 Y217.587 F3048
X150.035 Y216.977 F3048
X149.87 Y216.356 F3048
X149.728 Y215.73 F3048
X149.605 Y215.099 F3048
X149.497 Y214.466 F3048
X149.402 Y213.831 F3048
X149.321 Y213.194 F3048
X149.253 Y212.556 F3048
X149.201 Y211.916 F3048
X149.167 Y211.274 F3048
X149.155 Y210.632 F3048
X149.171 Y209.99 F3048
X149.22 Y209.35 F3048
X149.312 Y208.715 F3048
X149.413 Y208.303 F3048
X149.517 Y208.003 F3048
X149.558 Y207.912 F3048
X149.646 Y207.775 F3048
X149.769 Y207.669 F3048
X149.917 Y207.602 F3048
X150.078 Y207.579 F3048
X151.544 F3048
( MOVEMENT_LEAD_OUT)
X151.592 Y207.584 Z-1.758 F3048
X151.639 Y207.597 Z-1.739 F3048
X151.684 Y207.616 Z-1.719 F3048
X151.725 Y207.643 Z-1.7 F3048
X151.761 Y207.675 Z-1.68 F3048
X151.792 Y207.713 Z-1.661 F3048
X151.817 Y207.754 Z-1.641 F3048
X151.835 Y207.8 Z-1.622 F3048
X151.847 Y207.847 Z-1.602 F3048
X151.856 Y207.906 Z-1.578 F3048
X151.894 Y208.151 F3048
( MOVEMENT_LINK_DIRECT)
X153.768 Y220.205 F3048
( MOVEMENT_LEAD_IN)
X153.801 Y220.412 F3048
G3 X153.804 Y220.45 I-0.314 J0.049 F3048
G1 X153.802 Y220.5 Z-1.598 F3048
X153.792 Y220.549 Z-1.618 F3048
X153.775 Y220.596 Z-1.638 F3048
X153.75 Y220.639 Z-1.658 F3048
X153.719 Y220.678 Z-1.678 F3048
X153.682 Y220.711 Z-1.698 F3048
X153.641 Y220.739 Z-1.718 F3048
X153.595 Y220.76 Z-1.738 F3048
X153.547 Y220.773 Z-1.758 F3048
X153.498 Y220.779 Z-1.778 F3048
( MOVEMENT_CUTTING)
X151.893 F3048
X151.711 Y220.769 F3048
X151.553 Y220.746 F3048
X151.365 Y220.7 F3048
X151.163 Y220.63 F3048
X150.949 Y220.531 F3048
X150.701 Y220.388 F3048
X150.461 Y220.216 F3048
X150.177 Y219.969 F3048
X149.908 Y219.685 F3048
X149.606 Y219.299 F3048
X149.294 Y218.812 F3048
X149.001 Y218.241 F3048
X148.759 Y217.646 F3048
X148.556 Y217.037 F3048
X148.384 Y216.418 F3048
X148.237 Y215.793 F3048
X148.11 Y215.164 F3048
X147.999 Y214.531 F3048
X147.904 Y213.896 F3048
X147.823 Y213.259 F3048
X147.758 Y212.62 F3048
X147.709 Y211.98 F3048
X147.68 Y211.338 F3048
X147.672 Y210.696 F3048
X147.689 Y210.054 F3048
X147.737 Y209.414 F3048
X147.827 Y208.778 F3048
X147.93 Y208.341 F3048
X148.036 Y208.03 F3048
X148.087 Y207.916 F3048
X148.175 Y207.778 F3048
X148.298 Y207.67 F3048
X148.446 Y207.602 F3048
X148.608 Y207.579 F3048
X150.078 F3048
( MOVEMENT_LEAD_OUT)
X150.127 Y207.584 Z-1.758 F3048
X150.174 Y207.597 Z-1.739 F3048
X150.219 Y207.617 Z-1.719 F3048
X150.26 Y207.644 Z-1.699 F3048
X150.297 Y207.677 Z-1.679 F3048
X150.328 Y207.715 Z-1.66 F3048
X150.352 Y207.757 Z-1.64 F3048
X150.37 Y207.803 Z-1.62 F3048
X150.381 Y207.85 Z-1.601 F3048
X150.389 Y207.906 Z-1.578 F3048
X150.425 Y208.152 F3048
( MOVEMENT_LINK_DIRECT)
X152.166 Y220.204 F3048
( MOVEMENT_LEAD_IN)
X152.196 Y220.416 F3048
G3 X152.199 Y220.45 I-0.314 J0.045 F3048
G1 X152.197 Y220.5 Z-1.598 F3048
X152.187 Y220.549 Z-1.618 F3048
X152.17 Y220.596 Z-1.638 F3048
X152.145 Y220.639 Z-1.658 F3048
X152.114 Y220.678 Z-1.678 F3048
X152.077 Y220.711 Z-1.698 F3048
X152.036 Y220.739 Z-1.718 F3048
X151.99 Y220.76 Z-1.738 F3048
X151.942 Y220.773 Z-1.758 F3048
X151.893 Y220.779 Z-1.778 F3048
( MOVEMENT_CUTTING)
X150.288 F3048
X150.138 Y220.771 F3048
X149.969 Y220.74 F3048
X149.778 Y220.686 F3048
X149.584 Y220.61 F3048
X149.355 Y220.495 F3048
X149.12 Y220.346 F3048
X148.865 Y220.149 F3048
X148.589 Y219.891 F3048
X148.302 Y219.566 F3048
X148.004 Y219.156 F3048
X147.684 Y218.613 F3048
X147.412 Y218.031 F3048
X147.184 Y217.431 F3048
X146.991 Y216.818 F3048
X146.826 Y216.197 F3048
X146.684 Y215.571 F3048
X146.562 Y214.941 F3048
X146.457 Y214.307 F3048
X146.368 Y213.671 F3048
X146.296 Y213.033 F3048
X146.241 Y212.393 F3048
X146.204 Y211.752 F3048
X146.186 Y211.11 F3048
X146.192 Y210.468 F3048
X146.225 Y209.827 F3048
X146.29 Y209.188 F3048
X146.391 Y208.605 F3048
X146.5 Y208.21 F3048
X146.608 Y207.925 F3048
X146.622 Y207.897 F3048
X146.711 Y207.766 F3048
X146.833 Y207.665 F3048
X146.978 Y207.6 F3048
X147.135 Y207.579 F3048
X148.608 F3048
( MOVEMENT_LEAD_OUT)
X148.657 Y207.584 Z-1.758 F3048
X148.705 Y207.597 Z-1.738 F3048
X148.75 Y207.618 Z-1.718 F3048
X148.791 Y207.645 Z-1.699 F3048
X148.828 Y207.678 Z-1.679 F3048
X148.859 Y207.716 Z-1.659 F3048
X148.884 Y207.759 Z-1.639 F3048
X148.901 Y207.805 Z-1.619 F3048
X148.912 Y207.854 Z-1.599 F3048
X148.919 Y207.906 Z-1.578 F3048
X148.952 Y208.152 F3048
( MOVEMENT_LINK_DIRECT)
X150.563 Y220.204 F3048
( MOVEMENT_LEAD_IN)
X150.592 Y220.419 F3048
G3 X150.594 Y220.45 I-0.315 J0.042 F3048
G1 X150.592 Y220.5 Z-1.598 F3048
X150.582 Y220.549 Z-1.618 F3048
X150.565 Y220.596 Z-1.638 F3048
X150.54 Y220.639 Z-1.658 F3048
X150.509 Y220.678 Z-1.678 F3048
X150.472 Y220.711 Z-1.698 F3048
X150.431 Y220.739 Z-1.718 F3048
X150.385 Y220.76 Z-1.738 F3048
X150.337 Y220.773 Z-1.758 F3048
X150.288 Y220.779 Z-1.778 F3048
( MOVEMENT_CUTTING)
X148.829 F3048
X148.679 Y220.771 F3048
X148.524 Y220.748 F3048
X148.35 Y220.705 F3048
X148.146 Y220.634 F3048
X147.944 Y220.541 F3048
X147.71 Y220.405 F3048
X147.458 Y220.225 F3048
X147.2 Y219.999 F3048
X146.915 Y219.699 F3048
X146.614 Y219.314 F3048
X146.303 Y218.828 F3048
X146.011 Y218.256 F3048
X145.766 Y217.663 F3048
X145.559 Y217.055 F3048
X145.383 Y216.437 F3048
X145.232 Y215.813 F3048
X145.102 Y215.184 F3048
X144.991 Y214.551 F3048
X144.898 Y213.916 F3048
X144.823 Y213.278 F3048
X144.764 Y212.639 F3048
X144.723 Y211.998 F3048
X144.701 Y211.356 F3048
Y210.714 F3048
X144.726 Y210.072 F3048
X144.782 Y209.432 F3048
X144.876 Y208.797 F3048
X144.98 Y208.355 F3048
X145.089 Y208.034 F3048
X145.141 Y207.916 F3048
X145.229 Y207.778 F3048
X145.352 Y207.67 F3048
X145.501 Y207.602 F3048
X145.663 Y207.579 F3048
X147.135 F3048
( MOVEMENT_LEAD_OUT)
X147.184 Y207.584 Z-1.758 F3048
X147.231 Y207.597 Z-1.738 F3048
X147.276 Y207.618 Z-1.718 F3048
X147.318 Y207.645 Z-1.699 F3048
X147.354 Y207.678 Z-1.679 F3048
X147.385 Y207.716 Z-1.659 F3048
X147.41 Y207.759 Z-1.639 F3048
X147.428 Y207.805 Z-1.619 F3048
X147.438 Y207.853 Z-1.599 F3048
X147.445 Y207.906 Z-1.578 F3048
X147.479 Y208.152 F3048
( MOVEMENT_LINK_DIRECT)
X149.103 Y220.204 F3048
( MOVEMENT_LEAD_IN)
X149.132 Y220.419 F3048
G3 X149.135 Y220.45 I-0.315 J0.042 F3048
G1 X149.133 Y220.5 Z-1.598 F3048
X149.123 Y220.549 Z-1.618 F3048
X149.105 Y220.596 Z-1.638 F3048
X149.081 Y220.639 Z-1.658 F3048
X149.05 Y220.678 Z-1.678 F3048
X149.013 Y220.711 Z-1.698 F3048
X148.972 Y220.739 Z-1.718 F3048
X148.926 Y220.76 Z-1.738 F3048
X148.878 Y220.773 Z-1.758 F3048
X148.829 Y220.779 Z-1.778 F3048
( MOVEMENT_CUTTING)
X147.37 F3048
X147.185 Y220.769 F3048
X147.027 Y220.746 F3048
X146.842 Y220.701 F3048
X146.656 Y220.636 F3048
X146.442 Y220.538 F3048
X146.206 Y220.401 F3048
X145.967 Y220.23 F3048
X145.69 Y219.988 F3048
X145.419 Y219.703 F3048
X145.117 Y219.318 F3048
X144.797 Y218.816 F3048
X144.504 Y218.245 F3048
X144.258 Y217.651 F3048
X144.05 Y217.044 F3048
X143.874 Y216.426 F3048
X143.723 Y215.802 F3048
X143.595 Y215.173 F3048
X143.487 Y214.54 F3048
X143.396 Y213.904 F3048
X143.324 Y213.266 F3048
X143.268 Y212.626 F3048
X143.231 Y211.985 F3048
X143.214 Y211.343 F3048
X143.218 Y210.701 F3048
X143.246 Y210.059 F3048
X143.303 Y209.419 F3048
X143.399 Y208.785 F3048
X143.507 Y208.336 F3048
X143.615 Y208.024 F3048
X143.666 Y207.913 F3048
X143.754 Y207.776 F3048
X143.877 Y207.669 F3048
X144.025 Y207.602 F3048
X144.186 Y207.579 F3048
X145.663 F3048
( MOVEMENT_LEAD_OUT)
X145.712 Y207.584 Z-1.758 F3048
X145.759 Y207.597 Z-1.738 F3048
X145.804 Y207.617 Z-1.719 F3048
X145.846 Y207.645 Z-1.699 F3048
X145.882 Y207.678 Z-1.679 F3048
X145.913 Y207.716 Z-1.659 F3048
X145.938 Y207.759 Z-1.639 F3048
X145.956 Y207.805 Z-1.619 F3048
X145.966 Y207.853 Z-1.6 F3048
X145.973 Y207.906 Z-1.578 F3048
X146.007 Y208.152 F3048
( MOVEMENT_LINK_DIRECT)
X147.644 Y220.204 F3048
( MOVEMENT_LEAD_IN)
X147.673 Y220.418 F3048
G3 X147.676 Y220.45 I-0.315 J0.043 F3048
G1 X147.674 Y220.5 Z-1.598 F3048
X147.664 Y220.549 Z-1.618 F3048
X147.646 Y220.596 Z-1.638 F3048
X147.622 Y220.639 Z-1.658 F3048
X147.591 Y220.678 Z-1.678 F3048
X147.554 Y220.711 Z-1.698 F3048
X147.513 Y220.739 Z-1.718 F3048
X147.467 Y220.76 Z-1.738 F3048
X147.419 Y220.773 Z-1.758 F3048
X147.37 Y220.779 Z-1.778 F3048
( MOVEMENT_CUTTING)
X145.765 F3048
X145.615 Y220.771 F3048
X145.442 Y220.737 F3048
X145.254 Y220.681 F3048
X145.055 Y220.6 F3048
X144.821 Y220.478 F3048
X144.588 Y220.326 F3048
X144.326 Y220.118 F3048
X144.051 Y219.854 F3048
X143.75 Y219.503 F3048
X143.448 Y219.074 F3048
X143.13 Y218.516 F3048
X142.864 Y217.932 F3048
X142.64 Y217.33 F3048
X142.45 Y216.716 F3048
X142.288 Y216.095 F3048
X142.15 Y215.468 F3048
X142.034 Y214.836 F3048
X141.937 Y214.201 F3048
X141.858 Y213.564 F3048
X141.797 Y212.925 F3048
X141.753 Y212.284 F3048
X141.729 Y211.642 F3048
X141.726 Y211 F3048
X141.745 Y210.358 F3048
X141.791 Y209.718 F3048
X141.87 Y209.08 F3048
X141.977 Y208.535 F3048
X142.09 Y208.154 F3048
X142.178 Y207.936 F3048
X142.264 Y207.79 F3048
X142.389 Y207.676 F3048
X142.541 Y207.603 F3048
X142.708 Y207.579 F3048
X144.186 F3048
( MOVEMENT_LEAD_OUT)
X144.236 Y207.584 Z-1.758 F3048
X144.283 Y207.597 Z-1.738 F3048
X144.329 Y207.618 Z-1.718 F3048
X144.37 Y207.645 Z-1.698 F3048
X144.407 Y207.679 Z-1.678 F3048
X144.438 Y207.718 Z-1.658 F3048
X144.463 Y207.761 Z-1.638 F3048
X144.48 Y207.808 Z-1.618 F3048
X144.49 Y207.856 Z-1.598 F3048
X144.496 Y207.906 Z-1.578 F3048
X144.527 Y208.153 F3048
( MOVEMENT_LINK_DIRECT)
X146.041 Y220.204 F3048
( MOVEMENT_LEAD_IN)
X146.069 Y220.422 F3048
G3 X146.071 Y220.45 I-0.315 J0.04 F3048
G1 X146.069 Y220.5 Z-1.598 F3048
X146.059 Y220.549 Z-1.618 F3048
X146.041 Y220.596 Z-1.638 F3048
X146.017 Y220.639 Z-1.658 F3048
X145.986 Y220.678 Z-1.678 F3048
X145.949 Y220.711 Z-1.698 F3048
X145.908 Y220.739 Z-1.718 F3048
X145.862 Y220.76 Z-1.738 F3048
X145.814 Y220.773 Z-1.758 F3048
X145.765 Y220.779 Z-1.778 F3048
( MOVEMENT_CUTTING)
X144.306 F3048
X144.156 Y220.771 F3048
X143.991 Y220.744 F3048
X143.817 Y220.698 F3048
X143.61 Y220.622 F3048
X143.4 Y220.521 F3048
X143.167 Y220.38 F3048
X142.904 Y220.185 F3048
X142.645 Y219.952 F3048
X142.353 Y219.633 F3048
X142.048 Y219.229 F3048
X141.73 Y218.713 F3048
X141.447 Y218.137 F3048
X141.21 Y217.54 F3048
X141.009 Y216.93 F3048
X140.839 Y216.311 F3048
X140.694 Y215.686 F3048
X140.572 Y215.055 F3048
X140.47 Y214.421 F3048
X140.386 Y213.784 F3048
X140.321 Y213.145 F3048
X140.274 Y212.505 F3048
X140.245 Y211.863 F3048
X140.236 Y211.221 F3048
X140.249 Y210.579 F3048
X140.288 Y209.938 F3048
X140.357 Y209.3 F3048
X140.465 Y208.667 F3048
X140.579 Y208.244 F3048
X140.69 Y207.947 F3048
X140.714 Y207.899 F3048
X140.803 Y207.768 F3048
X140.925 Y207.665 F3048
X141.07 Y207.601 F3048
X141.227 Y207.579 F3048
X142.708 F3048
( MOVEMENT_LEAD_OUT)
X142.757 Y207.584 Z-1.758 F3048
X142.805 Y207.597 Z-1.738 F3048
X142.851 Y207.618 Z-1.718 F3048
X142.892 Y207.645 Z-1.698 F3048
X142.929 Y207.679 Z-1.678 F3048
X142.96 Y207.718 Z-1.658 F3048
X142.984 Y207.761 Z-1.638 F3048
X143.002 Y207.807 Z-1.618 F3048
X143.012 Y207.856 Z-1.598 F3048
X143.018 Y207.906 Z-1.578 F3048
X143.05 Y208.153 F3048
( MOVEMENT_LINK_DIRECT)
X144.582 Y220.204 F3048
( MOVEMENT_LEAD_IN)
X144.61 Y220.421 F3048
G3 X144.612 Y220.45 I-0.315 J0.04 F3048
G1 X144.61 Y220.5 Z-1.598 F3048
X144.6 Y220.549 Z-1.618 F3048
X144.582 Y220.596 Z-1.638 F3048
X144.558 Y220.639 Z-1.658 F3048
X144.527 Y220.678 Z-1.678 F3048
X144.49 Y220.711 Z-1.698 F3048
X144.448 Y220.739 Z-1.718 F3048
X144.403 Y220.76 Z-1.738 F3048
X144.355 Y220.773 Z-1.758 F3048
X144.306 Y220.779 Z-1.778 F3048
( MOVEMENT_CUTTING)
X142.847 F3048
X142.675 Y220.77 F3048
X142.522 Y220.748 F3048
X142.341 Y220.703 F3048
X142.144 Y220.635 F3048
X141.938 Y220.54 F3048
X141.694 Y220.398 F3048
X141.455 Y220.227 F3048
X141.184 Y219.991 F3048
X140.906 Y219.699 F3048
X140.599 Y219.307 F3048
X140.282 Y218.81 F3048
X139.989 Y218.238 F3048
X139.744 Y217.645 F3048
X139.538 Y217.036 F3048
X139.364 Y216.418 F3048
X139.216 Y215.793 F3048
X139.091 Y215.163 F3048
X138.988 Y214.53 F3048
X138.903 Y213.893 F3048
X138.837 Y213.254 F3048
X138.789 Y212.614 F3048
X138.759 Y211.972 F3048
X138.749 Y211.33 F3048
X138.76 Y210.688 F3048
X138.794 Y210.047 F3048
X138.858 Y209.408 F3048
X138.96 Y208.774 F3048
X139.07 Y208.328 F3048
X139.181 Y208.012 F3048
X139.228 Y207.91 F3048
X139.316 Y207.774 F3048
X139.439 Y207.669 F3048
X139.587 Y207.601 F3048
X139.747 Y207.579 F3048
X141.227 F3048
( MOVEMENT_LEAD_OUT)
X141.277 Y207.584 Z-1.758 F3048
X141.324 Y207.597 Z-1.738 F3048
X141.37 Y207.618 Z-1.718 F3048
X141.411 Y207.645 Z-1.698 F3048
X141.448 Y207.679 Z-1.678 F3048
X141.479 Y207.717 Z-1.658 F3048
X141.503 Y207.76 Z-1.639 F3048
X141.521 Y207.807 Z-1.619 F3048
X141.531 Y207.855 Z-1.599 F3048
X141.538 Y207.906 Z-1.578 F3048
X141.569 Y208.153 F3048
( MOVEMENT_LINK_DIRECT)
X143.123 Y220.204 F3048
( MOVEMENT_LEAD_IN)
X143.15 Y220.421 F3048
G3 X143.153 Y220.45 I-0.315 J0.041 F3048
G1 X143.151 Y220.5 Z-1.598 F3048
X143.141 Y220.549 Z-1.618 F3048
X143.123 Y220.596 Z-1.638 F3048
X143.099 Y220.639 Z-1.658 F3048
X143.068 Y220.678 Z-1.678 F3048
X143.031 Y220.711 Z-1.698 F3048
X142.989 Y220.739 Z-1.718 F3048
X142.944 Y220.76 Z-1.738 F3048
X142.896 Y220.773 Z-1.758 F3048
X142.847 Y220.779 Z-1.778 F3048
( MOVEMENT_CUTTING)
X141.388 F3048
X141.175 Y220.768 F3048
X141.018 Y220.745 F3048
X140.832 Y220.699 F3048
X140.645 Y220.634 F3048
X140.431 Y220.536 F3048
X140.191 Y220.397 F3048
X139.952 Y220.226 F3048
X139.673 Y219.982 F3048
X139.402 Y219.697 F3048
X139.099 Y219.31 F3048
X138.779 Y218.81 F3048
X138.486 Y218.238 F3048
X138.241 Y217.645 F3048
X138.035 Y217.037 F3048
X137.861 Y216.418 F3048
X137.715 Y215.793 F3048
X137.592 Y215.163 F3048
X137.49 Y214.529 F3048
X137.408 Y213.892 F3048
X137.344 Y213.253 F3048
X137.298 Y212.612 F3048
X137.27 Y211.971 F3048
X137.262 Y211.329 F3048
X137.275 Y210.686 F3048
X137.311 Y210.045 F3048
X137.374 Y209.406 F3048
X137.476 Y208.772 F3048
X137.588 Y208.322 F3048
X137.699 Y208.009 F3048
X137.746 Y207.909 F3048
X137.834 Y207.773 F3048
X137.957 Y207.668 F3048
X138.104 Y207.601 F3048
X138.264 Y207.579 F3048
X139.747 F3048
( MOVEMENT_LEAD_OUT)
X139.796 Y207.584 Z-1.758 F3048
X139.844 Y207.597 Z-1.738 F3048
X139.889 Y207.618 Z-1.718 F3048
X139.931 Y207.645 Z-1.698 F3048
X139.967 Y207.678 Z-1.678 F3048
X139.998 Y207.717 Z-1.659 F3048
X140.023 Y207.76 Z-1.639 F3048
X140.041 Y207.806 Z-1.619 F3048
X140.051 Y207.855 Z-1.599 F3048
X140.057 Y207.906 Z-1.578 F3048
X140.09 Y208.153 F3048
( MOVEMENT_LINK_DIRECT)
X141.663 Y220.204 F3048
( MOVEMENT_LEAD_IN)
X141.691 Y220.42 F3048
G3 X141.694 Y220.45 I-0.315 J0.041 F3048
G1 X141.692 Y220.5 Z-1.598 F3048
X141.682 Y220.549 Z-1.618 F3048
X141.664 Y220.596 Z-1.638 F3048
X141.64 Y220.639 Z-1.658 F3048
X141.609 Y220.678 Z-1.678 F3048
X141.572 Y220.711 Z-1.698 F3048
X141.53 Y220.739 Z-1.718 F3048
X141.485 Y220.76 Z-1.738 F3048
X141.437 Y220.773 Z-1.758 F3048
X141.388 Y220.779 Z-1.778 F3048
( MOVEMENT_CUTTING)
X139.783 F3048
X139.633 Y220.771 F3048
X139.466 Y220.742 F3048
X139.277 Y220.689 F3048
X139.085 Y220.616 F3048
X138.859 Y220.504 F3048
X138.622 Y220.357 F3048
X138.37 Y220.165 F3048
X138.092 Y219.908 F3048
X137.805 Y219.588 F3048
X137.503 Y219.177 F3048
X137.18 Y218.638 F3048
X136.904 Y218.058 F3048
X136.673 Y217.459 F3048
X136.478 Y216.847 F3048
X136.314 Y216.226 F3048
X136.176 Y215.599 F3048
X136.06 Y214.968 F3048
X135.966 Y214.332 F3048
X135.891 Y213.695 F3048
X135.834 Y213.055 F3048
X135.796 Y212.414 F3048
X135.776 Y211.772 F3048
Y211.13 F3048
X135.797 Y210.488 F3048
X135.843 Y209.847 F3048
X135.919 Y209.21 F3048
X136.033 Y208.595 F3048
X136.148 Y208.195 F3048
X136.261 Y207.908 F3048
X136.269 Y207.891 F3048
X136.358 Y207.763 F3048
X136.48 Y207.663 F3048
X136.623 Y207.6 F3048
X136.779 Y207.579 F3048
X138.264 F3048
( MOVEMENT_LEAD_OUT)
X138.314 Y207.584 Z-1.758 F3048
X138.362 Y207.598 Z-1.738 F3048
X138.407 Y207.618 Z-1.718 F3048
X138.449 Y207.646 Z-1.698 F3048
X138.486 Y207.68 Z-1.678 F3048
X138.517 Y207.719 Z-1.658 F3048
X138.541 Y207.762 Z-1.638 F3048
X138.558 Y207.809 Z-1.618 F3048
X138.568 Y207.858 Z-1.598 F3048
X138.574 Y207.906 Z-1.578 F3048
X138.604 Y208.153 F3048
( MOVEMENT_LINK_DIRECT)
X140.06 Y220.204 F3048
( MOVEMENT_LEAD_IN)
X140.087 Y220.423 F3048
G3 X140.089 Y220.45 I-0.315 J0.038 F3048
G1 X140.087 Y220.5 Z-1.598 F3048
X140.077 Y220.549 Z-1.618 F3048
X140.059 Y220.596 Z-1.638 F3048
X140.035 Y220.639 Z-1.658 F3048
X140.004 Y220.678 Z-1.678 F3048
X139.967 Y220.711 Z-1.698 F3048
X139.925 Y220.739 Z-1.718 F3048
X139.88 Y220.76 Z-1.738 F3048
X139.832 Y220.773 Z-1.758 F3048
X139.783 Y220.779 Z-1.778 F3048
( MOVEMENT_CUTTING)
X138.323 F3048
X138.164 Y220.771 F3048
X138.012 Y220.748 F3048
X137.835 Y220.705 F3048
X137.632 Y220.634 F3048
X137.429 Y220.541 F3048
X137.192 Y220.403 F3048
X136.943 Y220.225 F3048
X136.68 Y219.996 F3048
X136.396 Y219.697 F3048
X136.09 Y219.307 F3048
X135.782 Y218.824 F3048
X135.489 Y218.253 F3048
X135.244 Y217.659 F3048
X135.039 Y217.051 F3048
X134.866 Y216.432 F3048
X134.721 Y215.807 F3048
X134.6 Y215.176 F3048
X134.5 Y214.542 F3048
X134.42 Y213.904 F3048
X134.358 Y213.265 F3048
X134.315 Y212.624 F3048
X134.291 Y211.983 F3048
X134.285 Y211.34 F3048
X134.3 Y210.698 F3048
X134.338 Y210.057 F3048
X134.405 Y209.419 F3048
X134.508 Y208.785 F3048
X134.618 Y208.337 F3048
X134.731 Y208.015 F3048
X134.779 Y207.911 F3048
X134.867 Y207.775 F3048
X134.99 Y207.669 F3048
X135.137 Y207.602 F3048
X135.298 Y207.579 F3048
X136.779 F3048
( MOVEMENT_LEAD_OUT)
X136.828 Y207.584 Z-1.758 F3048
X136.876 Y207.597 Z-1.738 F3048
X136.921 Y207.618 Z-1.718 F3048
X136.963 Y207.646 Z-1.698 F3048
X137 Y207.679 Z-1.678 F3048
X137.031 Y207.718 Z-1.658 F3048
X137.055 Y207.762 Z-1.638 F3048
X137.073 Y207.808 Z-1.618 F3048
X137.083 Y207.857 Z-1.598 F3048
X137.089 Y207.906 Z-1.578 F3048
X137.119 Y208.153 F3048
( MOVEMENT_LINK_DIRECT)
X138.601 Y220.204 F3048
( MOVEMENT_LEAD_IN)
X138.628 Y220.422 F3048
G3 X138.63 Y220.45 I-0.315 J0.039 F3048
G1 X138.628 Y220.5 Z-1.598 F3048
X138.618 Y220.549 Z-1.618 F3048
X138.6 Y220.596 Z-1.638 F3048
X138.576 Y220.639 Z-1.658 F3048
X138.545 Y220.678 Z-1.678 F3048
X138.508 Y220.711 Z-1.698 F3048
X138.466 Y220.739 Z-1.718 F3048
X138.421 Y220.76 Z-1.738 F3048
X138.373 Y220.773 Z-1.758 F3048
X138.323 Y220.779 Z-1.778 F3048
( MOVEMENT_CUTTING)
X136.864 F3048
X136.667 Y220.769 F3048
X136.509 Y220.746 F3048
X136.323 Y220.7 F3048
X136.137 Y220.635 F3048
X135.922 Y220.536 F3048
X135.685 Y220.399 F3048
X135.446 Y220.228 F3048
X135.168 Y219.986 F3048
X134.898 Y219.701 F3048
X134.597 Y219.317 F3048
X134.279 Y218.82 F3048
X133.986 Y218.248 F3048
X133.742 Y217.655 F3048
X133.537 Y217.046 F3048
X133.365 Y216.427 F3048
X133.222 Y215.801 F3048
X133.102 Y215.17 F3048
X133.004 Y214.536 F3048
X132.926 Y213.898 F3048
X132.866 Y213.259 F3048
X132.825 Y212.618 F3048
X132.801 Y211.976 F3048
X132.797 Y211.334 F3048
X132.814 Y210.692 F3048
X132.853 Y210.051 F3048
X132.919 Y209.412 F3048
X133.023 Y208.778 F3048
X133.137 Y208.324 F3048
X133.248 Y208.01 F3048
X133.296 Y207.908 F3048
X133.384 Y207.773 F3048
X133.507 Y207.668 F3048
X133.654 Y207.601 F3048
X133.814 Y207.579 F3048
X135.298 F3048
( MOVEMENT_LEAD_OUT)
X135.347 Y207.584 Z-1.758 F3048
X135.395 Y207.597 Z-1.738 F3048
X135.441 Y207.618 Z-1.718 F3048
X135.482 Y207.645 Z-1.698 F3048
X135.519 Y207.679 Z-1.678 F3048
X135.55 Y207.718 Z-1.658 F3048
X135.575 Y207.761 Z-1.638 F3048
X135.592 Y207.808 Z-1.618 F3048
X135.602 Y207.857 Z-1.598 F3048
X135.608 Y207.906 Z-1.578 F3048
X135.639 Y208.153 F3048
( MOVEMENT_LINK_DIRECT)
X137.141 Y220.204 F3048
( MOVEMENT_LEAD_IN)
X137.168 Y220.422 F3048
G3 X137.171 Y220.45 I-0.315 J0.039 F3048
G1 X137.168 Y220.5 Z-1.598 F3048
X137.158 Y220.549 Z-1.618 F3048
X137.141 Y220.596 Z-1.638 F3048
X137.116 Y220.639 Z-1.658 F3048
X137.085 Y220.678 Z-1.678 F3048
X137.049 Y220.711 Z-1.698 F3048
X137.007 Y220.739 Z-1.718 F3048
X136.962 Y220.76 Z-1.738 F3048
X136.914 Y220.773 Z-1.758 F3048
X136.864 Y220.779 Z-1.778 F3048
( MOVEMENT_CUTTING)
X135.259 F3048
X135.11 Y220.771 F3048
X134.94 Y220.739 F3048
X134.751 Y220.685 F3048
X134.556 Y220.608 F3048
X134.326 Y220.49 F3048
X134.092 Y220.342 F3048
X133.835 Y220.141 F3048
X133.56 Y219.882 F3048
X133.267 Y219.547 F3048
X132.968 Y219.132 F3048
X132.647 Y218.582 F3048
X132.378 Y217.999 F3048
X132.152 Y217.398 F3048
X131.963 Y216.784 F3048
X131.805 Y216.162 F3048
X131.672 Y215.534 F3048
X131.563 Y214.901 F3048
X131.474 Y214.265 F3048
X131.404 Y213.626 F3048
X131.353 Y212.986 F3048
X131.321 Y212.345 F3048
X131.308 Y211.703 F3048
X131.314 Y211.061 F3048
X131.341 Y210.419 F3048
X131.392 Y209.779 F3048
X131.474 Y209.142 F3048
X131.59 Y208.554 F3048
X131.707 Y208.163 F3048
X131.799 Y207.935 F3048
X131.885 Y207.79 F3048
X132.009 Y207.676 F3048
X132.162 Y207.603 F3048
X132.329 Y207.579 F3048
X133.814 F3048
( MOVEMENT_LEAD_OUT)
X133.863 Y207.584 Z-1.758 F3048
X133.912 Y207.598 Z-1.738 F3048
X133.957 Y207.619 Z-1.718 F3048
X133.999 Y207.646 Z-1.698 F3048
X134.036 Y207.68 Z-1.677 F3048
X134.067 Y207.72 Z-1.657 F3048
X134.091 Y207.763 Z-1.637 F3048
X134.108 Y207.81 Z-1.617 F3048
X134.118 Y207.86 Z-1.597 F3048
X134.123 Y207.906 Z-1.578 F3048
X134.152 Y208.153 F3048
( MOVEMENT_LINK_DIRECT)
X135.538 Y220.204 F3048
