%
(Fusion CAM 2.0.18961)
( Posts processor: MPCNC21.cps)
( Gcode generated: Sunday, April 28, 2024 9:23:23 PM GMT)
( Document: wireWiggler v198)
( Setup: boxTop)
(When using Fusion for Personal Use, the feedrate of rapid)
(moves is reduced to match the feedrate of cutting moves,)
(which can increase machining time. Unrestricted rapid moves)
(are available with a Fusion Subscription.)
( )
( Ranges Table:)
(   X: Min=4.412 Max=204.829 Size=200.417)
(   Y: Min=4.412 Max=205.766 Size=201.354)
(   Z: Min=-12.438 Max=3 Size=15.438)
( )
( Tools Table:)
(  T2 D=3.175 CR=0 - ZMIN=-12.438 - flat end mill )
( )
( Feedrate and Scaling Properties:)
(   Feed: Travel speed X/Y = 7500)
(   Feed: Travel Speed Z = 300)
(   Feed: Enforce Feedrate = true)
(   Feed: Scale Feedrate = false)
(   Feed: Max XY Cut Speed = 900)
(   Feed: Max Z Cut Speed = 180)
(   Feed: Max Toolpath Speed = 1000)
( )
( G1->G0 Mapping Properties:)
(   Map: First G1 -> G0 Rapid = true)
(   Map: G1s -> G0 Rapids = true)
(   Map: SafeZ Mode = Retract : default = 0)
(   Map: Allow Rapid Z = true)
( )
( *** START begin ***)
( --- Start custom gcode C:\Users\Kevin\Documents\Fusion 360\NC Programs\start.gcode)
% vfd enable
M6 T0
% LED ON
M62 P0
% spindle relays on
M62 P1
%( *** START end ***)
( )
( *** SECTION begin ***)
(   X Min: 29.321 - X Max: 204.829)
(   Y Min: 33.286 - Y Max: 205.766)
(   Z Min: -1 - Z Max: 3)
( SafeZ retract level: 3)
( glueLettersTop - Milling - Tool: 2 -  flat end mill)
( COMMAND_START_SPINDLE)
( COMMAND_SPINDLE_CLOCKWISE)
( >>> Spindle Speed 18000)
M3 S18000
( COMMAND_COOLANT_ON)
( >>> WARNING: No matching Coolant channel : Flood requested)
( MOVEMENT_PLUNGE)
( First G1 --> G0)
G0 Z3 F300
X113.641 Y46.087 F7500
G1 Z0.635 F339
Z-1 F339
( MOVEMENT_FINISH_CUTTING)
X113.364 Y46.047 F3048
X113.079 Y45.979 F3048
X112.943 Y45.941 F3048
X112.532 Y45.686 F3048
X112.272 Y45.514 F3048
X112.034 Y45.346 F3048
X111.826 Y45.184 F3048
X111.65 Y45.029 F3048
X111.505 Y44.88 F3048
X111.39 Y44.74 F3048
X111.3 Y44.602 F3048
X111.217 Y44.442 F3048
X111.136 Y44.244 F3048
X111.06 Y44.011 F3048
X110.989 Y43.747 F3048
X110.923 Y43.457 F3048
X110.821 Y42.921 F3048
Y42.748 F3048
X110.854 Y42.455 F3048
X110.904 Y42.133 F3048
X110.968 Y41.856 F3048
X110.995 Y41.772 F3048
X111.028 Y41.684 F3048
X111.069 Y41.599 F3048
X111.116 Y41.513 F3048
X111.276 Y41.264 F3048
X111.477 Y40.996 F3048
X111.722 Y40.688 F3048
G17 G2 X111.728 Y38.718 I-1.242 J-0.989 F3048
G1 X111.479 Y38.401 F3048
X111.275 Y38.124 F3048
X111.113 Y37.868 F3048
X111.068 Y37.783 F3048
X111.026 Y37.69 F3048
X110.991 Y37.598 F3048
X110.965 Y37.508 F3048
X110.901 Y37.215 F3048
X110.854 Y36.881 F3048
X110.821 Y36.565 F3048
Y36.427 F3048
X110.842 Y36.118 F3048
X110.881 Y35.834 F3048
X110.948 Y35.547 F3048
X110.994 Y35.393 F3048
X111.254 Y34.971 F3048
X111.426 Y34.71 F3048
X111.594 Y34.472 F3048
X111.755 Y34.265 F3048
X111.911 Y34.09 F3048
X112.056 Y33.949 F3048
X112.194 Y33.839 F3048
X112.332 Y33.75 F3048
X112.495 Y33.669 F3048
X112.694 Y33.59 F3048
X112.929 Y33.516 F3048
X113.199 Y33.448 F3048
X113.493 Y33.385 F3048
X114.044 Y33.286 F3048
X123.652 F3048
Y33.445 F3048
X113.798 F3048
G2 X113.225 Y33.552 J1.588 F3048
G1 X112.991 Y33.643 F3048
G2 X112.924 Y33.671 I0.573 J1.481 F3048
G1 X112.7 Y33.769 F3048
G2 X112.561 Y33.839 I0.64 J1.453 F3048
G1 X112.356 Y33.955 F3048
G2 X112.211 Y34.047 I0.779 J1.383 F3048
G1 X112.118 Y34.114 F3048
G2 X111.986 Y34.219 I0.924 J1.291 F3048
G1 X111.903 Y34.293 F3048
G2 X111.786 Y34.409 I1.056 J1.186 F3048
G1 X111.711 Y34.491 F3048
G2 X111.578 Y34.658 I1.173 J1.069 F3048
G1 X111.515 Y34.749 F3048
G2 X111.432 Y34.883 I1.306 J0.902 F3048
G1 X111.377 Y34.982 F3048
G2 X111.315 Y35.108 I1.389 J0.769 F3048
G1 X111.268 Y35.214 F3048
G2 X111.214 Y35.353 I1.451 J0.643 F3048
G1 X111.138 Y35.58 F3048
G2 X111.11 Y35.671 I1.505 J0.504 F3048
G1 X111.046 Y35.909 F3048
G2 X110.992 Y36.321 I1.533 J0.413 F3048
G1 Y36.598 F3048
G2 X110.995 Y36.702 I1.588 F3048
G1 X111.009 Y36.916 F3048
G2 X111.05 Y37.185 I1.584 J-0.104 F3048
G1 X111.075 Y37.289 F3048
G2 X111.117 Y37.434 I1.543 J-0.373 F3048
G1 X111.152 Y37.535 F3048
G2 X111.283 Y37.82 I1.501 J-0.518 F3048
G1 X111.418 Y38.05 F3048
G2 X111.463 Y38.122 I1.37 J-0.803 F3048
G1 X111.606 Y38.339 F3048
G2 X111.685 Y38.448 I1.325 J-0.875 F3048
G1 X111.763 Y38.546 F3048
G2 X111.848 Y38.645 I1.246 J-0.984 F3048
G1 X111.932 Y38.735 F3048
G2 X112.04 Y38.841 I1.161 J-1.083 F3048
G1 X112.13 Y38.921 F3048
G2 X112.287 Y39.043 I1.053 J-1.188 F3048
G1 X112.386 Y39.111 F3048
G2 X112.547 Y39.207 I0.896 J-1.31 F3048
G1 X112.653 Y39.263 F3048
G2 X112.806 Y39.333 I0.735 J-1.407 F3048
G1 X112.919 Y39.377 F3048
G2 X113.107 Y39.438 I0.582 J-1.477 F3048
G1 X113.351 Y39.501 F3048
G2 X113.517 Y39.534 I0.394 J-1.538 F3048
G1 X113.776 Y39.571 F3048
G2 X113.855 Y39.581 I0.228 J-1.571 F3048
G1 X114.123 Y39.606 F3048
G2 X114.272 Y39.613 I0.149 J-1.581 F3048
G1 X118.709 F3048
Y39.772 F3048
X114.096 F3048
G2 X113.75 Y39.811 J1.588 F3048
G1 X113.447 Y39.878 F3048
G2 X113.363 Y39.9 I0.346 J1.549 F3048
G1 X113.074 Y39.981 F3048
G2 X112.955 Y40.02 I0.43 J1.528 F3048
G1 X112.82 Y40.069 F3048
G2 X112.702 Y40.118 I0.549 J1.489 F3048
G1 X112.576 Y40.176 F3048
G2 X112.442 Y40.247 I0.667 J1.441 F3048
G1 X112.325 Y40.315 F3048
G2 X112.157 Y40.428 I0.801 J1.37 F3048
G1 X112.053 Y40.508 F3048
G2 X111.884 Y40.659 I0.969 J1.258 F3048
G1 X111.793 Y40.753 F3048
G2 X111.635 Y40.942 I1.138 J1.107 F3048
G1 X111.559 Y41.05 F3048
G2 X111.461 Y41.207 I1.296 J0.917 F3048
G1 X111.396 Y41.326 F3048
G2 X111.325 Y41.475 I1.394 J0.76 F3048
G1 X111.271 Y41.604 F3048
G2 X111.22 Y41.745 I1.465 J0.611 F3048
G1 X111.133 Y42.026 F3048
G2 X111.104 Y42.131 I1.516 J0.47 F3048
G1 X111.034 Y42.428 F3048
G2 X110.992 Y42.793 I1.545 J0.365 F3048
G1 Y43.132 F3048
G2 X111.095 Y43.695 I1.588 F3048
G1 X111.184 Y43.93 F3048
G2 X111.21 Y43.994 I1.484 J-0.563 F3048
G1 X111.307 Y44.22 F3048
G2 X111.376 Y44.36 I1.458 J-0.628 F3048
G1 X111.49 Y44.566 F3048
G2 X111.584 Y44.716 I1.389 J-0.768 F3048
G1 X111.65 Y44.809 F3048
G2 X111.742 Y44.926 I1.295 J-0.919 F3048
G1 X111.815 Y45.011 F3048
G2 X111.937 Y45.138 I1.203 J-1.036 F3048
G1 X112.018 Y45.213 F3048
G2 X112.176 Y45.342 I1.081 J-1.163 F3048
G1 X112.267 Y45.407 F3048
G2 X112.406 Y45.496 I0.923 J-1.292 F3048
G1 X112.504 Y45.551 F3048
G2 X112.633 Y45.617 I0.784 J-1.38 F3048
G1 X112.739 Y45.665 F3048
G2 X112.871 Y45.718 I0.655 J-1.446 F3048
G1 X113.097 Y45.797 F3048
G2 X113.19 Y45.826 I0.523 J-1.499 F3048
G1 X113.426 Y45.893 F3048
G2 X113.856 Y45.952 I0.43 J-1.528 F3048
G1 X123.652 F3048
Y46.111 F3048
X113.923 F3048
X113.641 Y46.087 F3048
( MOVEMENT_CUTTING)
( Safe G1 --> G0)
G0 Z3 F300
( Safe G1 --> G0)
X41.148 Y112.74 F7500
( MOVEMENT_PLUNGE)
G1 Z0.635 F339
Z-1 F339
( MOVEMENT_FINISH_CUTTING)
X41.326 Y112.896 F3048
X41.471 Y113.043 F3048
X41.584 Y113.182 F3048
X41.676 Y113.322 F3048
X41.76 Y113.484 F3048
X41.84 Y113.68 F3048
X41.917 Y113.912 F3048
X41.989 Y114.179 F3048
X42.055 Y114.47 F3048
X42.158 Y115.004 F3048
Y115.174 F3048
X42.123 Y115.465 F3048
X42.073 Y115.789 F3048
X42.009 Y116.066 F3048
X41.983 Y116.148 F3048
X41.949 Y116.236 F3048
X41.908 Y116.324 F3048
X41.862 Y116.407 F3048
X41.7 Y116.658 F3048
X41.501 Y116.925 F3048
X41.257 Y117.231 F3048
G2 X41.249 Y119.2 I1.241 J0.99 F3048
G1 X41.497 Y119.517 F3048
X41.701 Y119.796 F3048
X41.864 Y120.055 F3048
X41.91 Y120.141 F3048
X41.952 Y120.234 F3048
X41.987 Y120.326 F3048
X42.013 Y120.415 F3048
X42.077 Y120.708 F3048
X42.124 Y121.046 F3048
X42.158 Y121.36 F3048
Y121.494 F3048
X42.135 Y121.799 F3048
X42.096 Y122.083 F3048
X42.028 Y122.367 F3048
X41.982 Y122.523 F3048
X41.719 Y122.949 F3048
X41.547 Y123.211 F3048
X41.379 Y123.448 F3048
X41.217 Y123.655 F3048
X41.061 Y123.832 F3048
X40.914 Y123.973 F3048
X40.777 Y124.083 F3048
X40.638 Y124.172 F3048
X40.476 Y124.253 F3048
X40.273 Y124.333 F3048
X40.037 Y124.408 F3048
X39.769 Y124.476 F3048
X39.472 Y124.539 F3048
X38.92 Y124.638 F3048
X29.321 F3048
Y111.813 F3048
X39.043 F3048
X39.33 Y111.837 F3048
X39.608 Y111.877 F3048
X39.891 Y111.943 F3048
X40.027 Y111.982 F3048
X40.442 Y112.238 F3048
X40.701 Y112.408 F3048
X40.938 Y112.576 F3048
X41.148 Y112.74 F3048
( MOVEMENT_CUTTING)
( Safe G1 --> G0)
G0 Z3 F300
( Safe G1 --> G0)
X40.56 Y112.426 F7500
( MOVEMENT_PLUNGE)
G1 Z0.635 F339
Z-1 F339
( MOVEMENT_FINISH_CUTTING)
X40.46 Y112.37 F3048
G2 X40.335 Y112.306 I-0.779 J1.383 F3048
G1 X40.228 Y112.258 F3048
G2 X40.096 Y112.205 I-0.653 J1.447 F3048
G1 X39.868 Y112.126 F3048
G2 X39.771 Y112.096 I-0.52 J1.5 F3048
G1 X39.532 Y112.03 F3048
G2 X39.109 Y111.973 I-0.423 J1.53 F3048
G1 X31.08 F3048
G2 X29.492 Y113.56 J1.587 F3048
G1 Y122.891 F3048
G2 X31.08 Y124.479 I1.587 F3048
G1 X39.157 F3048
G2 X39.721 Y124.375 J-1.588 F3048
G1 X39.958 Y124.285 F3048
G2 X40.028 Y124.256 I-0.564 J-1.484 F3048
G1 X40.255 Y124.157 F3048
G2 X40.389 Y124.091 I-0.634 J-1.455 F3048
G1 X40.597 Y123.976 F3048
G2 X40.75 Y123.879 I-0.768 J-1.389 F3048
G1 X40.844 Y123.812 F3048
G2 X40.962 Y123.72 I-0.922 J-1.292 F3048
G1 X41.047 Y123.646 F3048
G2 X41.179 Y123.517 I-1.04 J-1.2 F3048
G1 X41.255 Y123.434 F3048
G2 X41.372 Y123.29 I-1.172 J-1.071 F3048
G1 X41.438 Y123.199 F3048
G2 X41.534 Y123.049 I-1.288 J-0.927 F3048
G1 X41.59 Y122.949 F3048
G2 X41.653 Y122.824 I-1.385 J-0.777 F3048
G1 X41.701 Y122.717 F3048
G2 X41.753 Y122.587 I-1.447 J-0.652 F3048
G1 X41.832 Y122.358 F3048
G2 X41.862 Y122.264 I-1.499 J-0.521 F3048
G1 X41.928 Y122.025 F3048
G2 X41.987 Y121.598 I-1.529 J-0.427 F3048
G1 Y121.32 F3048
G2 X41.983 Y121.214 I-1.588 F3048
G1 X41.969 Y121.006 F3048
G2 X41.926 Y120.729 I-1.584 J0.106 F3048
G1 X41.901 Y120.628 F3048
G2 X41.855 Y120.477 I-1.541 J0.383 F3048
G1 X41.82 Y120.379 F3048
G2 X41.699 Y120.118 I-1.495 J0.534 F3048
G1 X41.564 Y119.884 F3048
G2 X41.515 Y119.805 I-1.374 J0.795 F3048
G1 X41.371 Y119.586 F3048
G2 X41.299 Y119.486 I-1.325 J0.874 F3048
G1 X41.221 Y119.385 F3048
G2 X41.132 Y119.281 I-1.253 J0.974 F3048
G1 X41.048 Y119.19 F3048
G2 X40.939 Y119.083 I-1.165 J1.078 F3048
G1 X40.848 Y119.002 F3048
G2 X40.7 Y118.885 I-1.056 J1.185 F3048
G1 X40.601 Y118.816 F3048
G2 X40.439 Y118.717 I-0.908 J1.302 F3048
G1 X40.332 Y118.66 F3048
G2 X40.168 Y118.584 I-0.746 J1.401 F3048
G1 X40.053 Y118.539 F3048
G2 X39.871 Y118.48 I-0.582 J1.477 F3048
G1 X39.625 Y118.416 F3048
G2 X39.459 Y118.382 I-0.4 J1.536 F3048
G1 X39.196 Y118.343 F3048
G2 X39.115 Y118.333 I-0.233 J1.57 F3048
G1 X38.844 Y118.307 F3048
G2 X38.693 Y118.299 I-0.152 J1.58 F3048
G1 X34.961 F3048
Y118.141 F3048
X38.84 F3048
G2 X39.174 Y118.105 J-1.588 F3048
G1 X39.481 Y118.039 F3048
G2 X39.56 Y118.02 I-0.333 J-1.552 F3048
G1 X39.854 Y117.941 F3048
G2 X39.974 Y117.904 I-0.412 J-1.533 F3048
G1 X40.111 Y117.855 F3048
G2 X40.22 Y117.811 I-0.533 J-1.496 F3048
G1 X40.349 Y117.754 F3048
G2 X40.486 Y117.686 I-0.641 J-1.452 F3048
G1 X40.606 Y117.619 F3048
G2 X40.776 Y117.508 I-0.778 J-1.384 F3048
G1 X40.883 Y117.428 F3048
G2 X41.052 Y117.282 I-0.949 J-1.273 F3048
G1 X41.146 Y117.189 F3048
G2 X41.301 Y117.01 I-1.118 J-1.127 F3048
G1 X41.381 Y116.903 F3048
G2 X41.489 Y116.737 I-1.273 J-0.948 F3048
G1 X41.557 Y116.618 F3048
G2 X41.629 Y116.474 I-1.381 J-0.782 F3048
G1 X41.686 Y116.344 F3048
G2 X41.742 Y116.197 I-1.453 J-0.638 F3048
G1 X41.834 Y115.915 F3048
G2 X41.863 Y115.812 I-1.51 J-0.491 F3048
G1 X41.939 Y115.514 F3048
G2 X41.987 Y115.126 I-1.539 J-0.388 F3048
G1 Y114.797 F3048
G2 X41.882 Y114.23 I-1.588 F3048
G1 X41.792 Y113.994 F3048
G2 X41.764 Y113.926 I-1.483 J0.567 F3048
G1 X41.666 Y113.7 F3048
G2 X41.597 Y113.563 I-1.455 J0.635 F3048
G1 X41.482 Y113.356 F3048
G2 X41.391 Y113.21 I-1.387 J0.772 F3048
G1 X41.324 Y113.116 F3048
G2 X41.227 Y112.992 I-1.295 J0.918 F3048
G1 X41.153 Y112.907 F3048
G2 X41.025 Y112.776 I-1.198 J1.042 F3048
G1 X40.943 Y112.701 F3048
G2 X40.793 Y112.581 I-1.07 J1.173 F3048
G1 X40.702 Y112.516 F3048
G2 X40.56 Y112.426 I-0.921 J1.293 F3048
( MOVEMENT_CUTTING)
( Safe G1 --> G0)
G0 Z3 F300
( Safe G1 --> G0)
X88.956 Y198.981 F7500
( MOVEMENT_PLUNGE)
G1 Z0.635 F339
Z-1 F339
( MOVEMENT_FINISH_CUTTING)
G2 X89.867 Y199.268 I0.911 J-1.3 F3048
G1 X99.187 F3048
G2 X100.774 Y197.681 J-1.587 F3048
G1 Y192.941 F3048
X100.946 F3048
Y199.662 F3048
X100.87 Y200.214 F3048
X100.767 Y200.825 F3048
X100.71 Y201.085 F3048
X100.643 Y201.339 F3048
X100.568 Y201.571 F3048
X100.481 Y201.795 F3048
X100.377 Y202.019 F3048
X100.257 Y202.248 F3048
X100.119 Y202.484 F3048
X99.968 Y202.721 F3048
X99.608 Y203.242 F3048
X99.313 Y203.642 F3048
X98.85 Y204.049 F3048
X98.573 Y204.284 F3048
X98.3 Y204.503 F3048
X98.033 Y204.704 F3048
X97.773 Y204.882 F3048
X97.519 Y205.037 F3048
X97.27 Y205.17 F3048
X97.021 Y205.282 F3048
X96.758 Y205.378 F3048
X96.47 Y205.463 F3048
X96.156 Y205.54 F3048
X95.823 Y205.608 F3048
X95.474 Y205.669 F3048
X94.819 Y205.766 F3048
X94.212 F3048
X93.66 Y205.692 F3048
X93.047 Y205.588 F3048
X92.786 Y205.531 F3048
X92.533 Y205.464 F3048
X92.297 Y205.389 F3048
X92.077 Y205.303 F3048
X91.853 Y205.199 F3048
X91.622 Y205.077 F3048
X91.385 Y204.939 F3048
X91.148 Y204.788 F3048
X90.626 Y204.428 F3048
X90.225 Y204.133 F3048
X89.82 Y203.673 F3048
X89.586 Y203.396 F3048
X89.367 Y203.123 F3048
X89.168 Y202.858 F3048
X88.99 Y202.598 F3048
X88.834 Y202.344 F3048
X88.703 Y202.097 F3048
X88.592 Y201.848 F3048
X88.496 Y201.584 F3048
X88.41 Y201.298 F3048
X88.334 Y200.988 F3048
X88.267 Y200.654 F3048
X88.206 Y200.305 F3048
X88.109 Y199.652 F3048
Y192.941 F3048
X88.28 F3048
Y197.681 F3048
G2 X88.956 Y198.981 I1.588 F3048
( MOVEMENT_CUTTING)
( Safe G1 --> G0)
G0 Z3 F300
( Safe G1 --> G0)
X89.004 Y199.825 F7500
( MOVEMENT_PLUNGE)
G1 Z0.635 F339
Z-1 F339
( MOVEMENT_FINISH_CUTTING)
G2 X89.018 Y202.218 I1.051 J1.19 F3048
G1 X89.166 Y202.465 F3048
G2 X89.191 Y202.505 I1.363 J-0.814 F3048
G1 X89.379 Y202.801 F3048
G2 X89.409 Y202.845 I1.338 J-0.854 F3048
G1 X89.605 Y203.131 F3048
G2 X89.652 Y203.197 I1.309 J-0.898 F3048
G1 X89.859 Y203.467 F3048
G2 X89.919 Y203.541 I1.262 J-0.964 F3048
G1 X90.138 Y203.794 F3048
G2 X90.225 Y203.887 I1.201 J-1.038 F3048
G1 X90.459 Y204.117 F3048
G2 X90.569 Y204.216 I1.114 J-1.131 F3048
G1 X90.82 Y204.421 F3048
G2 X90.963 Y204.525 I1.004 J-1.23 F3048
G1 X91.234 Y204.7 F3048
G2 X91.378 Y204.782 I0.861 J-1.334 F3048
G1 X91.668 Y204.929 F3048
G2 X91.799 Y204.988 I0.717 J-1.416 F3048
G1 X92.107 Y205.11 F3048
G2 X92.212 Y205.148 I0.586 J-1.475 F3048
G1 X92.533 Y205.25 F3048
G2 X92.62 Y205.275 I0.48 J-1.513 F3048
G1 X92.953 Y205.36 F3048
G2 X93.014 Y205.374 I0.393 J-1.538 F3048
G1 X93.355 Y205.447 F3048
G2 X93.406 Y205.457 I0.332 J-1.552 F3048
G1 X94.102 Y205.582 F3048
G2 X94.383 Y205.607 I0.281 J-1.562 F3048
G1 X94.66 F3048
G2 X94.765 Y205.604 J-1.587 F3048
G1 X95.232 Y205.573 F3048
G2 X95.312 Y205.566 I-0.105 J-1.584 F3048
G1 X95.543 Y205.539 F3048
G2 X95.646 Y205.523 I-0.184 J-1.577 F3048
G1 X95.874 Y205.481 F3048
G2 X95.991 Y205.455 I-0.288 J-1.561 F3048
G1 X96.215 Y205.396 F3048
G2 X96.315 Y205.366 I-0.404 J-1.535 F3048
G1 X96.536 Y205.292 F3048
G2 X96.614 Y205.264 I-0.505 J-1.505 F3048
G1 X97.05 Y205.092 F3048
G2 X97.269 Y204.985 I-0.583 J-1.477 F3048
G1 X97.676 Y204.747 F3048
G2 X97.719 Y204.721 I-0.802 J-1.37 F3048
G1 X98.115 Y204.472 F3048
G2 X98.202 Y204.413 I-0.845 J-1.344 F3048
G1 X98.576 Y204.142 F3048
G2 X98.665 Y204.072 I-0.933 J-1.285 F3048
G1 X98.84 Y203.925 F3048
G2 X98.908 Y203.864 I-1.022 J-1.215 F3048
G1 X99.073 Y203.708 F3048
G2 X99.15 Y203.63 I-1.091 J-1.154 F3048
G1 X99.304 Y203.463 F3048
G2 X99.371 Y203.385 I-1.167 J-1.076 F3048
G1 X99.514 Y203.208 F3048
G2 X99.566 Y203.141 I-1.234 J-0.998 F3048
G1 X99.7 Y202.956 F3048
G2 X99.742 Y202.895 I-1.286 J-0.931 F3048
G1 X99.868 Y202.702 F3048
G2 X99.91 Y202.634 I-1.328 J-0.87 F3048
G1 X100.146 Y202.231 F3048
G2 X100.173 Y202.183 I-1.37 J-0.802 F3048
G1 X100.396 Y201.769 F3048
G2 X99 Y199.428 I-1.397 J-0.754 F3048
G1 X90.055 F3048
G2 X89.004 Y199.825 J1.587 F3048
( MOVEMENT_CUTTING)
( Safe G1 --> G0)
G0 Z3 F300
( Safe G1 --> G0)
X193.288 Y124.158 F7500
( MOVEMENT_PLUNGE)
G1 Z0.635 F339
Z-1 F339
( MOVEMENT_FINISH_CUTTING)
X193.299 Y124.174 F3048
G2 X193.332 Y124.223 I1.324 J-0.875 F3048
G1 X193.531 Y124.501 F3048
G2 X193.575 Y124.559 I1.291 J-0.924 F3048
G1 X193.783 Y124.823 F3048
G2 X193.847 Y124.899 I1.247 J-0.982 F3048
G1 X194.067 Y125.145 F3048
G2 X194.152 Y125.234 I1.183 J-1.058 F3048
G1 X194.386 Y125.458 F3048
G2 X194.495 Y125.553 I1.098 J-1.147 F3048
G1 X194.746 Y125.753 F3048
G2 X194.889 Y125.854 I0.989 J-1.242 F3048
G1 X195.159 Y126.024 F3048
G2 X195.301 Y126.104 I0.846 J-1.343 F3048
G1 X195.59 Y126.247 F3048
G2 X195.715 Y126.302 I0.704 J-1.423 F3048
G1 X196.019 Y126.421 F3048
G2 X196.126 Y126.459 I0.579 J-1.478 F3048
G1 X196.444 Y126.558 F3048
G2 X196.528 Y126.581 I0.472 J-1.516 F3048
G1 X196.857 Y126.664 F3048
G2 X196.921 Y126.679 I0.388 J-1.539 F3048
G1 X197.257 Y126.749 F3048
G2 X197.306 Y126.758 I0.324 J-1.554 F3048
G1 X197.993 Y126.879 F3048
G2 X198.268 Y126.904 I0.275 J-1.563 F3048
G1 X204.829 F3048
Y127.063 F3048
X198.102 F3048
X197.515 Y126.981 F3048
X196.867 Y126.866 F3048
X196.591 Y126.803 F3048
X196.326 Y126.729 F3048
X196.079 Y126.645 F3048
X195.847 Y126.549 F3048
X195.615 Y126.436 F3048
X195.375 Y126.3 F3048
X195.13 Y126.147 F3048
X194.887 Y125.98 F3048
X194.347 Y125.577 F3048
X193.924 Y125.243 F3048
X193.568 Y124.807 F3048
X193.145 Y124.257 F3048
X192.969 Y124.006 F3048
X192.807 Y123.755 F3048
X192.666 Y123.51 F3048
X192.544 Y123.269 F3048
X192.442 Y123.031 F3048
X192.354 Y122.779 F3048
X192.275 Y122.505 F3048
X192.206 Y122.212 F3048
X192.143 Y121.895 F3048
X192.087 Y121.565 F3048
X191.997 Y120.952 F3048
Y120.341 F3048
X192.072 Y119.789 F3048
X192.175 Y119.175 F3048
X192.232 Y118.914 F3048
X192.299 Y118.661 F3048
X192.373 Y118.428 F3048
X192.46 Y118.206 F3048
X192.564 Y117.979 F3048
X192.684 Y117.75 F3048
X192.821 Y117.515 F3048
X192.972 Y117.276 F3048
X193.333 Y116.755 F3048
X193.626 Y116.354 F3048
X194.086 Y115.95 F3048
X194.363 Y115.716 F3048
X194.636 Y115.497 F3048
X194.902 Y115.297 F3048
X195.162 Y115.119 F3048
X195.414 Y114.964 F3048
X195.663 Y114.832 F3048
X195.911 Y114.72 F3048
X196.173 Y114.625 F3048
X196.462 Y114.54 F3048
X196.773 Y114.464 F3048
X197.106 Y114.396 F3048
X197.455 Y114.335 F3048
X198.108 Y114.239 F3048
X204.829 F3048
Y114.397 F3048
X198.268 F3048
G2 X198.136 Y114.403 J1.588 F3048
G1 X197.609 Y114.447 F3048
G2 X197.511 Y114.458 I0.132 J1.582 F3048
G1 X197.252 Y114.496 F3048
G2 X197.147 Y114.515 I0.23 J1.571 F3048
G1 X196.892 Y114.57 F3048
G2 X196.758 Y114.605 I0.335 J1.552 F3048
G1 X196.509 Y114.682 F3048
G2 X196.402 Y114.72 I0.469 J1.517 F3048
G1 X196.158 Y114.815 F3048
G2 X196.076 Y114.849 I0.576 J1.479 F3048
G1 X195.595 Y115.068 F3048
G2 X195.316 Y115.231 I0.658 J1.445 F3048
G1 X194.8 Y115.608 F3048
G2 X194.769 Y115.632 I0.937 J1.282 F3048
G1 X194.518 Y115.825 F3048
G2 X194.476 Y115.858 I0.968 J1.258 F3048
G1 X194.236 Y116.056 F3048
G2 X194.184 Y116.101 I1.01 J1.225 F3048
G1 X193.955 Y116.307 F3048
G2 X193.884 Y116.375 I1.062 J1.18 F3048
G1 X193.672 Y116.591 F3048
G2 X193.593 Y116.677 I1.133 J1.112 F3048
G1 X193.4 Y116.905 F3048
G2 X193.322 Y117.006 I1.212 J1.026 F3048
G1 X193.15 Y117.246 F3048
G2 X193.061 Y117.385 I1.29 J0.925 F3048
G1 X192.915 Y117.641 F3048
G2 X192.847 Y117.773 I1.379 J0.786 F3048
G1 X192.725 Y118.043 F3048
G2 X192.676 Y118.165 I1.447 J0.654 F3048
G1 X192.575 Y118.449 F3048
G2 X192.545 Y118.544 I1.496 J0.532 F3048
G1 X192.461 Y118.837 F3048
G2 X192.441 Y118.916 I1.526 J0.438 F3048
G1 X192.37 Y119.218 F3048
G2 X192.359 Y119.273 I1.547 J0.358 F3048
G1 X192.299 Y119.582 F3048
G2 X192.29 Y119.633 I1.558 J0.303 F3048
G1 X192.189 Y120.26 F3048
G2 X192.169 Y120.512 I1.567 J0.252 F3048
G1 Y120.79 F3048
G2 X192.173 Y120.905 I1.587 F3048
G1 X192.203 Y121.319 F3048
G2 X192.208 Y121.38 I1.583 J-0.115 F3048
G1 X192.231 Y121.586 F3048
G2 X192.243 Y121.671 I1.578 J-0.176 F3048
G1 X192.277 Y121.875 F3048
G2 X192.3 Y121.986 I1.566 J-0.261 F3048
G1 X192.397 Y122.388 F3048
G2 X192.421 Y122.477 I1.543 J-0.372 F3048
G1 X192.542 Y122.876 F3048
G2 X192.714 Y123.255 I1.519 J-0.461 F3048
G1 X193.085 Y123.85 F3048
G2 X193.108 Y123.885 I1.347 J-0.84 F3048
G1 X193.288 Y124.158 F3048
( MOVEMENT_CUTTING)
( Safe G1 --> G0)
G0 Z3 F300
( *** SECTION end ***)
()
(When using Fusion for Personal Use, the feedrate of rapid)
(moves is reduced to match the feedrate of cutting moves,)
(which can increase machining time. Unrestricted rapid moves)
(are available with a Fusion Subscription.)
( *** SECTION begin ***)
(   X Min: 33.557 - X Max: 177.905)
(   Y Min: 29.771 - Y Max: 205.369)
(   Z Min: -12.438 - Z Max: 15)
( SafeZ retract level: 5)
( boxTopAdaptive - Milling - Tool: 2 -  flat end mill)
( COMMAND_START_SPINDLE)
( COMMAND_SPINDLE_CLOCKWISE)
( >>> Spindle Speed 16000)
M3 S16000
( COMMAND_COOLANT_ON)
( >>> WARNING: No matching Coolant channel : Flood requested)
( First G1 --> G0)
Z15 F300
X42.185 Y36.1 F7500
( Safe G1 --> G0)
Z5 F300
G1 Z2.5 F3048
( MOVEMENT_RAMP_HELIX)
X42.253 Y36.186 Z2.496 F3048
X42.315 Y36.277 Z2.492 F3048
X42.37 Y36.372 Z2.488 F3048
X42.419 Y36.47 Z2.485 F3048
X42.461 Y36.572 Z2.481 F3048
X42.496 Y36.676 Z2.477 F3048
X42.524 Y36.782 Z2.473 F3048
X42.544 Y36.89 Z2.469 F3048
X42.557 Y36.999 Z2.465 F3048
X42.563 Y37.109 Z2.462 F3048
X42.561 Y37.219 Z2.458 F3048
X42.551 Y37.328 Z2.454 F3048
X42.534 Y37.437 Z2.45 F3048
X42.51 Y37.544 Z2.446 F3048
X42.478 Y37.649 Z2.442 F3048
X42.439 Y37.752 Z2.439 F3048
X42.394 Y37.852 Z2.435 F3048
X42.341 Y37.948 Z2.431 F3048
X42.282 Y38.041 Z2.427 F3048
X42.217 Y38.13 Z2.423 F3048
X42.146 Y38.213 Z2.419 F3048
X42.07 Y38.292 Z2.416 F3048
X41.988 Y38.366 Z2.412 F3048
X41.901 Y38.433 Z2.408 F3048
X41.81 Y38.495 Z2.404 F3048
X41.715 Y38.55 Z2.4 F3048
X41.616 Y38.598 Z2.396 F3048
X41.515 Y38.64 Z2.393 F3048
X41.411 Y38.674 Z2.389 F3048
X41.304 Y38.702 Z2.385 F3048
X41.196 Y38.722 Z2.381 F3048
X41.087 Y38.734 Z2.377 F3048
X40.978 Y38.739 Z2.373 F3048
X40.868 Y38.737 Z2.37 F3048
X40.759 Y38.727 Z2.366 F3048
X40.65 Y38.71 Z2.362 F3048
X40.544 Y38.685 Z2.358 F3048
X40.439 Y38.653 Z2.354 F3048
X40.336 Y38.614 Z2.35 F3048
X40.236 Y38.568 Z2.347 F3048
X40.14 Y38.515 Z2.343 F3048
X40.048 Y38.456 Z2.339 F3048
X39.96 Y38.391 Z2.335 F3048
X39.876 Y38.32 Z2.331 F3048
X39.798 Y38.243 Z2.327 F3048
X39.725 Y38.161 Z2.323 F3048
X39.658 Y38.074 Z2.32 F3048
X39.597 Y37.983 Z2.316 F3048
X39.542 Y37.888 Z2.312 F3048
X39.494 Y37.789 Z2.308 F3048
X39.453 Y37.688 Z2.304 F3048
X39.418 Y37.583 Z2.3 F3048
X39.391 Y37.477 Z2.297 F3048
X39.372 Y37.369 Z2.293 F3048
X39.36 Y37.26 Z2.289 F3048
X39.355 Y37.15 Z2.285 F3048
X39.358 Y37.041 Z2.281 F3048
X39.368 Y36.931 Z2.277 F3048
X39.386 Y36.823 Z2.274 F3048
X39.411 Y36.717 Z2.27 F3048
X39.443 Y36.612 Z2.266 F3048
X39.482 Y36.51 Z2.262 F3048
X39.529 Y36.41 Z2.258 F3048
X39.582 Y36.314 Z2.254 F3048
X39.641 Y36.222 Z2.251 F3048
X39.707 Y36.134 Z2.247 F3048
X39.778 Y36.051 Z2.243 F3048
X39.855 Y35.973 Z2.239 F3048
X39.937 Y35.901 Z2.235 F3048
X40.024 Y35.834 Z2.231 F3048
X40.115 Y35.773 Z2.228 F3048
X40.21 Y35.719 Z2.224 F3048
X40.309 Y35.671 Z2.22 F3048
X40.411 Y35.63 Z2.216 F3048
X40.515 Y35.596 Z2.212 F3048
X40.621 Y35.57 Z2.208 F3048
X40.729 Y35.551 Z2.205 F3048
X40.838 Y35.539 Z2.201 F3048
X40.948 Y35.535 Z2.197 F3048
X41.057 Y35.538 Z2.193 F3048
X41.166 Y35.548 Z2.189 F3048
X41.274 Y35.566 Z2.185 F3048
X41.381 Y35.592 Z2.182 F3048
X41.486 Y35.624 Z2.178 F3048
X41.588 Y35.664 Z2.174 F3048
X41.687 Y35.711 Z2.17 F3048
X41.783 Y35.764 Z2.166 F3048
X41.874 Y35.824 Z2.162 F3048
X41.962 Y35.89 Z2.159 F3048
X42.045 Y35.961 Z2.155 F3048
X42.122 Y36.038 Z2.151 F3048
X42.195 Y36.121 Z2.147 F3048
X42.261 Y36.208 Z2.143 F3048
X42.321 Y36.299 Z2.139 F3048
X42.375 Y36.394 Z2.135 F3048
X42.423 Y36.493 Z2.132 F3048
X42.463 Y36.595 Z2.128 F3048
X42.496 Y36.699 Z2.124 F3048
X42.523 Y36.805 Z2.12 F3048
X42.541 Y36.913 Z2.116 F3048
X42.553 Y37.022 Z2.112 F3048
X42.557 Y37.131 Z2.109 F3048
X42.553 Y37.241 Z2.105 F3048
X42.542 Y37.35 Z2.101 F3048
X42.524 Y37.457 Z2.097 F3048
X42.498 Y37.564 Z2.093 F3048
X42.465 Y37.668 Z2.089 F3048
X42.425 Y37.77 Z2.086 F3048
X42.378 Y37.869 Z2.082 F3048
X42.324 Y37.964 Z2.078 F3048
X42.264 Y38.056 Z2.074 F3048
X42.198 Y38.143 Z2.07 F3048
X42.126 Y38.226 Z2.066 F3048
X42.049 Y38.303 Z2.063 F3048
X41.967 Y38.375 Z2.059 F3048
X41.879 Y38.441 Z2.055 F3048
X41.788 Y38.501 Z2.051 F3048
X41.693 Y38.555 Z2.047 F3048
X41.594 Y38.602 Z2.043 F3048
X41.492 Y38.642 Z2.04 F3048
X41.388 Y38.675 Z2.036 F3048
X41.282 Y38.7 Z2.032 F3048
X41.174 Y38.719 Z2.028 F3048
X41.065 Y38.73 Z2.024 F3048
X40.956 Y38.733 Z2.02 F3048
X40.847 Y38.73 Z2.017 F3048
X40.738 Y38.718 Z2.013 F3048
X40.63 Y38.699 Z2.009 F3048
X40.524 Y38.673 Z2.005 F3048
X40.42 Y38.64 Z2.001 F3048
X40.318 Y38.6 Z1.997 F3048
X40.22 Y38.552 Z1.994 F3048
X40.124 Y38.499 Z1.99 F3048
X40.033 Y38.438 Z1.986 F3048
X39.946 Y38.372 Z1.982 F3048
X39.864 Y38.3 Z1.978 F3048
X39.787 Y38.222 Z1.974 F3048
X39.716 Y38.14 Z1.97 F3048
X39.65 Y38.052 Z1.967 F3048
X39.59 Y37.961 Z1.963 F3048
X39.537 Y37.865 Z1.959 F3048
X39.49 Y37.766 Z1.955 F3048
X39.451 Y37.664 Z1.951 F3048
X39.418 Y37.56 Z1.947 F3048
X39.393 Y37.454 Z1.944 F3048
X39.375 Y37.346 Z1.94 F3048
X39.364 Y37.237 Z1.936 F3048
X39.361 Y37.128 Z1.932 F3048
X39.365 Y37.019 Z1.928 F3048
X39.377 Y36.911 Z1.924 F3048
X39.396 Y36.803 Z1.921 F3048
X39.422 Y36.697 Z1.917 F3048
X39.456 Y36.593 Z1.913 F3048
X39.497 Y36.492 Z1.909 F3048
X39.544 Y36.394 Z1.905 F3048
X39.598 Y36.299 Z1.901 F3048
X39.659 Y36.208 Z1.898 F3048
X39.725 Y36.121 Z1.894 F3048
X39.798 Y36.039 Z1.89 F3048
X39.875 Y35.963 Z1.886 F3048
X39.958 Y35.892 Z1.882 F3048
X40.046 Y35.826 Z1.878 F3048
X40.137 Y35.767 Z1.875 F3048
X40.233 Y35.714 Z1.871 F3048
X40.332 Y35.668 Z1.867 F3048
X40.434 Y35.629 Z1.863 F3048
X40.538 Y35.596 Z1.859 F3048
X40.644 Y35.571 Z1.855 F3048
X40.752 Y35.554 Z1.852 F3048
X40.861 Y35.543 Z1.848 F3048
X40.97 Y35.541 Z1.844 F3048
X41.079 Y35.545 Z1.84 F3048
X41.188 Y35.557 Z1.836 F3048
X41.295 Y35.577 Z1.832 F3048
X41.401 Y35.604 Z1.829 F3048
X41.504 Y35.638 Z1.825 F3048
X41.605 Y35.679 Z1.821 F3048
X41.703 Y35.726 Z1.817 F3048
X41.798 Y35.781 Z1.813 F3048
X41.889 Y35.841 Z1.809 F3048
X41.975 Y35.908 Z1.805 F3048
X42.056 Y35.981 Z1.802 F3048
X42.133 Y36.059 Z1.798 F3048
X42.203 Y36.142 Z1.794 F3048
X42.268 Y36.229 Z1.79 F3048
X42.327 Y36.321 Z1.786 F3048
X42.38 Y36.417 Z1.782 F3048
X42.425 Y36.516 Z1.779 F3048
X42.464 Y36.617 Z1.775 F3048
X42.496 Y36.722 Z1.771 F3048
X42.521 Y36.828 Z1.767 F3048
X42.538 Y36.936 Z1.763 F3048
X42.548 Y37.044 Z1.759 F3048
X42.55 Y37.153 Z1.756 F3048
X42.545 Y37.262 Z1.752 F3048
X42.533 Y37.371 Z1.748 F3048
X42.513 Y37.478 Z1.744 F3048
X42.486 Y37.584 Z1.74 F3048
X42.452 Y37.687 Z1.736 F3048
X42.41 Y37.788 Z1.733 F3048
X42.362 Y37.886 Z1.729 F3048
X42.308 Y37.98 Z1.725 F3048
X42.247 Y38.071 Z1.721 F3048
X42.177 Y38.159 Z1.717 F3048
X42.101 Y38.243 Z1.713 F3048
X42.02 Y38.321 Z1.709 F3048
X41.933 Y38.394 Z1.705 F3048
X41.842 Y38.46 Z1.701 F3048
X41.746 Y38.519 Z1.697 F3048
X41.646 Y38.571 Z1.693 F3048
X41.543 Y38.616 Z1.689 F3048
X41.436 Y38.654 Z1.685 F3048
X41.327 Y38.684 Z1.681 F3048
X41.217 Y38.706 Z1.677 F3048
X41.105 Y38.72 Z1.673 F3048
X40.992 Y38.727 Z1.669 F3048
X40.88 Y38.725 Z1.665 F3048
X40.767 Y38.716 Z1.661 F3048
X40.656 Y38.698 Z1.657 F3048
X40.546 Y38.673 Z1.654 F3048
X40.438 Y38.64 Z1.65 F3048
X40.333 Y38.599 Z1.646 F3048
X40.231 Y38.551 Z1.642 F3048
X40.132 Y38.496 Z1.638 F3048
X40.038 Y38.434 Z1.634 F3048
X39.948 Y38.366 Z1.63 F3048
X39.864 Y38.291 Z1.626 F3048
X39.784 Y38.21 Z1.622 F3048
X39.711 Y38.125 Z1.618 F3048
X39.644 Y38.034 Z1.614 F3048
X39.584 Y37.938 Z1.61 F3048
X39.531 Y37.839 Z1.606 F3048
X39.484 Y37.736 Z1.602 F3048
X39.446 Y37.631 Z1.598 F3048
X39.414 Y37.522 Z1.594 F3048
X39.391 Y37.412 Z1.59 F3048
X39.375 Y37.301 Z1.586 F3048
X39.368 Y37.188 Z1.582 F3048
Y37.075 Z1.578 F3048
X39.376 Y36.963 Z1.574 F3048
X39.393 Y36.852 Z1.57 F3048
X39.417 Y36.742 Z1.566 F3048
X39.449 Y36.633 Z1.562 F3048
X39.488 Y36.528 Z1.558 F3048
X39.535 Y36.425 Z1.554 F3048
X39.589 Y36.326 Z1.55 F3048
X39.65 Y36.232 Z1.546 F3048
X39.717 Y36.141 Z1.542 F3048
X39.791 Y36.056 Z1.538 F3048
X39.87 Y35.976 Z1.534 F3048
X39.955 Y35.902 Z1.53 F3048
X40.045 Y35.834 Z1.526 F3048
X40.139 Y35.773 Z1.522 F3048
X40.238 Y35.718 Z1.518 F3048
X40.34 Y35.671 Z1.514 F3048
X40.446 Y35.631 Z1.51 F3048
X40.554 Y35.599 Z1.506 F3048
X40.664 Y35.574 Z1.503 F3048
X40.775 Y35.557 Z1.499 F3048
X40.887 Y35.548 Z1.495 F3048
X41 Y35.547 Z1.491 F3048
X41.112 Y35.554 Z1.487 F3048
X41.224 Y35.569 Z1.483 F3048
X41.334 Y35.592 Z1.479 F3048
X41.442 Y35.623 Z1.475 F3048
X41.548 Y35.661 Z1.471 F3048
X41.651 Y35.706 Z1.467 F3048
X41.75 Y35.759 Z1.463 F3048
X41.846 Y35.819 Z1.459 F3048
X41.937 Y35.885 Z1.455 F3048
X42.023 Y35.958 Z1.451 F3048
X42.103 Y36.036 Z1.447 F3048
X42.178 Y36.12 Z1.443 F3048
X42.247 Y36.209 Z1.439 F3048
X42.309 Y36.303 Z1.435 F3048
X42.365 Y36.401 Z1.431 F3048
X42.413 Y36.502 Z1.427 F3048
X42.454 Y36.607 Z1.423 F3048
X42.488 Y36.715 Z1.419 F3048
X42.514 Y36.824 Z1.415 F3048
X42.532 Y36.935 Z1.411 F3048
X42.542 Y37.047 Z1.407 F3048
X42.544 Y37.16 Z1.403 F3048
X42.538 Y37.272 Z1.399 F3048
X42.525 Y37.384 Z1.395 F3048
X42.503 Y37.494 Z1.391 F3048
X42.474 Y37.603 Z1.387 F3048
X42.437 Y37.709 Z1.383 F3048
X42.392 Y37.812 Z1.379 F3048
X42.341 Y37.912 Z1.375 F3048
X42.282 Y38.008 Z1.371 F3048
X42.217 Y38.1 Z1.367 F3048
X42.146 Y38.187 Z1.363 F3048
X42.068 Y38.268 Z1.359 F3048
X41.985 Y38.344 Z1.355 F3048
X41.897 Y38.414 Z1.351 F3048
X41.804 Y38.477 Z1.348 F3048
X41.707 Y38.533 Z1.344 F3048
X41.606 Y38.583 Z1.34 F3048
X41.502 Y38.625 Z1.336 F3048
X41.395 Y38.66 Z1.332 F3048
X41.286 Y38.687 Z1.328 F3048
X41.175 Y38.706 Z1.324 F3048
X41.063 Y38.718 Z1.32 F3048
X40.951 Y38.721 Z1.316 F3048
X40.839 Y38.717 Z1.312 F3048
X40.727 Y38.704 Z1.308 F3048
X40.616 Y38.684 Z1.304 F3048
X40.507 Y38.656 Z1.3 F3048
X40.401 Y38.62 Z1.296 F3048
X40.297 Y38.577 Z1.292 F3048
X40.197 Y38.526 Z1.288 F3048
X40.1 Y38.469 Z1.284 F3048
X40.008 Y38.405 Z1.28 F3048
X39.92 Y38.334 Z1.276 F3048
X39.838 Y38.258 Z1.272 F3048
X39.761 Y38.176 Z1.268 F3048
X39.691 Y38.088 Z1.264 F3048
X39.627 Y37.996 Z1.26 F3048
X39.569 Y37.9 Z1.256 F3048
X39.519 Y37.8 Z1.252 F3048
X39.475 Y37.696 Z1.248 F3048
X39.439 Y37.59 Z1.244 F3048
X39.411 Y37.481 Z1.24 F3048
X39.39 Y37.371 Z1.236 F3048
X39.378 Y37.259 Z1.232 F3048
X39.373 Y37.147 Z1.228 F3048
X39.376 Y37.035 Z1.224 F3048
X39.388 Y36.923 Z1.22 F3048
X39.407 Y36.812 Z1.216 F3048
X39.434 Y36.703 Z1.212 F3048
X39.468 Y36.596 Z1.208 F3048
X39.51 Y36.492 Z1.204 F3048
X39.559 Y36.391 Z1.2 F3048
X39.616 Y36.294 Z1.196 F3048
X39.679 Y36.201 Z1.193 F3048
X39.748 Y36.113 Z1.189 F3048
X39.824 Y36.03 Z1.185 F3048
X39.905 Y35.953 Z1.181 F3048
X39.991 Y35.881 Z1.177 F3048
X40.083 Y35.816 Z1.173 F3048
X40.178 Y35.757 Z1.169 F3048
X40.278 Y35.706 Z1.165 F3048
X40.381 Y35.661 Z1.161 F3048
X40.487 Y35.624 Z1.157 F3048
X40.595 Y35.595 Z1.153 F3048
X40.705 Y35.573 Z1.149 F3048
X40.816 Y35.559 Z1.145 F3048
X40.928 Y35.553 Z1.141 F3048
X41.04 Y35.555 Z1.137 F3048
X41.152 Y35.565 Z1.133 F3048
X41.263 Y35.583 Z1.129 F3048
X41.372 Y35.608 Z1.125 F3048
X41.479 Y35.642 Z1.121 F3048
X41.583 Y35.682 Z1.117 F3048
X41.685 Y35.731 Z1.113 F3048
X41.782 Y35.786 Z1.109 F3048
X41.876 Y35.848 Z1.105 F3048
X41.965 Y35.916 Z1.101 F3048
X42.049 Y35.99 Z1.097 F3048
X42.127 Y36.071 Z1.093 F3048
X42.199 Y36.156 Z1.089 F3048
X42.266 Y36.247 Z1.085 F3048
X42.325 Y36.342 Z1.081 F3048
X42.378 Y36.441 Z1.077 F3048
X42.423 Y36.543 Z1.073 F3048
X42.462 Y36.649 Z1.069 F3048
X42.492 Y36.756 Z1.065 F3048
X42.515 Y36.866 Z1.061 F3048
X42.53 Y36.977 Z1.057 F3048
X42.538 Y37.089 Z1.053 F3048
X42.537 Y37.201 Z1.049 F3048
X42.528 Y37.313 Z1.045 F3048
X42.512 Y37.424 Z1.042 F3048
X42.487 Y37.533 Z1.038 F3048
X42.455 Y37.64 Z1.034 F3048
X42.416 Y37.745 Z1.03 F3048
X42.369 Y37.847 Z1.026 F3048
X42.315 Y37.945 Z1.022 F3048
X42.254 Y38.039 Z1.018 F3048
X42.187 Y38.128 Z1.014 F3048
X42.113 Y38.213 Z1.01 F3048
X42.034 Y38.292 Z1.006 F3048
X41.949 Y38.365 Z1.002 F3048
X41.86 Y38.432 Z0.998 F3048
X41.766 Y38.493 Z0.994 F3048
X41.667 Y38.547 Z0.99 F3048
X41.566 Y38.593 Z0.986 F3048
X41.461 Y38.633 Z0.982 F3048
X41.353 Y38.665 Z0.978 F3048
X41.244 Y38.689 Z0.974 F3048
X41.133 Y38.705 Z0.97 F3048
X41.022 Y38.714 Z0.966 F3048
X40.91 Z0.962 F3048
X40.798 Y38.707 Z0.958 F3048
X40.687 Y38.691 Z0.954 F3048
X40.577 Y38.668 Z0.95 F3048
X40.47 Y38.637 Z0.946 F3048
X40.364 Y38.599 Z0.942 F3048
X40.262 Y38.553 Z0.938 F3048
X40.164 Y38.501 Z0.934 F3048
X40.069 Y38.441 Z0.93 F3048
X39.979 Y38.375 Z0.926 F3048
X39.894 Y38.302 Z0.922 F3048
X39.814 Y38.224 Z0.918 F3048
X39.74 Y38.14 Z0.914 F3048
X39.672 Y38.052 Z0.91 F3048
X39.61 Y37.958 Z0.906 F3048
X39.555 Y37.861 Z0.902 F3048
X39.507 Y37.76 Z0.898 F3048
X39.467 Y37.655 Z0.894 F3048
X39.434 Y37.548 Z0.89 F3048
X39.409 Y37.439 Z0.887 F3048
X39.391 Y37.329 Z0.883 F3048
X39.381 Y37.218 Z0.879 F3048
X39.38 Y37.106 Z0.875 F3048
X39.386 Y36.994 Z0.871 F3048
X39.4 Y36.883 Z0.867 F3048
X39.422 Y36.773 Z0.863 F3048
X39.451 Y36.665 Z0.859 F3048
X39.488 Y36.56 Z0.855 F3048
X39.533 Y36.457 Z0.851 F3048
X39.585 Y36.358 Z0.847 F3048
X39.643 Y36.263 Z0.843 F3048
X39.708 Y36.172 Z0.839 F3048
X39.78 Y36.086 Z0.835 F3048
X39.857 Y36.005 Z0.831 F3048
X39.94 Y35.93 Z0.827 F3048
X40.028 Y35.861 Z0.823 F3048
X40.121 Y35.799 Z0.819 F3048
X40.217 Y35.743 Z0.815 F3048
X40.318 Y35.694 Z0.811 F3048
X40.421 Y35.652 Z0.807 F3048
X40.528 Y35.618 Z0.803 F3048
X40.636 Y35.592 Z0.799 F3048
X40.746 Y35.573 Z0.795 F3048
X40.858 Y35.562 Z0.791 F3048
X40.969 Y35.559 Z0.787 F3048
X41.081 Y35.564 Z0.783 F3048
X41.192 Y35.577 Z0.779 F3048
X41.302 Y35.597 Z0.775 F3048
X41.41 Y35.626 Z0.771 F3048
X41.516 Y35.662 Z0.767 F3048
X41.618 Y35.705 Z0.763 F3048
X41.718 Y35.755 Z0.759 F3048
X41.814 Y35.813 Z0.755 F3048
X41.905 Y35.877 Z0.751 F3048
X41.992 Y35.947 Z0.747 F3048
X42.074 Y36.024 Z0.743 F3048
X42.15 Y36.106 Z0.739 F3048
X42.22 Y36.193 Z0.736 F3048
X42.283 Y36.285 Z0.732 F3048
X42.34 Y36.381 Z0.728 F3048
X42.39 Y36.481 Z0.724 F3048
X42.433 Y36.584 Z0.72 F3048
X42.468 Y36.69 Z0.716 F3048
X42.496 Y36.798 Z0.712 F3048
X42.516 Y36.908 Z0.708 F3048
X42.528 Y37.019 Z0.704 F3048
X42.532 Y37.13 Z0.7 F3048
X42.529 Y37.242 Z0.696 F3048
X42.517 Y37.352 Z0.692 F3048
X42.498 Y37.462 Z0.688 F3048
X42.471 Y37.571 Z0.684 F3048
X42.436 Y37.677 Z0.68 F3048
X42.394 Y37.78 Z0.676 F3048
X42.344 Y37.88 Z0.672 F3048
X42.288 Y37.976 Z0.668 F3048
X42.225 Y38.069 Z0.664 F3048
X42.156 Y38.156 Z0.66 F3048
X42.081 Y38.238 Z0.656 F3048
X42 Y38.315 Z0.652 F3048
X41.913 Y38.386 Z0.648 F3048
X41.822 Y38.45 Z0.644 F3048
X41.727 Y38.508 Z0.64 F3048
X41.628 Y38.559 Z0.636 F3048
X41.525 Y38.603 Z0.632 F3048
X41.42 Y38.64 Z0.628 F3048
X41.312 Y38.668 Z0.624 F3048
X41.202 Y38.69 Z0.62 F3048
X41.092 Y38.703 Z0.616 F3048
X40.98 Y38.709 Z0.612 F3048
X40.869 Y38.706 Z0.608 F3048
X40.758 Y38.696 Z0.604 F3048
X40.648 Y38.678 Z0.6 F3048
X40.539 Y38.652 Z0.596 F3048
X40.433 Y38.619 Z0.592 F3048
X40.329 Y38.578 Z0.588 F3048
X40.229 Y38.53 Z0.584 F3048
X40.132 Y38.474 Z0.581 F3048
X40.039 Y38.413 Z0.577 F3048
X39.951 Y38.344 Z0.573 F3048
X39.868 Y38.27 Z0.569 F3048
X39.791 Y38.19 Z0.565 F3048
X39.719 Y38.105 Z0.561 F3048
X39.653 Y38.014 Z0.557 F3048
X39.595 Y37.92 Z0.553 F3048
X39.542 Y37.821 Z0.549 F3048
X39.498 Y37.719 Z0.545 F3048
X39.46 Y37.614 Z0.541 F3048
X39.43 Y37.507 Z0.537 F3048
X39.407 Y37.398 Z0.533 F3048
X39.393 Y37.287 Z0.529 F3048
X39.386 Y37.176 Z0.525 F3048
X39.387 Y37.065 Z0.521 F3048
X39.396 Y36.954 Z0.517 F3048
X39.413 Y36.844 Z0.513 F3048
X39.438 Y36.735 Z0.509 F3048
X39.47 Y36.628 Z0.505 F3048
X39.51 Y36.524 Z0.501 F3048
X39.557 Y36.423 Z0.497 F3048
X39.611 Y36.326 Z0.493 F3048
X39.671 Y36.232 Z0.489 F3048
X39.739 Y36.144 Z0.485 F3048
X39.812 Y36.06 Z0.481 F3048
X39.891 Y35.982 Z0.477 F3048
X39.975 Y35.909 Z0.473 F3048
X40.065 Y35.843 Z0.469 F3048
X40.159 Y35.783 Z0.465 F3048
X40.256 Y35.73 Z0.461 F3048
X40.358 Y35.684 Z0.457 F3048
X40.462 Y35.645 Z0.453 F3048
X40.569 Y35.614 Z0.449 F3048
X40.678 Y35.59 Z0.445 F3048
X40.788 Y35.574 Z0.441 F3048
X40.899 Y35.566 Z0.437 F3048
X41.01 Z0.433 F3048
X41.121 Y35.574 Z0.429 F3048
X41.231 Y35.589 Z0.426 F3048
X41.34 Y35.613 Z0.422 F3048
X41.447 Y35.644 Z0.418 F3048
X41.551 Y35.682 Z0.414 F3048
X41.653 Y35.728 Z0.41 F3048
X41.751 Y35.781 Z0.406 F3048
X41.845 Y35.841 Z0.402 F3048
X41.934 Y35.907 Z0.398 F3048
X42.019 Y35.979 Z0.394 F3048
X42.098 Y36.058 Z0.39 F3048
X42.172 Y36.141 Z0.386 F3048
X42.239 Y36.23 Z0.382 F3048
X42.3 Y36.323 Z0.378 F3048
X42.354 Y36.42 Z0.374 F3048
X42.401 Y36.52 Z0.37 F3048
X42.441 Y36.624 Z0.366 F3048
X42.473 Y36.731 Z0.362 F3048
X42.498 Y36.839 Z0.358 F3048
X42.515 Y36.949 Z0.354 F3048
X42.524 Y37.06 Z0.35 F3048
X42.526 Y37.171 Z0.346 F3048
X42.519 Y37.282 Z0.342 F3048
X42.505 Y37.392 Z0.338 F3048
X42.483 Y37.501 Z0.334 F3048
X42.453 Y37.608 Z0.33 F3048
X42.416 Y37.713 Z0.326 F3048
X42.371 Y37.814 Z0.322 F3048
X42.319 Y37.913 Z0.318 F3048
X42.261 Y38.007 Z0.314 F3048
X42.196 Y38.097 Z0.31 F3048
X42.124 Y38.183 Z0.306 F3048
X42.047 Y38.263 Z0.302 F3048
X41.964 Y38.337 Z0.298 F3048
X41.877 Y38.405 Z0.294 F3048
X41.784 Y38.467 Z0.29 F3048
X41.688 Y38.522 Z0.286 F3048
X41.588 Y38.571 Z0.282 F3048
X41.484 Y38.612 Z0.278 F3048
X41.378 Y38.645 Z0.275 F3048
X41.27 Y38.671 Z0.271 F3048
X41.161 Y38.69 Z0.267 F3048
X41.05 Y38.7 Z0.263 F3048
X40.939 Y38.703 Z0.259 F3048
X40.828 Y38.697 Z0.255 F3048
X40.718 Y38.684 Z0.251 F3048
X40.609 Y38.663 Z0.247 F3048
X40.502 Y38.635 Z0.243 F3048
X40.397 Y38.599 Z0.239 F3048
X40.295 Y38.555 Z0.235 F3048
X40.196 Y38.505 Z0.231 F3048
X40.101 Y38.447 Z0.227 F3048
X40.01 Y38.383 Z0.223 F3048
X39.924 Y38.313 Z0.219 F3048
X39.843 Y38.237 Z0.215 F3048
X39.768 Y38.155 Z0.211 F3048
X39.699 Y38.068 Z0.207 F3048
X39.636 Y37.977 Z0.203 F3048
X39.58 Y37.881 Z0.199 F3048
X39.531 Y37.782 Z0.195 F3048
X39.489 Y37.679 Z0.191 F3048
X39.454 Y37.573 Z0.187 F3048
X39.427 Y37.466 Z0.183 F3048
X39.407 Y37.356 Z0.179 F3048
X39.395 Y37.246 Z0.175 F3048
X39.392 Y37.135 Z0.171 F3048
X39.396 Y37.024 Z0.167 F3048
X39.408 Y36.914 Z0.163 F3048
X39.427 Y36.805 Z0.159 F3048
X39.454 Y36.697 Z0.155 F3048
X39.489 Y36.592 Z0.151 F3048
X39.532 Y36.489 Z0.147 F3048
X39.581 Y36.39 Z0.143 F3048
X39.637 Y36.294 Z0.139 F3048
X39.7 Y36.203 Z0.135 F3048
X39.769 Y36.116 Z0.131 F3048
X39.845 Y36.035 Z0.127 F3048
X39.925 Y35.959 Z0.123 F3048
X40.011 Y35.889 Z0.12 F3048
X40.102 Y35.825 Z0.116 F3048
X40.197 Y35.768 Z0.112 F3048
X40.296 Y35.718 Z0.108 F3048
X40.398 Y35.674 Z0.104 F3048
X40.503 Y35.639 Z0.1 F3048
X40.61 Y35.61 Z0.096 F3048
X40.719 Y35.589 Z0.092 F3048
X40.829 Y35.577 Z0.088 F3048
X40.94 Y35.571 Z0.084 F3048
X41.051 Y35.574 Z0.08 F3048
X41.161 Y35.585 Z0.076 F3048
X41.27 Y35.603 Z0.072 F3048
X41.378 Y35.629 Z0.068 F3048
X41.484 Y35.663 Z0.064 F3048
X41.587 Y35.704 Z0.06 F3048
X41.687 Y35.752 Z0.056 F3048
X41.783 Y35.808 Z0.052 F3048
X41.875 Y35.869 Z0.048 F3048
X41.962 Y35.938 Z0.044 F3048
X42.044 Y36.012 Z0.04 F3048
X42.121 Y36.092 Z0.036 F3048
X42.192 Y36.177 Z0.032 F3048
X42.257 Y36.266 Z0.028 F3048
X42.315 Y36.361 Z0.024 F3048
X42.366 Y36.459 Z0.02 F3048
X42.411 Y36.56 Z0.016 F3048
X42.448 Y36.665 Z0.012 F3048
X42.477 Y36.771 Z0.008 F3048
X42.499 Y36.88 Z0.004 F3048
X42.513 Y36.99 Z0 F3048
X42.519 Y37.1 Z-0.004 F3048
X42.518 Y37.211 Z-0.008 F3048
X42.509 Y37.322 Z-0.012 F3048
X42.491 Y37.431 Z-0.016 F3048
X42.467 Y37.539 Z-0.02 F3048
X42.434 Y37.645 Z-0.024 F3048
X42.394 Y37.748 Z-0.028 F3048
X42.347 Y37.848 Z-0.031 F3048
X42.293 Y37.945 Z-0.035 F3048
X42.232 Y38.038 Z-0.039 F3048
X42.165 Y38.126 Z-0.043 F3048
X42.092 Y38.209 Z-0.047 F3048
X42.013 Y38.286 Z-0.051 F3048
X41.929 Y38.358 Z-0.055 F3048
X41.84 Y38.424 Z-0.059 F3048
X41.746 Y38.483 Z-0.063 F3048
X41.649 Y38.536 Z-0.067 F3048
X41.548 Y38.581 Z-0.071 F3048
X41.444 Y38.619 Z-0.075 F3048
X41.338 Y38.65 Z-0.079 F3048
X41.23 Y38.673 Z-0.083 F3048
X41.12 Y38.688 Z-0.087 F3048
X41.01 Y38.696 Z-0.091 F3048
X40.899 Y38.695 Z-0.095 F3048
X40.789 Y38.687 Z-0.099 F3048
X40.679 Y38.671 Z-0.103 F3048
X40.571 Y38.648 Z-0.107 F3048
X40.465 Y38.617 Z-0.111 F3048
X40.361 Y38.578 Z-0.115 F3048
X40.261 Y38.532 Z-0.119 F3048
X40.164 Y38.479 Z-0.123 F3048
X40.071 Y38.419 Z-0.127 F3048
X39.982 Y38.353 Z-0.131 F3048
X39.898 Y38.281 Z-0.135 F3048
X39.82 Y38.203 Z-0.139 F3048
X39.747 Y38.12 Z-0.143 F3048
X39.68 Y38.032 Z-0.147 F3048
X39.62 Y37.939 Z-0.151 F3048
X39.566 Y37.842 Z-0.155 F3048
X39.52 Y37.742 Z-0.159 F3048
X39.481 Y37.638 Z-0.163 F3048
X39.449 Y37.532 Z-0.167 F3048
X39.425 Y37.424 Z-0.171 F3048
X39.408 Y37.315 Z-0.175 F3048
X39.399 Y37.205 Z-0.179 F3048
X39.398 Y37.094 Z-0.183 F3048
X39.405 Y36.984 Z-0.186 F3048
X39.42 Y36.875 Z-0.19 F3048
X39.442 Y36.767 Z-0.194 F3048
X39.472 Y36.66 Z-0.198 F3048
X39.51 Y36.556 Z-0.202 F3048
X39.554 Y36.455 Z-0.206 F3048
X39.606 Y36.358 Z-0.21 F3048
X39.665 Y36.264 Z-0.214 F3048
X39.73 Y36.175 Z-0.218 F3048
X39.801 Y36.09 Z-0.222 F3048
X39.878 Y36.011 Z-0.226 F3048
X39.96 Y35.937 Z-0.23 F3048
X40.048 Y35.87 Z-0.234 F3048
X40.14 Y35.809 Z-0.238 F3048
X40.236 Y35.754 Z-0.242 F3048
X40.335 Y35.707 Z-0.246 F3048
X40.438 Y35.666 Z-0.25 F3048
X40.544 Y35.633 Z-0.254 F3048
X40.651 Y35.608 Z-0.258 F3048
X40.76 Y35.59 Z-0.262 F3048
X40.87 Y35.58 Z-0.266 F3048
X40.981 Y35.578 Z-0.27 F3048
X41.091 Y35.583 Z-0.274 F3048
X41.201 Y35.597 Z-0.278 F3048
X41.309 Y35.618 Z-0.282 F3048
X41.416 Y35.647 Z-0.286 F3048
X41.52 Y35.683 Z-0.29 F3048
X41.621 Y35.726 Z-0.294 F3048
X41.719 Y35.777 Z-0.298 F3048
X41.814 Y35.834 Z-0.302 F3048
X41.903 Y35.898 Z-0.306 F3048
X41.989 Y35.969 Z-0.31 F3048
X42.069 Y36.045 Z-0.314 F3048
X42.143 Y36.126 Z-0.318 F3048
X42.211 Y36.213 Z-0.322 F3048
X42.274 Y36.304 Z-0.326 F3048
X42.329 Y36.399 Z-0.33 F3048
X42.378 Y36.498 Z-0.334 F3048
X42.419 Y36.6 Z-0.337 F3048
X42.453 Y36.705 Z-0.341 F3048
X42.48 Y36.812 Z-0.345 F3048
X42.499 Y36.921 Z-0.349 F3048
X42.51 Y37.031 Z-0.353 F3048
X42.514 Y37.141 Z-0.357 F3048
X42.509 Y37.251 Z-0.361 F3048
X42.497 Y37.361 Z-0.365 F3048
X42.477 Y37.47 Z-0.369 F3048
X42.45 Y37.576 Z-0.373 F3048
X42.415 Y37.681 Z-0.377 F3048
X42.372 Y37.783 Z-0.381 F3048
X42.323 Y37.882 Z-0.385 F3048
X42.266 Y37.976 Z-0.389 F3048
X42.203 Y38.067 Z-0.393 F3048
X42.134 Y38.153 Z-0.397 F3048
X42.059 Y38.234 Z-0.401 F3048
X41.979 Y38.309 Z-0.405 F3048
X41.893 Y38.378 Z-0.409 F3048
X41.803 Y38.441 Z-0.413 F3048
X41.708 Y38.498 Z-0.417 F3048
X41.61 Y38.547 Z-0.421 F3048
X41.508 Y38.59 Z-0.425 F3048
X41.404 Y38.625 Z-0.429 F3048
X41.297 Y38.653 Z-0.433 F3048
X41.189 Y38.673 Z-0.437 F3048
X41.079 Y38.686 Z-0.441 F3048
X40.969 Y38.69 Z-0.445 F3048
X40.859 Y38.687 Z-0.449 F3048
X40.749 Y38.676 Z-0.453 F3048
X40.641 Y38.658 Z-0.457 F3048
X40.534 Y38.631 Z-0.461 F3048
X40.429 Y38.597 Z-0.465 F3048
X40.327 Y38.556 Z-0.469 F3048
X40.227 Y38.508 Z-0.473 F3048
X40.132 Y38.453 Z-0.477 F3048
X40.041 Y38.391 Z-0.481 F3048
X39.954 Y38.323 Z-0.485 F3048
X39.873 Y38.249 Z-0.489 F3048
X39.797 Y38.169 Z-0.492 F3048
X39.726 Y38.084 Z-0.496 F3048
X39.662 Y37.994 Z-0.5 F3048
X39.605 Y37.9 Z-0.504 F3048
X39.554 Y37.803 Z-0.508 F3048
X39.51 Y37.702 Z-0.512 F3048
X39.474 Y37.598 Z-0.516 F3048
X39.445 Y37.492 Z-0.52 F3048
X39.424 Y37.384 Z-0.524 F3048
X39.41 Y37.274 Z-0.528 F3048
X39.404 Y37.165 Z-0.532 F3048
X39.406 Y37.054 Z-0.536 F3048
X39.416 Y36.945 Z-0.54 F3048
X39.433 Y36.836 Z-0.544 F3048
X39.458 Y36.729 Z-0.548 F3048
X39.491 Y36.624 Z-0.552 F3048
X39.531 Y36.521 Z-0.556 F3048
X39.578 Y36.422 Z-0.56 F3048
X39.632 Y36.326 Z-0.564 F3048
X39.693 Y36.234 Z-0.568 F3048
X39.76 Y36.147 Z-0.572 F3048
X39.833 Y36.065 Z-0.576 F3048
X39.912 Y35.988 Z-0.58 F3048
X39.996 Y35.917 Z-0.584 F3048
X40.085 Y35.852 Z-0.588 F3048
X40.178 Y35.793 Z-0.592 F3048
X40.275 Y35.741 Z-0.596 F3048
X40.375 Y35.696 Z-0.6 F3048
X40.479 Y35.659 Z-0.604 F3048
X40.585 Y35.629 Z-0.608 F3048
X40.692 Y35.606 Z-0.612 F3048
X40.801 Y35.591 Z-0.616 F3048
X40.911 Y35.584 Z-0.62 F3048
X41.021 Y35.585 Z-0.624 F3048
X41.131 Y35.593 Z-0.628 F3048
X41.239 Y35.61 Z-0.632 F3048
X41.347 Y35.633 Z-0.636 F3048
X41.452 Y35.665 Z-0.64 F3048
X41.555 Y35.704 Z-0.644 F3048
X41.655 Y35.75 Z-0.647 F3048
X41.751 Y35.803 Z-0.651 F3048
X41.843 Y35.862 Z-0.655 F3048
X41.931 Y35.928 Z-0.659 F3048
X42.014 Y36 Z-0.663 F3048
X42.092 Y36.078 Z-0.667 F3048
X42.164 Y36.161 Z-0.671 F3048
X42.23 Y36.249 Z-0.675 F3048
X42.289 Y36.341 Z-0.679 F3048
X42.342 Y36.438 Z-0.683 F3048
X42.388 Y36.538 Z-0.687 F3048
X42.427 Y36.641 Z-0.691 F3048
X42.458 Y36.746 Z-0.695 F3048
X42.482 Y36.853 Z-0.699 F3048
X42.498 Y36.962 Z-0.703 F3048
X42.506 Y37.072 Z-0.707 F3048
X42.507 Y37.182 Z-0.711 F3048
X42.5 Y37.291 Z-0.715 F3048
X42.485 Y37.4 Z-0.719 F3048
X42.462 Y37.508 Z-0.723 F3048
X42.432 Y37.614 Z-0.727 F3048
X42.394 Y37.717 Z-0.731 F3048
X42.349 Y37.817 Z-0.735 F3048
X42.298 Y37.914 Z-0.739 F3048
X42.239 Y38.007 Z-0.743 F3048
X42.174 Y38.095 Z-0.747 F3048
X42.103 Y38.179 Z-0.751 F3048
X42.026 Y38.257 Z-0.755 F3048
X41.944 Y38.33 Z-0.759 F3048
X41.857 Y38.397 Z-0.763 F3048
X41.765 Y38.457 Z-0.767 F3048
X41.67 Y38.511 Z-0.771 F3048
X41.57 Y38.558 Z-0.775 F3048
X41.468 Y38.598 Z-0.779 F3048
X41.363 Y38.63 Z-0.783 F3048
X41.256 Y38.655 Z-0.787 F3048
X41.148 Y38.673 Z-0.791 F3048
X41.038 Y38.682 Z-0.795 F3048
X40.929 Y38.684 Z-0.798 F3048
X40.819 Y38.678 Z-0.802 F3048
X40.71 Y38.664 Z-0.806 F3048
X40.602 Y38.643 Z-0.81 F3048
X40.497 Y38.614 Z-0.814 F3048
X40.393 Y38.577 Z-0.818 F3048
X40.292 Y38.534 Z-0.822 F3048
X40.195 Y38.483 Z-0.826 F3048
X40.101 Y38.425 Z-0.83 F3048
X40.012 Y38.362 Z-0.834 F3048
X39.928 Y38.291 Z-0.838 F3048
X39.848 Y38.216 Z-0.842 F3048
X39.775 Y38.134 Z-0.846 F3048
X39.707 Y38.048 Z-0.85 F3048
X39.646 Y37.957 Z-0.854 F3048
X39.591 Y37.862 Z-0.858 F3048
X39.543 Y37.764 Z-0.862 F3048
X39.502 Y37.662 Z-0.866 F3048
X39.468 Y37.558 Z-0.87 F3048
X39.442 Y37.451 Z-0.874 F3048
X39.424 Y37.343 Z-0.878 F3048
X39.413 Y37.234 Z-0.882 F3048
X39.41 Y37.124 Z-0.886 F3048
X39.415 Y37.015 Z-0.89 F3048
X39.427 Y36.906 Z-0.894 F3048
X39.447 Y36.798 Z-0.898 F3048
X39.475 Y36.692 Z-0.902 F3048
X39.51 Y36.588 Z-0.906 F3048
X39.553 Y36.487 Z-0.91 F3048
X39.603 Y36.389 Z-0.914 F3048
X39.659 Y36.295 Z-0.918 F3048
X39.722 Y36.205 Z-0.922 F3048
X39.791 Y36.12 Z-0.926 F3048
X39.866 Y36.04 Z-0.93 F3048
X39.946 Y35.965 Z-0.934 F3048
X40.032 Y35.897 Z-0.938 F3048
X40.122 Y35.834 Z-0.942 F3048
X40.216 Y35.778 Z-0.946 F3048
X40.314 Y35.729 Z-0.95 F3048
X40.415 Y35.687 Z-0.953 F3048
X40.519 Y35.653 Z-0.957 F3048
X40.625 Y35.626 Z-0.961 F3048
X40.733 Y35.606 Z-0.965 F3048
X40.842 Y35.594 Z-0.969 F3048
X40.951 Y35.59 Z-0.973 F3048
X41.061 Y35.593 Z-0.977 F3048
X41.17 Y35.604 Z-0.981 F3048
X41.278 Y35.623 Z-0.985 F3048
X41.384 Y35.65 Z-0.989 F3048
X41.488 Y35.684 Z-0.993 F3048
X41.589 Y35.725 Z-0.997 F3048
X41.688 Y35.774 Z-1.001 F3048
X41.782 Y35.829 Z-1.005 F3048
X41.873 Y35.891 Z-1.009 F3048
X41.958 Y35.959 Z-1.013 F3048
X42.039 Y36.033 Z-1.017 F3048
X42.115 Y36.112 Z-1.021 F3048
X42.184 Y36.197 Z-1.025 F3048
X42.247 Y36.286 Z-1.029 F3048
X42.304 Y36.38 Z-1.033 F3048
X42.354 Y36.477 Z-1.037 F3048
X42.397 Y36.578 Z-1.041 F3048
X42.433 Y36.681 Z-1.045 F3048
X42.462 Y36.787 Z-1.049 F3048
X42.483 Y36.894 Z-1.053 F3048
X42.496 Y37.003 Z-1.057 F3048
X42.501 Y37.112 Z-1.061 F3048
X42.499 Y37.222 Z-1.065 F3048
X42.489 Y37.331 Z-1.069 F3048
X42.471 Y37.439 Z-1.073 F3048
X42.446 Y37.545 Z-1.077 F3048
X42.413 Y37.649 Z-1.081 F3048
X42.373 Y37.751 Z-1.085 F3048
X42.326 Y37.85 Z-1.089 F3048
X42.272 Y37.945 Z-1.093 F3048
X42.211 Y38.036 Z-1.097 F3048
X42.144 Y38.122 Z-1.101 F3048
X42.071 Y38.204 Z-1.104 F3048
X41.993 Y38.28 Z-1.108 F3048
X41.909 Y38.35 Z-1.112 F3048
X41.82 Y38.415 Z-1.116 F3048
X41.728 Y38.473 Z-1.12 F3048
X41.631 Y38.524 Z-1.124 F3048
X41.531 Y38.568 Z-1.128 F3048
X41.428 Y38.605 Z-1.132 F3048
X41.323 Y38.634 Z-1.136 F3048
X41.215 Y38.656 Z-1.14 F3048
X41.107 Y38.671 Z-1.144 F3048
X40.998 Y38.677 Z-1.148 F3048
X40.888 Y38.676 Z-1.152 F3048
X40.779 Y38.668 Z-1.156 F3048
X40.671 Y38.651 Z-1.16 F3048
X40.565 Y38.627 Z-1.164 F3048
X40.46 Y38.595 Z-1.168 F3048
X40.358 Y38.556 Z-1.172 F3048
X40.259 Y38.51 Z-1.176 F3048
X40.163 Y38.457 Z-1.18 F3048
X40.072 Y38.398 Z-1.184 F3048
X39.984 Y38.332 Z-1.188 F3048
X39.902 Y38.26 Z-1.192 F3048
X39.825 Y38.182 Z-1.196 F3048
X39.754 Y38.1 Z-1.2 F3048
X39.689 Y38.012 Z-1.204 F3048
X39.63 Y37.92 Z-1.208 F3048
X39.578 Y37.824 Z-1.212 F3048
X39.533 Y37.724 Z-1.216 F3048
X39.495 Y37.622 Z-1.22 F3048
X39.464 Y37.517 Z-1.224 F3048
X39.441 Y37.41 Z-1.228 F3048
X39.425 Y37.302 Z-1.232 F3048
X39.417 Y37.193 Z-1.236 F3048
Y37.084 Z-1.24 F3048
X39.425 Y36.975 Z-1.244 F3048
X39.44 Y36.867 Z-1.248 F3048
X39.463 Y36.76 Z-1.252 F3048
X39.493 Y36.655 Z-1.256 F3048
X39.531 Y36.553 Z-1.259 F3048
X39.576 Y36.453 Z-1.263 F3048
X39.628 Y36.357 Z-1.267 F3048
X39.686 Y36.265 Z-1.271 F3048
X39.751 Y36.177 Z-1.275 F3048
X39.822 Y36.094 Z-1.279 F3048
X39.899 Y36.016 Z-1.283 F3048
X39.981 Y35.944 Z-1.287 F3048
X40.068 Y35.878 Z-1.291 F3048
X40.159 Y35.818 Z-1.295 F3048
X40.254 Y35.765 Z-1.299 F3048
X40.353 Y35.719 Z-1.303 F3048
X40.455 Y35.68 Z-1.307 F3048
X40.559 Y35.648 Z-1.311 F3048
X40.666 Y35.624 Z-1.315 F3048
X40.773 Y35.607 Z-1.319 F3048
X40.882 Y35.598 Z-1.323 F3048
X40.991 Y35.596 Z-1.327 F3048
X41.1 Y35.603 Z-1.331 F3048
X41.208 Y35.617 Z-1.335 F3048
X41.315 Y35.638 Z-1.339 F3048
X41.42 Y35.668 Z-1.343 F3048
X41.523 Y35.704 Z-1.347 F3048
X41.623 Y35.748 Z-1.351 F3048
X41.72 Y35.799 Z-1.355 F3048
X41.812 Y35.856 Z-1.359 F3048
X41.901 Y35.92 Z-1.363 F3048
X41.985 Y35.99 Z-1.367 F3048
X42.063 Y36.066 Z-1.371 F3048
X42.136 Y36.147 Z-1.375 F3048
X42.203 Y36.233 Z-1.379 F3048
X42.264 Y36.323 Z-1.383 F3048
X42.318 Y36.418 Z-1.387 F3048
X42.366 Y36.516 Z-1.391 F3048
X42.406 Y36.618 Z-1.395 F3048
X42.439 Y36.722 Z-1.399 F3048
X42.464 Y36.827 Z-1.403 F3048
X42.482 Y36.935 Z-1.407 F3048
X42.493 Y37.043 Z-1.411 F3048
X42.495 Y37.152 Z-1.414 F3048
X42.49 Y37.261 Z-1.418 F3048
X42.477 Y37.369 Z-1.422 F3048
X42.457 Y37.476 Z-1.426 F3048
X42.429 Y37.582 Z-1.43 F3048
X42.393 Y37.685 Z-1.434 F3048
X42.351 Y37.785 Z-1.438 F3048
X42.301 Y37.882 Z-1.442 F3048
X42.245 Y37.975 Z-1.446 F3048
X42.182 Y38.064 Z-1.45 F3048
X42.113 Y38.149 Z-1.454 F3048
X42.039 Y38.228 Z-1.458 F3048
X41.958 Y38.302 Z-1.462 F3048
X41.873 Y38.37 Z-1.466 F3048
X41.783 Y38.432 Z-1.47 F3048
X41.689 Y38.487 Z-1.474 F3048
X41.592 Y38.535 Z-1.478 F3048
X41.491 Y38.577 Z-1.482 F3048
X41.388 Y38.611 Z-1.486 F3048
X41.282 Y38.637 Z-1.49 F3048
X41.175 Y38.657 Z-1.494 F3048
X41.066 Y38.668 Z-1.498 F3048
X40.957 Y38.672 Z-1.502 F3048
X40.848 Y38.668 Z-1.506 F3048
X40.74 Y38.656 Z-1.51 F3048
X40.633 Y38.637 Z-1.514 F3048
X40.528 Y38.61 Z-1.518 F3048
X40.424 Y38.576 Z-1.522 F3048
X40.324 Y38.535 Z-1.526 F3048
X40.226 Y38.486 Z-1.53 F3048
X40.132 Y38.431 Z-1.534 F3048
X40.043 Y38.369 Z-1.538 F3048
X39.958 Y38.302 Z-1.542 F3048
X39.878 Y38.228 Z-1.546 F3048
X39.803 Y38.149 Z-1.55 F3048
X39.734 Y38.064 Z-1.554 F3048
X39.672 Y37.975 Z-1.558 F3048
X39.616 Y37.882 Z-1.562 F3048
X39.566 Y37.785 Z-1.565 F3048
X39.524 Y37.685 Z-1.569 F3048
X39.488 Y37.582 Z-1.573 F3048
X39.461 Y37.477 Z-1.577 F3048
X39.44 Y37.37 Z-1.581 F3048
X39.428 Y37.262 Z-1.585 F3048
X39.422 Y37.153 Z-1.589 F3048
X39.425 Y37.044 Z-1.593 F3048
X39.436 Y36.936 Z-1.597 F3048
X39.454 Y36.829 Z-1.601 F3048
X39.479 Y36.723 Z-1.605 F3048
X39.512 Y36.619 Z-1.609 F3048
X39.552 Y36.518 Z-1.613 F3048
X39.6 Y36.42 Z-1.617 F3048
X39.654 Y36.326 Z-1.621 F3048
X39.714 Y36.236 Z-1.625 F3048
X39.781 Y36.15 Z-1.629 F3048
X39.854 Y36.069 Z-1.633 F3048
X39.932 Y35.994 Z-1.637 F3048
X40.016 Y35.924 Z-1.641 F3048
X40.104 Y35.861 Z-1.645 F3048
X40.196 Y35.803 Z-1.649 F3048
X40.293 Y35.753 Z-1.653 F3048
X40.392 Y35.709 Z-1.657 F3048
X40.495 Y35.673 Z-1.661 F3048
X40.599 Y35.644 Z-1.665 F3048
X40.706 Y35.623 Z-1.669 F3048
X40.814 Y35.609 Z-1.673 F3048
X40.922 Y35.602 Z-1.677 F3048
X41.031 Y35.604 Z-1.681 F3048
X41.139 Y35.613 Z-1.685 F3048
X41.247 Y35.63 Z-1.689 F3048
X41.353 Y35.654 Z-1.693 F3048
X41.456 Y35.686 Z-1.697 F3048
X41.558 Y35.725 Z-1.701 F3048
X41.656 Y35.771 Z-1.705 F3048
X41.751 Y35.824 Z-1.709 F3048
X41.842 Y35.884 Z-1.713 F3048
X41.928 Y35.95 Z-1.717 F3048
X42.01 Y36.022 Z-1.72 F3048
X42.086 Y36.099 Z-1.724 F3048
X42.157 Y36.182 Z-1.728 F3048
X42.221 Y36.269 Z-1.732 F3048
X42.279 Y36.361 Z-1.736 F3048
X42.331 Y36.456 Z-1.74 F3048
X42.375 Y36.555 Z-1.744 F3048
X42.413 Y36.657 Z-1.748 F3048
X42.443 Y36.761 Z-1.752 F3048
X42.466 Y36.868 Z-1.756 F3048
X42.481 Y36.975 Z-1.76 F3048
X42.488 Y37.083 Z-1.764 F3048
Y37.192 Z-1.768 F3048
X42.48 Y37.3 Z-1.772 F3048
X42.465 Y37.408 Z-1.776 F3048
X42.441 Y37.514 Z-1.78 F3048
X42.411 Y37.618 Z-1.784 F3048
X42.373 Y37.72 Z-1.788 F3048
X42.328 Y37.818 Z-1.792 F3048
X42.276 Y37.914 Z-1.796 F3048
X42.218 Y38.005 Z-1.8 F3048
X42.153 Y38.092 Z-1.804 F3048
X42.082 Y38.174 Z-1.808 F3048
X42.005 Y38.251 Z-1.812 F3048
X41.924 Y38.323 Z-1.816 F3048
X41.837 Y38.388 Z-1.82 F3048
X41.746 Y38.447 Z-1.824 F3048
X41.651 Y38.5 Z-1.828 F3048
X41.553 Y38.546 Z-1.832 F3048
X41.451 Y38.584 Z-1.836 F3048
X41.347 Y38.616 Z-1.84 F3048
X41.241 Y38.639 Z-1.844 F3048
X41.134 Y38.656 Z-1.848 F3048
X41.026 Y38.664 Z-1.852 F3048
X40.918 Y38.665 Z-1.856 F3048
X40.81 Y38.659 Z-1.86 F3048
X40.702 Y38.644 Z-1.864 F3048
X40.596 Y38.622 Z-1.868 F3048
X40.492 Y38.593 Z-1.871 F3048
X40.39 Y38.556 Z-1.875 F3048
X40.29 Y38.512 Z-1.879 F3048
X40.195 Y38.462 Z-1.883 F3048
X40.103 Y38.404 Z-1.887 F3048
X40.015 Y38.34 Z-1.891 F3048
X39.932 Y38.271 Z-1.895 F3048
X39.854 Y38.195 Z-1.899 F3048
X39.782 Y38.114 Z-1.903 F3048
X39.716 Y38.028 Z-1.907 F3048
X39.656 Y37.938 Z-1.911 F3048
X39.602 Y37.844 Z-1.915 F3048
X39.555 Y37.746 Z-1.919 F3048
X39.516 Y37.645 Z-1.923 F3048
X39.483 Y37.542 Z-1.927 F3048
X39.458 Y37.436 Z-1.931 F3048
X39.441 Y37.329 Z-1.935 F3048
X39.431 Y37.221 Z-1.939 F3048
X39.429 Y37.113 Z-1.943 F3048
X39.434 Y37.005 Z-1.947 F3048
X39.447 Y36.897 Z-1.951 F3048
X39.468 Y36.791 Z-1.955 F3048
X39.496 Y36.686 Z-1.959 F3048
X39.532 Y36.584 Z-1.963 F3048
X39.574 Y36.484 Z-1.967 F3048
X39.624 Y36.388 Z-1.971 F3048
X39.68 Y36.296 Z-1.975 F3048
X39.743 Y36.207 Z-1.979 F3048
X39.812 Y36.124 Z-1.983 F3048
X39.886 Y36.045 Z-1.987 F3048
X39.966 Y35.972 Z-1.991 F3048
X40.051 Y35.905 Z-1.995 F3048
X40.141 Y35.844 Z-1.999 F3048
X40.234 Y35.79 Z-2.003 F3048
X40.331 Y35.742 Z-2.007 F3048
X40.432 Y35.701 Z-2.011 F3048
X40.535 Y35.668 Z-2.015 F3048
X40.64 Y35.641 Z-2.019 F3048
X40.746 Y35.623 Z-2.023 F3048
X40.854 Y35.612 Z-2.026 F3048
X40.962 Y35.608 Z-2.03 F3048
X41.07 Y35.613 Z-2.034 F3048
X41.178 Y35.624 Z-2.038 F3048
X41.285 Y35.644 Z-2.042 F3048
X41.389 Y35.671 Z-2.046 F3048
X41.492 Y35.705 Z-2.05 F3048
X41.592 Y35.747 Z-2.054 F3048
X41.689 Y35.795 Z-2.058 F3048
X41.782 Y35.851 Z-2.062 F3048
X41.871 Y35.912 Z-2.066 F3048
X41.955 Y35.98 Z-2.07 F3048
X42.034 Y36.054 Z-2.074 F3048
X42.108 Y36.133 Z-2.078 F3048
X42.176 Y36.217 Z-2.082 F3048
X42.238 Y36.305 Z-2.086 F3048
X42.294 Y36.398 Z-2.09 F3048
X42.342 Y36.495 Z-2.094 F3048
X42.384 Y36.594 Z-2.098 F3048
X42.419 Y36.697 Z-2.102 F3048
X42.446 Y36.801 Z-2.106 F3048
X42.466 Y36.908 Z-2.11 F3048
X42.478 Y37.015 Z-2.114 F3048
X42.483 Y37.123 Z-2.118 F3048
X42.48 Y37.231 Z-2.122 F3048
X42.469 Y37.339 Z-2.126 F3048
X42.451 Y37.446 Z-2.13 F3048
X42.425 Y37.551 Z-2.134 F3048
X42.392 Y37.653 Z-2.138 F3048
X42.352 Y37.754 Z-2.142 F3048
X42.304 Y37.851 Z-2.146 F3048
X42.25 Y37.945 Z-2.15 F3048
X42.189 Y38.034 Z-2.154 F3048
X42.123 Y38.119 Z-2.158 F3048
X42.05 Y38.199 Z-2.162 F3048
X41.972 Y38.274 Z-2.166 F3048
X41.888 Y38.343 Z-2.17 F3048
X41.8 Y38.406 Z-2.174 F3048
X41.708 Y38.462 Z-2.178 F3048
X41.613 Y38.512 Z-2.181 F3048
X41.513 Y38.555 Z-2.185 F3048
X41.412 Y38.591 Z-2.189 F3048
X41.307 Y38.619 Z-2.193 F3048
X41.201 Y38.64 Z-2.197 F3048
X41.094 Y38.654 Z-2.201 F3048
X40.986 Y38.659 Z-2.205 F3048
X40.878 Y38.658 Z-2.209 F3048
X40.771 Y38.648 Z-2.213 F3048
X40.664 Y38.631 Z-2.217 F3048
X40.559 Y38.606 Z-2.221 F3048
X40.456 Y38.574 Z-2.225 F3048
X40.355 Y38.535 Z-2.229 F3048
X40.258 Y38.489 Z-2.233 F3048
X40.164 Y38.436 Z-2.237 F3048
X40.073 Y38.376 Z-2.241 F3048
X39.988 Y38.311 Z-2.245 F3048
X39.907 Y38.239 Z-2.249 F3048
X39.832 Y38.162 Z-2.253 F3048
X39.762 Y38.079 Z-2.257 F3048
X39.698 Y37.992 Z-2.261 F3048
X39.64 Y37.901 Z-2.265 F3048
X39.59 Y37.806 Z-2.269 F3048
X39.546 Y37.707 Z-2.273 F3048
X39.509 Y37.605 Z-2.277 F3048
X39.479 Y37.502 Z-2.281 F3048
X39.457 Y37.396 Z-2.285 F3048
X39.442 Y37.289 Z-2.289 F3048
X39.435 Y37.181 Z-2.293 F3048
X39.436 Y37.073 Z-2.297 F3048
X39.444 Y36.966 Z-2.301 F3048
X39.46 Y36.859 Z-2.305 F3048
X39.483 Y36.754 Z-2.309 F3048
X39.514 Y36.651 Z-2.313 F3048
X39.552 Y36.55 Z-2.317 F3048
X39.597 Y36.452 Z-2.321 F3048
X39.649 Y36.357 Z-2.325 F3048
X39.708 Y36.266 Z-2.329 F3048
X39.772 Y36.18 Z-2.332 F3048
X39.843 Y36.099 Z-2.336 F3048
X39.919 Y36.022 Z-2.34 F3048
X40.001 Y35.952 Z-2.344 F3048
X40.087 Y35.887 Z-2.348 F3048
X40.178 Y35.829 Z-2.352 F3048
X40.272 Y35.777 Z-2.356 F3048
X40.37 Y35.732 Z-2.36 F3048
X40.471 Y35.694 Z-2.364 F3048
X40.575 Y35.663 Z-2.368 F3048
X40.68 Y35.64 Z-2.372 F3048
X40.787 Y35.624 Z-2.376 F3048
X40.894 Y35.616 Z-2.38 F3048
X41.002 Y35.615 Z-2.384 F3048
X41.11 Y35.622 Z-2.388 F3048
X41.217 Y35.637 Z-2.392 F3048
X41.322 Y35.659 Z-2.396 F3048
X41.426 Y35.689 Z-2.4 F3048
X41.527 Y35.725 Z-2.404 F3048
X41.625 Y35.769 Z-2.408 F3048
X41.72 Y35.82 Z-2.412 F3048
X41.811 Y35.877 Z-2.416 F3048
X41.898 Y35.941 Z-2.42 F3048
X41.981 Y36.011 Z-2.424 F3048
X42.058 Y36.086 Z-2.428 F3048
X42.129 Y36.167 Z-2.432 F3048
X42.195 Y36.252 Z-2.436 F3048
X42.254 Y36.342 Z-2.44 F3048
X42.307 Y36.436 Z-2.444 F3048
X42.353 Y36.533 Z-2.448 F3048
X42.392 Y36.634 Z-2.452 F3048
X42.424 Y36.737 Z-2.456 F3048
X42.448 Y36.842 Z-2.46 F3048
X42.465 Y36.948 Z-2.464 F3048
X42.475 Y37.055 Z-2.468 F3048
X42.476 Y37.163 Z-2.472 F3048
X42.471 Y37.27 Z-2.476 F3048
X42.457 Y37.377 Z-2.48 F3048
X42.436 Y37.483 Z-2.484 F3048
X42.408 Y37.587 Z-2.487 F3048
X42.372 Y37.689 Z-2.491 F3048
X42.329 Y37.787 Z-2.495 F3048
X42.28 Y37.883 Z-2.499 F3048
X42.223 Y37.975 Z-2.503 F3048
X42.161 Y38.062 Z-2.507 F3048
X42.092 Y38.145 Z-2.511 F3048
X42.017 Y38.223 Z-2.515 F3048
X41.938 Y38.295 Z-2.519 F3048
X41.853 Y38.362 Z-2.523 F3048
X41.764 Y38.422 Z-2.527 F3048
X41.671 Y38.476 Z-2.531 F3048
X41.574 Y38.523 Z-2.535 F3048
X41.474 Y38.563 Z-2.539 F3048
X41.372 Y38.596 Z-2.543 F3048
X41.268 Y38.622 Z-2.547 F3048
X41.161 Y38.64 Z-2.551 F3048
X41.054 Y38.65 Z-2.555 F3048
X40.947 Y38.653 Z-2.559 F3048
X40.839 Y38.649 Z-2.563 F3048
X40.732 Y38.637 Z-2.567 F3048
X40.627 Y38.617 Z-2.571 F3048
X40.523 Y38.59 Z-2.575 F3048
X40.421 Y38.555 Z-2.579 F3048
X40.322 Y38.513 Z-2.583 F3048
X40.226 Y38.465 Z-2.587 F3048
X40.133 Y38.41 Z-2.591 F3048
X40.045 Y38.348 Z-2.595 F3048
X39.961 Y38.28 Z-2.599 F3048
X39.883 Y38.207 Z-2.603 F3048
X39.81 Y38.128 Z-2.607 F3048
X39.742 Y38.044 Z-2.611 F3048
X39.681 Y37.956 Z-2.615 F3048
X39.626 Y37.863 Z-2.619 F3048
X39.578 Y37.767 Z-2.623 F3048
X39.537 Y37.668 Z-2.627 F3048
X39.503 Y37.566 Z-2.631 F3048
X39.476 Y37.462 Z-2.635 F3048
X39.457 Y37.356 Z-2.638 F3048
X39.445 Y37.249 Z-2.642 F3048
X39.441 Y37.142 Z-2.646 F3048
X39.444 Y37.035 Z-2.65 F3048
X39.455 Y36.928 Z-2.654 F3048
X39.474 Y36.822 Z-2.658 F3048
X39.5 Y36.718 Z-2.662 F3048
X39.533 Y36.615 Z-2.666 F3048
X39.574 Y36.516 Z-2.67 F3048
X39.621 Y36.419 Z-2.674 F3048
X39.675 Y36.327 Z-2.678 F3048
X39.736 Y36.238 Z-2.682 F3048
X39.802 Y36.154 Z-2.686 F3048
X39.875 Y36.074 Z-2.69 F3048
X39.953 Y36 Z-2.694 F3048
X40.036 Y35.932 Z-2.698 F3048
X40.123 Y35.87 Z-2.702 F3048
X40.215 Y35.814 Z-2.706 F3048
X40.311 Y35.765 Z-2.71 F3048
X40.41 Y35.723 Z-2.714 F3048
X40.511 Y35.687 Z-2.718 F3048
X40.615 Y35.66 Z-2.722 F3048
X40.72 Y35.639 Z-2.726 F3048
X40.827 Y35.626 Z-2.73 F3048
X40.934 Y35.621 Z-2.734 F3048
X41.041 Y35.623 Z-2.738 F3048
X41.148 Y35.633 Z-2.742 F3048
X41.254 Y35.65 Z-2.746 F3048
X41.359 Y35.675 Z-2.75 F3048
X41.461 Y35.707 Z-2.754 F3048
X41.561 Y35.746 Z-2.758 F3048
X41.658 Y35.793 Z-2.762 F3048
X41.751 Y35.846 Z-2.766 F3048
X41.84 Y35.905 Z-2.77 F3048
X41.925 Y35.971 Z-2.774 F3048
X42.005 Y36.042 Z-2.778 F3048
X42.08 Y36.119 Z-2.782 F3048
X42.149 Y36.201 Z-2.786 F3048
X42.212 Y36.288 Z-2.79 F3048
X42.269 Y36.379 Z-2.793 F3048
X42.319 Y36.474 Z-2.797 F3048
X42.362 Y36.572 Z-2.801 F3048
X42.399 Y36.673 Z-2.805 F3048
X42.428 Y36.777 Z-2.809 F3048
X42.449 Y36.882 Z-2.813 F3048
X42.464 Y36.988 Z-2.817 F3048
X42.47 Y37.095 Z-2.821 F3048
X42.469 Y37.202 Z-2.825 F3048
X42.46 Y37.309 Z-2.829 F3048
X42.444 Y37.415 Z-2.833 F3048
X42.421 Y37.52 Z-2.837 F3048
X42.39 Y37.623 Z-2.841 F3048
X42.352 Y37.723 Z-2.845 F3048
X42.306 Y37.82 Z-2.849 F3048
X42.254 Y37.914 Z-2.853 F3048
X42.196 Y38.004 Z-2.857 F3048
X42.131 Y38.089 Z-2.861 F3048
X42.061 Y38.17 Z-2.865 F3048
X41.985 Y38.246 Z-2.869 F3048
X41.904 Y38.315 Z-2.873 F3048
X41.818 Y38.379 Z-2.877 F3048
X41.727 Y38.437 Z-2.881 F3048
X41.633 Y38.488 Z-2.885 F3048
X41.536 Y38.533 Z-2.889 F3048
X41.435 Y38.57 Z-2.893 F3048
X41.332 Y38.6 Z-2.897 F3048
X41.228 Y38.623 Z-2.901 F3048
X41.122 Y38.638 Z-2.905 F3048
X41.015 Y38.646 Z-2.909 F3048
X40.908 Z-2.913 F3048
X40.801 Y38.639 Z-2.917 F3048
X40.694 Y38.624 Z-2.921 F3048
X40.59 Y38.602 Z-2.925 F3048
X40.487 Y38.572 Z-2.929 F3048
X40.386 Y38.535 Z-2.933 F3048
X40.288 Y38.491 Z-2.937 F3048
X40.194 Y38.44 Z-2.941 F3048
X40.104 Y38.383 Z-2.945 F3048
X40.017 Y38.319 Z-2.948 F3048
X39.936 Y38.249 Z-2.952 F3048
X39.86 Y38.174 Z-2.956 F3048
X39.789 Y38.094 Z-2.96 F3048
X39.724 Y38.009 Z-2.964 F3048
X39.665 Y37.919 Z-2.968 F3048
X39.613 Y37.826 Z-2.972 F3048
X39.568 Y37.729 Z-2.976 F3048
X39.529 Y37.629 Z-2.98 F3048
X39.498 Y37.526 Z-2.984 F3048
X39.474 Y37.422 Z-2.988 F3048
X39.458 Y37.316 Z-2.992 F3048
X39.449 Y37.21 Z-2.996 F3048
X39.447 Y37.103 Z-3 F3048
X39.453 Y36.996 Z-3.004 F3048
X39.467 Y36.89 Z-3.008 F3048
X39.488 Y36.785 Z-3.012 F3048
X39.517 Y36.682 Z-3.016 F3048
X39.553 Y36.581 Z-3.02 F3048
X39.596 Y36.483 Z-3.024 F3048
X39.645 Y36.388 Z-3.028 F3048
X39.702 Y36.297 Z-3.032 F3048
X39.764 Y36.21 Z-3.036 F3048
X39.833 Y36.128 Z-3.04 F3048
X39.907 Y36.051 Z-3.044 F3048
X39.987 Y35.979 Z-3.048 F3048
X40.071 Y35.913 Z-3.052 F3048
X40.16 Y35.854 Z-3.056 F3048
X40.253 Y35.801 Z-3.06 F3048
X40.349 Y35.754 Z-3.064 F3048
X40.449 Y35.715 Z-3.068 F3048
X40.551 Y35.682 Z-3.072 F3048
X40.654 Y35.657 Z-3.076 F3048
X40.76 Y35.639 Z-3.08 F3048
X40.866 Y35.629 Z-3.084 F3048
X40.973 Y35.627 Z-3.088 F3048
X41.08 Y35.632 Z-3.092 F3048
X41.186 Y35.644 Z-3.096 F3048
X41.291 Y35.664 Z-3.099 F3048
X41.394 Y35.692 Z-3.103 F3048
X41.496 Y35.726 Z-3.107 F3048
X41.594 Y35.768 Z-3.111 F3048
X41.689 Y35.817 Z-3.115 F3048
X41.781 Y35.872 Z-3.119 F3048
X41.868 Y35.933 Z-3.123 F3048
X41.951 Y36.001 Z-3.127 F3048
X42.029 Y36.074 Z-3.131 F3048
X42.101 Y36.153 Z-3.135 F3048
X42.168 Y36.236 Z-3.139 F3048
X42.228 Y36.325 Z-3.143 F3048
X42.283 Y36.417 Z-3.147 F3048
X42.33 Y36.512 Z-3.151 F3048
X42.371 Y36.611 Z-3.155 F3048
X42.404 Y36.713 Z-3.159 F3048
X42.431 Y36.816 Z-3.163 F3048
X42.449 Y36.922 Z-3.167 F3048
X42.461 Y37.028 Z-3.171 F3048
X42.465 Y37.135 Z-3.175 F3048
G3 X39.448 I-1.508 F3048
X42.465 I1.508 F3048
( MOVEMENT_CUTTING)
G1 X42.469 Y37.295 F3048
X42.654 Y37.877 F3048
X42.686 Y38.024 F3048
X42.692 Y38.174 F3048
X42.678 Y38.323 F3048
X42.644 Y38.469 F3048
X42.593 Y38.61 F3048
X42.528 Y38.745 F3048
X42.449 Y38.873 F3048
X42.353 Y38.998 F3048
X42.241 Y39.12 F3048
X42.112 Y39.236 F3048
X41.968 Y39.343 F3048
X41.807 Y39.439 F3048
X41.632 Y39.523 F3048
X41.445 Y39.592 F3048
X41.246 Y39.644 F3048
X41.037 Y39.677 F3048
X40.822 Y39.691 F3048
X40.601 Y39.685 F3048
X40.378 Y39.657 F3048
X40.156 Y39.607 F3048
X39.936 Y39.535 F3048
X39.721 Y39.441 F3048
X39.513 Y39.327 F3048
X39.316 Y39.191 F3048
X39.131 Y39.037 F3048
X38.96 Y38.864 F3048
X38.805 Y38.674 F3048
X38.669 Y38.47 F3048
X38.552 Y38.252 F3048
X38.455 Y38.024 F3048
X38.381 Y37.786 F3048
X38.329 Y37.542 F3048
X38.301 Y37.293 F3048
X38.296 Y37.043 F3048
X38.316 Y36.792 F3048
X38.359 Y36.544 F3048
X38.425 Y36.301 F3048
X38.515 Y36.065 F3048
X38.627 Y35.839 F3048
X38.759 Y35.624 F3048
X38.912 Y35.422 F3048
X39.083 Y35.236 F3048
X39.272 Y35.066 F3048
X39.475 Y34.916 F3048
X39.692 Y34.785 F3048
X39.921 Y34.675 F3048
X40.159 Y34.588 F3048
X40.404 Y34.524 F3048
X40.655 Y34.483 F3048
X40.908 Y34.466 F3048
X41.162 Y34.473 F3048
X41.413 Y34.505 F3048
X41.661 Y34.56 F3048
X41.903 Y34.639 F3048
X42.136 Y34.74 F3048
X42.358 Y34.863 F3048
X42.567 Y35.006 F3048
X42.762 Y35.169 F3048
X42.941 Y35.349 F3048
X43.102 Y35.546 F3048
X43.296 Y35.836 F3048
X43.582 Y36.366 F3048
X43.742 Y36.746 F3048
X43.846 Y37.077 F3048
X43.912 Y37.385 F3048
X43.946 Y37.681 F3048
X43.951 Y37.968 F3048
X43.93 Y38.247 F3048
X43.882 Y38.522 F3048
X43.809 Y38.791 F3048
X43.71 Y39.053 F3048
X43.585 Y39.306 F3048
X43.435 Y39.549 F3048
X43.261 Y39.78 F3048
X43.063 Y39.995 F3048
X42.843 Y40.194 F3048
X42.601 Y40.373 F3048
X42.339 Y40.531 F3048
X42.059 Y40.666 F3048
X41.762 Y40.775 F3048
X41.451 Y40.857 F3048
X41.128 Y40.91 F3048
X40.797 Y40.932 F3048
X40.461 Y40.922 F3048
X40.123 Y40.88 F3048
X39.787 Y40.806 F3048
X39.456 Y40.698 F3048
X39.134 Y40.559 F3048
X38.824 Y40.388 F3048
X38.529 Y40.186 F3048
X38.253 Y39.957 F3048
X37.999 Y39.7 F3048
X37.769 Y39.419 F3048
X37.566 Y39.116 F3048
X37.392 Y38.794 F3048
X37.248 Y38.455 F3048
X37.137 Y38.104 F3048
X37.06 Y37.742 F3048
X37.018 Y37.373 F3048
X37.01 Y37.002 F3048
X37.038 Y36.63 F3048
X37.102 Y36.263 F3048
X37.2 Y35.902 F3048
X37.332 Y35.552 F3048
X37.497 Y35.216 F3048
X37.693 Y34.897 F3048
X37.919 Y34.597 F3048
X38.173 Y34.32 F3048
X38.452 Y34.069 F3048
X38.753 Y33.845 F3048
X39.075 Y33.65 F3048
X39.414 Y33.487 F3048
X39.767 Y33.357 F3048
X40.131 Y33.261 F3048
X40.503 Y33.2 F3048
X40.878 Y33.174 F3048
X41.255 Y33.185 F3048
X41.629 Y33.231 F3048
X41.996 Y33.312 F3048
X42.355 Y33.428 F3048
X42.701 Y33.578 F3048
X43.031 Y33.759 F3048
X43.346 Y33.974 F3048
X43.653 Y34.23 F3048
X43.994 Y34.573 F3048
X44.309 Y34.957 F3048
X44.584 Y35.367 F3048
X44.813 Y35.79 F3048
X44.995 Y36.219 F3048
X45.132 Y36.651 F3048
X45.225 Y37.083 F3048
X45.275 Y37.513 F3048
X45.283 Y37.938 F3048
X45.252 Y38.358 F3048
X45.181 Y38.769 F3048
X45.073 Y39.17 F3048
X44.926 Y39.558 F3048
X44.744 Y39.932 F3048
X44.525 Y40.288 F3048
X44.273 Y40.623 F3048
X43.987 Y40.935 F3048
X43.671 Y41.22 F3048
X43.326 Y41.477 F3048
X42.954 Y41.702 F3048
X42.558 Y41.893 F3048
X42.141 Y42.047 F3048
X41.707 Y42.162 F3048
X41.26 Y42.236 F3048
X40.802 Y42.268 F3048
X40.34 Y42.255 F3048
X39.877 Y42.199 F3048
X39.417 Y42.097 F3048
X38.965 Y41.952 F3048
X38.527 Y41.763 F3048
X38.105 Y41.531 F3048
X37.706 Y41.259 F3048
X37.332 Y40.948 F3048
X36.987 Y40.602 F3048
X36.676 Y40.223 F3048
X36.401 Y39.814 F3048
X36.165 Y39.38 F3048
X35.971 Y38.924 F3048
X35.821 Y38.45 F3048
X35.716 Y37.963 F3048
X35.658 Y37.467 F3048
X35.647 Y36.966 F3048
X35.684 Y36.466 F3048
X35.769 Y35.971 F3048
X35.9 Y35.486 F3048
X36.077 Y35.015 F3048
X36.298 Y34.562 F3048
X36.562 Y34.132 F3048
X36.865 Y33.728 F3048
X37.206 Y33.355 F3048
X37.58 Y33.016 F3048
X37.986 Y32.714 F3048
X38.418 Y32.452 F3048
X38.874 Y32.232 F3048
X39.348 Y32.056 F3048
X39.838 Y31.926 F3048
X40.337 Y31.843 F3048
X40.842 Y31.808 F3048
X41.349 Y31.821 F3048
X41.852 Y31.882 F3048
X42.347 Y31.99 F3048
X42.83 Y32.146 F3048
X43.3 Y32.348 F3048
X43.756 Y32.598 F3048
X44.207 Y32.905 F3048
X44.649 Y33.271 F3048
X45.066 Y33.69 F3048
X45.446 Y34.152 F3048
X45.781 Y34.648 F3048
X46.065 Y35.171 F3048
X46.296 Y35.712 F3048
X46.472 Y36.265 F3048
X46.592 Y36.824 F3048
X46.659 Y37.386 F3048
X46.671 Y37.947 F3048
X46.631 Y38.501 F3048
X46.538 Y39.046 F3048
X46.395 Y39.579 F3048
X46.202 Y40.094 F3048
X45.96 Y40.589 F3048
X45.672 Y41.06 F3048
X45.34 Y41.503 F3048
X44.965 Y41.914 F3048
X44.55 Y42.29 F3048
X44.098 Y42.627 F3048
X43.613 Y42.922 F3048
X43.098 Y43.172 F3048
X42.557 Y43.373 F3048
X41.995 Y43.522 F3048
X41.417 Y43.619 F3048
X40.828 Y43.66 F3048
X40.234 Y43.646 F3048
X39.639 Y43.574 F3048
X39.05 Y43.445 F3048
X38.473 Y43.26 F3048
X37.912 Y43.019 F3048
X37.374 Y42.725 F3048
X36.865 Y42.379 F3048
X36.388 Y41.985 F3048
X35.949 Y41.545 F3048
X35.553 Y41.064 F3048
X35.203 Y40.546 F3048
X34.903 Y39.995 F3048
X34.656 Y39.417 F3048
X34.464 Y38.816 F3048
X34.33 Y38.199 F3048
X34.256 Y37.571 F3048
X34.241 Y36.937 F3048
X34.287 Y36.304 F3048
X34.393 Y35.677 F3048
X34.558 Y35.063 F3048
X34.781 Y34.466 F3048
X35.06 Y33.893 F3048
X35.392 Y33.348 F3048
X35.775 Y32.837 F3048
X36.205 Y32.365 F3048
X36.678 Y31.935 F3048
X37.19 Y31.552 F3048
X37.737 Y31.219 F3048
X38.312 Y30.94 F3048
X38.912 Y30.716 F3048
X39.531 Y30.551 F3048
X40.162 Y30.445 F3048
X40.801 Y30.4 F3048
X41.441 Y30.415 F3048
X42.078 Y30.491 F3048
X42.705 Y30.628 F3048
X43.317 Y30.824 F3048
X43.907 Y31.076 F3048
X44.472 Y31.382 F3048
X45.007 Y31.737 F3048
X45.509 Y32.137 F3048
X45.975 Y32.579 F3048
X46.401 Y33.06 F3048
X46.783 Y33.576 F3048
X47.121 Y34.122 F3048
X47.412 Y34.694 F3048
X47.654 Y35.289 F3048
X47.845 Y35.902 F3048
X47.983 Y36.53 F3048
X48.066 Y37.166 F3048
X48.094 Y37.808 F3048
X48.066 Y38.449 F3048
X47.98 Y39.086 F3048
X47.837 Y39.712 F3048
X47.684 Y40.185 F3048
X47.671 Y40.222 F3048
X47.655 Y40.257 F3048
X47.637 Y40.291 F3048
X47.039 Y41.327 F3048
X46.955 Y41.471 F3048
X46.893 Y41.546 F3048
X46.018 Y42.519 F3048
X45.907 Y42.638 F3048
X45.872 Y42.665 F3048
X44.704 Y43.514 F3048
X44.668 Y43.539 F3048
X44.631 Y43.558 F3048
X43.391 Y44.111 F3048
X43.245 Y44.174 F3048
X43.099 Y44.207 F3048
X41.785 Y44.486 F3048
X41.712 Y44.497 F3048
X41.493 F3048
X40.326 F3048
X40.18 Y44.495 F3048
X40.034 Y44.465 F3048
X38.72 Y44.186 F3048
X38.647 Y44.165 F3048
X37.407 Y43.613 F3048
X37.261 Y43.545 F3048
X37.212 Y43.513 F3048
X36.093 Y42.701 F3048
X36.009 Y42.638 F3048
X35.947 Y42.573 F3048
X35.072 Y41.601 F3048
X34.96 Y41.471 F3048
X34.342 Y40.401 F3048
X34.286 Y40.304 F3048
X34.203 Y40.158 F3048
X34.196 Y40.143 F3048
X34.151 Y40.012 F3048
X33.725 Y38.699 F3048
X33.703 Y38.553 F3048
X33.558 Y37.168 F3048
X33.557 Y37.131 F3048
X33.558 Y37.095 F3048
X33.712 Y35.636 F3048
X33.718 Y35.599 F3048
X33.727 Y35.563 F3048
X34.177 Y34.177 F3048
X34.196 Y34.124 F3048
X34.247 Y34.031 F3048
X34.926 Y32.856 F3048
X34.968 Y32.787 F3048
X35.026 Y32.718 F3048
X35.947 Y31.695 F3048
X36.02 Y31.621 F3048
X36.115 Y31.551 F3048
X37.119 Y30.822 F3048
X37.261 Y30.722 F3048
X37.36 Y30.676 F3048
X38.574 Y30.135 F3048
X38.68 Y30.092 F3048
X38.72 Y30.082 F3048
X40.045 Y29.8 F3048
X40.18 Y29.773 F3048
X40.326 Y29.771 F3048
X41.639 F3048
X41.712 F3048
X41.785 Y29.782 F3048
X43.099 Y30.061 F3048
X43.237 Y30.092 F3048
X43.245 Y30.095 F3048
X43.391 Y30.157 F3048
X44.631 Y30.709 F3048
X44.668 Y30.73 F3048
X44.704 Y30.754 F3048
X45.872 Y31.603 F3048
X45.921 Y31.643 F3048
X46.018 Y31.749 F3048
X46.893 Y32.722 F3048
X46.952 Y32.793 F3048
X46.995 Y32.864 F3048
X47.669 Y34.031 F3048
X47.71 Y34.104 F3048
X47.739 Y34.177 F3048
X48.189 Y35.563 F3048
X48.198 Y35.599 F3048
X48.204 Y35.636 F3048
X48.358 Y37.095 F3048
X48.359 Y37.157 F3048
X48.207 Y38.607 F3048
X48.191 Y38.699 F3048
X47.765 Y40.012 F3048
X47.713 Y40.158 F3048
X47.637 Y40.291 F3048
( MOVEMENT_LEAD_OUT)
G3 X47.228 Y40.41 I-0.271 J-0.166 F3048
G1 X47.196 Y40.384 Z-3.172 F3048
X47.166 Y40.358 Z-3.164 F3048
X47.136 Y40.333 Z-3.151 F3048
X47.108 Y40.309 Z-3.133 F3048
X47.095 Y40.276 Z-3.108 F3048
X47.084 Y40.246 Z-3.079 F3048
X47.074 Y40.22 Z-3.046 F3048
X47.065 Y40.198 Z-3.01 F3048
X47.059 Y40.181 Z-2.97 F3048
X47.054 Y40.169 Z-2.929 F3048
X47.052 Y40.163 Z-2.886 F3048
Y40.162 Z-2.858 F3048
( MOVEMENT_CUTTING)
( Safe G1 --> G0)
G0 Z5 F300
( Safe G1 --> G0)
X42.185 Y36.1 F7500
G1 Z-0.675 F3048
( MOVEMENT_RAMP_HELIX)
X42.253 Y36.186 Z-0.679 F3048
X42.315 Y36.277 Z-0.683 F3048
X42.37 Y36.372 Z-0.687 F3048
X42.419 Y36.47 Z-0.69 F3048
X42.461 Y36.572 Z-0.694 F3048
X42.496 Y36.676 Z-0.698 F3048
X42.524 Y36.782 Z-0.702 F3048
X42.544 Y36.89 Z-0.706 F3048
X42.557 Y36.999 Z-0.71 F3048
X42.563 Y37.109 Z-0.713 F3048
X42.561 Y37.219 Z-0.717 F3048
X42.551 Y37.328 Z-0.721 F3048
X42.534 Y37.437 Z-0.725 F3048
X42.51 Y37.544 Z-0.729 F3048
X42.478 Y37.649 Z-0.733 F3048
X42.439 Y37.752 Z-0.736 F3048
X42.394 Y37.852 Z-0.74 F3048
X42.341 Y37.948 Z-0.744 F3048
X42.282 Y38.041 Z-0.748 F3048
X42.217 Y38.13 Z-0.752 F3048
X42.146 Y38.213 Z-0.756 F3048
X42.07 Y38.292 Z-0.759 F3048
X41.988 Y38.366 Z-0.763 F3048
X41.901 Y38.433 Z-0.767 F3048
X41.81 Y38.495 Z-0.771 F3048
X41.715 Y38.55 Z-0.775 F3048
X41.616 Y38.598 Z-0.779 F3048
X41.515 Y38.64 Z-0.782 F3048
X41.411 Y38.674 Z-0.786 F3048
X41.304 Y38.702 Z-0.79 F3048
X41.196 Y38.722 Z-0.794 F3048
X41.087 Y38.734 Z-0.798 F3048
X40.978 Y38.739 Z-0.802 F3048
X40.868 Y38.737 Z-0.805 F3048
X40.759 Y38.727 Z-0.809 F3048
X40.65 Y38.71 Z-0.813 F3048
X40.544 Y38.685 Z-0.817 F3048
X40.439 Y38.653 Z-0.821 F3048
X40.336 Y38.614 Z-0.825 F3048
X40.236 Y38.568 Z-0.828 F3048
X40.14 Y38.515 Z-0.832 F3048
X40.048 Y38.456 Z-0.836 F3048
X39.96 Y38.391 Z-0.84 F3048
X39.876 Y38.32 Z-0.844 F3048
X39.798 Y38.243 Z-0.848 F3048
X39.725 Y38.161 Z-0.852 F3048
X39.658 Y38.074 Z-0.855 F3048
X39.597 Y37.983 Z-0.859 F3048
X39.542 Y37.888 Z-0.863 F3048
X39.494 Y37.789 Z-0.867 F3048
X39.453 Y37.688 Z-0.871 F3048
X39.418 Y37.583 Z-0.875 F3048
X39.391 Y37.477 Z-0.878 F3048
X39.372 Y37.369 Z-0.882 F3048
X39.36 Y37.26 Z-0.886 F3048
X39.355 Y37.15 Z-0.89 F3048
X39.358 Y37.041 Z-0.894 F3048
X39.368 Y36.931 Z-0.898 F3048
X39.386 Y36.823 Z-0.901 F3048
X39.411 Y36.717 Z-0.905 F3048
X39.443 Y36.612 Z-0.909 F3048
X39.482 Y36.51 Z-0.913 F3048
X39.529 Y36.41 Z-0.917 F3048
X39.582 Y36.314 Z-0.921 F3048
X39.641 Y36.222 Z-0.924 F3048
X39.707 Y36.134 Z-0.928 F3048
X39.778 Y36.051 Z-0.932 F3048
X39.855 Y35.973 Z-0.936 F3048
X39.937 Y35.901 Z-0.94 F3048
X40.024 Y35.834 Z-0.944 F3048
X40.115 Y35.773 Z-0.947 F3048
X40.21 Y35.719 Z-0.951 F3048
X40.309 Y35.671 Z-0.955 F3048
X40.411 Y35.63 Z-0.959 F3048
X40.515 Y35.596 Z-0.963 F3048
X40.621 Y35.57 Z-0.967 F3048
X40.729 Y35.551 Z-0.97 F3048
X40.838 Y35.539 Z-0.974 F3048
X40.948 Y35.535 Z-0.978 F3048
X41.057 Y35.538 Z-0.982 F3048
X41.166 Y35.548 Z-0.986 F3048
X41.274 Y35.566 Z-0.99 F3048
X41.381 Y35.592 Z-0.993 F3048
X41.486 Y35.624 Z-0.997 F3048
X41.588 Y35.664 Z-1.001 F3048
X41.687 Y35.711 Z-1.005 F3048
X41.783 Y35.764 Z-1.009 F3048
X41.874 Y35.824 Z-1.013 F3048
X41.962 Y35.89 Z-1.016 F3048
X42.045 Y35.961 Z-1.02 F3048
X42.122 Y36.038 Z-1.024 F3048
X42.195 Y36.121 Z-1.028 F3048
X42.261 Y36.208 Z-1.032 F3048
X42.321 Y36.299 Z-1.036 F3048
X42.375 Y36.394 Z-1.04 F3048
X42.423 Y36.493 Z-1.043 F3048
X42.463 Y36.595 Z-1.047 F3048
X42.496 Y36.699 Z-1.051 F3048
X42.523 Y36.805 Z-1.055 F3048
X42.541 Y36.913 Z-1.059 F3048
X42.553 Y37.022 Z-1.063 F3048
X42.557 Y37.131 Z-1.066 F3048
X42.553 Y37.241 Z-1.07 F3048
X42.542 Y37.35 Z-1.074 F3048
X42.524 Y37.457 Z-1.078 F3048
X42.498 Y37.564 Z-1.082 F3048
X42.465 Y37.668 Z-1.086 F3048
X42.425 Y37.77 Z-1.089 F3048
X42.378 Y37.869 Z-1.093 F3048
X42.324 Y37.964 Z-1.097 F3048
X42.264 Y38.056 Z-1.101 F3048
X42.198 Y38.143 Z-1.105 F3048
X42.126 Y38.226 Z-1.109 F3048
X42.049 Y38.303 Z-1.112 F3048
X41.967 Y38.375 Z-1.116 F3048
X41.879 Y38.441 Z-1.12 F3048
X41.788 Y38.501 Z-1.124 F3048
X41.693 Y38.555 Z-1.128 F3048
X41.594 Y38.602 Z-1.132 F3048
X41.492 Y38.642 Z-1.135 F3048
X41.388 Y38.675 Z-1.139 F3048
X41.282 Y38.7 Z-1.143 F3048
X41.174 Y38.719 Z-1.147 F3048
X41.065 Y38.73 Z-1.151 F3048
X40.956 Y38.733 Z-1.155 F3048
X40.847 Y38.73 Z-1.158 F3048
X40.738 Y38.718 Z-1.162 F3048
X40.63 Y38.699 Z-1.166 F3048
X40.524 Y38.673 Z-1.17 F3048
X40.42 Y38.64 Z-1.174 F3048
X40.318 Y38.6 Z-1.178 F3048
X40.22 Y38.552 Z-1.181 F3048
X40.124 Y38.499 Z-1.185 F3048
X40.033 Y38.438 Z-1.189 F3048
X39.946 Y38.372 Z-1.193 F3048
X39.864 Y38.3 Z-1.197 F3048
X39.787 Y38.222 Z-1.201 F3048
X39.716 Y38.14 Z-1.205 F3048
X39.65 Y38.052 Z-1.208 F3048
X39.59 Y37.961 Z-1.212 F3048
X39.537 Y37.865 Z-1.216 F3048
X39.49 Y37.766 Z-1.22 F3048
X39.451 Y37.664 Z-1.224 F3048
X39.418 Y37.56 Z-1.228 F3048
X39.393 Y37.454 Z-1.231 F3048
X39.375 Y37.346 Z-1.235 F3048
X39.364 Y37.237 Z-1.239 F3048
X39.361 Y37.128 Z-1.243 F3048
X39.365 Y37.019 Z-1.247 F3048
X39.377 Y36.911 Z-1.251 F3048
X39.396 Y36.803 Z-1.254 F3048
X39.422 Y36.697 Z-1.258 F3048
X39.456 Y36.593 Z-1.262 F3048
X39.497 Y36.492 Z-1.266 F3048
X39.544 Y36.394 Z-1.27 F3048
X39.598 Y36.299 Z-1.274 F3048
X39.659 Y36.208 Z-1.277 F3048
X39.725 Y36.121 Z-1.281 F3048
X39.798 Y36.039 Z-1.285 F3048
X39.875 Y35.963 Z-1.289 F3048
X39.958 Y35.892 Z-1.293 F3048
X40.046 Y35.826 Z-1.297 F3048
X40.137 Y35.767 Z-1.3 F3048
X40.233 Y35.714 Z-1.304 F3048
X40.332 Y35.668 Z-1.308 F3048
X40.434 Y35.629 Z-1.312 F3048
X40.538 Y35.596 Z-1.316 F3048
X40.644 Y35.571 Z-1.32 F3048
X40.752 Y35.554 Z-1.323 F3048
X40.861 Y35.543 Z-1.327 F3048
X40.97 Y35.541 Z-1.331 F3048
X41.079 Y35.545 Z-1.335 F3048
X41.188 Y35.557 Z-1.339 F3048
X41.295 Y35.577 Z-1.343 F3048
X41.401 Y35.604 Z-1.346 F3048
X41.504 Y35.638 Z-1.35 F3048
X41.605 Y35.679 Z-1.354 F3048
X41.703 Y35.726 Z-1.358 F3048
X41.798 Y35.781 Z-1.362 F3048
X41.889 Y35.841 Z-1.366 F3048
X41.975 Y35.908 Z-1.37 F3048
X42.056 Y35.981 Z-1.373 F3048
X42.133 Y36.059 Z-1.377 F3048
X42.203 Y36.142 Z-1.381 F3048
X42.268 Y36.229 Z-1.385 F3048
X42.327 Y36.321 Z-1.389 F3048
X42.38 Y36.417 Z-1.393 F3048
X42.425 Y36.516 Z-1.396 F3048
X42.464 Y36.617 Z-1.4 F3048
X42.496 Y36.722 Z-1.404 F3048
X42.521 Y36.828 Z-1.408 F3048
X42.538 Y36.936 Z-1.412 F3048
X42.548 Y37.044 Z-1.416 F3048
X42.55 Y37.153 Z-1.419 F3048
X42.545 Y37.262 Z-1.423 F3048
X42.533 Y37.371 Z-1.427 F3048
X42.513 Y37.478 Z-1.431 F3048
X42.486 Y37.584 Z-1.435 F3048
X42.452 Y37.687 Z-1.439 F3048
X42.41 Y37.788 Z-1.442 F3048
X42.362 Y37.886 Z-1.446 F3048
X42.308 Y37.98 Z-1.45 F3048
X42.247 Y38.071 Z-1.454 F3048
X42.177 Y38.159 Z-1.458 F3048
X42.101 Y38.243 Z-1.462 F3048
X42.02 Y38.321 Z-1.466 F3048
X41.933 Y38.394 Z-1.47 F3048
X41.842 Y38.46 Z-1.474 F3048
X41.746 Y38.519 Z-1.478 F3048
X41.646 Y38.571 Z-1.482 F3048
X41.543 Y38.616 Z-1.486 F3048
X41.436 Y38.654 Z-1.49 F3048
X41.327 Y38.684 Z-1.494 F3048
X41.217 Y38.706 Z-1.498 F3048
X41.105 Y38.72 Z-1.502 F3048
X40.992 Y38.727 Z-1.506 F3048
X40.879 Y38.725 Z-1.51 F3048
X40.767 Y38.716 Z-1.514 F3048
X40.656 Y38.698 Z-1.518 F3048
X40.546 Y38.673 Z-1.521 F3048
X40.438 Y38.64 Z-1.525 F3048
X40.333 Y38.599 Z-1.529 F3048
X40.231 Y38.551 Z-1.533 F3048
X40.132 Y38.496 Z-1.537 F3048
X40.038 Y38.434 Z-1.541 F3048
X39.948 Y38.366 Z-1.545 F3048
X39.864 Y38.291 Z-1.549 F3048
X39.784 Y38.21 Z-1.553 F3048
X39.711 Y38.125 Z-1.557 F3048
X39.644 Y38.034 Z-1.561 F3048
X39.584 Y37.938 Z-1.565 F3048
X39.531 Y37.839 Z-1.569 F3048
X39.484 Y37.736 Z-1.573 F3048
X39.446 Y37.631 Z-1.577 F3048
X39.414 Y37.522 Z-1.581 F3048
X39.391 Y37.412 Z-1.585 F3048
X39.375 Y37.301 Z-1.589 F3048
X39.368 Y37.188 Z-1.593 F3048
Y37.075 Z-1.597 F3048
X39.376 Y36.963 Z-1.601 F3048
X39.393 Y36.852 Z-1.605 F3048
X39.417 Y36.742 Z-1.609 F3048
X39.449 Y36.633 Z-1.613 F3048
X39.488 Y36.528 Z-1.617 F3048
X39.535 Y36.425 Z-1.621 F3048
X39.589 Y36.326 Z-1.625 F3048
X39.65 Y36.232 Z-1.629 F3048
X39.717 Y36.141 Z-1.633 F3048
X39.791 Y36.056 Z-1.637 F3048
X39.87 Y35.976 Z-1.641 F3048
X39.955 Y35.902 Z-1.645 F3048
X40.045 Y35.834 Z-1.649 F3048
X40.139 Y35.773 Z-1.653 F3048
X40.238 Y35.718 Z-1.657 F3048
X40.34 Y35.671 Z-1.661 F3048
X40.446 Y35.631 Z-1.665 F3048
X40.554 Y35.599 Z-1.669 F3048
X40.664 Y35.574 Z-1.672 F3048
X40.775 Y35.557 Z-1.676 F3048
X40.887 Y35.548 Z-1.68 F3048
X41 Y35.547 Z-1.684 F3048
X41.112 Y35.554 Z-1.688 F3048
X41.224 Y35.569 Z-1.692 F3048
X41.334 Y35.592 Z-1.696 F3048
X41.442 Y35.623 Z-1.7 F3048
X41.548 Y35.661 Z-1.704 F3048
X41.651 Y35.706 Z-1.708 F3048
X41.75 Y35.759 Z-1.712 F3048
X41.846 Y35.819 Z-1.716 F3048
X41.937 Y35.885 Z-1.72 F3048
X42.023 Y35.958 Z-1.724 F3048
X42.103 Y36.036 Z-1.728 F3048
X42.178 Y36.12 Z-1.732 F3048
X42.247 Y36.209 Z-1.736 F3048
X42.309 Y36.303 Z-1.74 F3048
X42.365 Y36.401 Z-1.744 F3048
X42.413 Y36.503 Z-1.748 F3048
X42.454 Y36.607 Z-1.752 F3048
X42.488 Y36.715 Z-1.756 F3048
X42.514 Y36.824 Z-1.76 F3048
X42.532 Y36.935 Z-1.764 F3048
X42.542 Y37.047 Z-1.768 F3048
X42.544 Y37.16 Z-1.772 F3048
X42.538 Y37.272 Z-1.776 F3048
X42.525 Y37.384 Z-1.78 F3048
X42.503 Y37.494 Z-1.784 F3048
X42.474 Y37.603 Z-1.788 F3048
X42.437 Y37.709 Z-1.792 F3048
X42.392 Y37.812 Z-1.796 F3048
X42.341 Y37.912 Z-1.8 F3048
X42.282 Y38.008 Z-1.804 F3048
X42.217 Y38.1 Z-1.808 F3048
X42.146 Y38.187 Z-1.812 F3048
X42.068 Y38.268 Z-1.816 F3048
X41.985 Y38.344 Z-1.82 F3048
X41.897 Y38.414 Z-1.824 F3048
X41.804 Y38.477 Z-1.827 F3048
X41.707 Y38.533 Z-1.831 F3048
X41.606 Y38.583 Z-1.835 F3048
X41.502 Y38.625 Z-1.839 F3048
X41.395 Y38.66 Z-1.843 F3048
X41.286 Y38.687 Z-1.847 F3048
X41.175 Y38.706 Z-1.851 F3048
X41.063 Y38.718 Z-1.855 F3048
X40.951 Y38.721 Z-1.859 F3048
X40.839 Y38.717 Z-1.863 F3048
X40.727 Y38.704 Z-1.867 F3048
X40.616 Y38.684 Z-1.871 F3048
X40.507 Y38.656 Z-1.875 F3048
X40.401 Y38.62 Z-1.879 F3048
X40.297 Y38.577 Z-1.883 F3048
X40.197 Y38.526 Z-1.887 F3048
X40.1 Y38.469 Z-1.891 F3048
X40.008 Y38.405 Z-1.895 F3048
X39.92 Y38.334 Z-1.899 F3048
X39.838 Y38.258 Z-1.903 F3048
X39.761 Y38.176 Z-1.907 F3048
X39.691 Y38.088 Z-1.911 F3048
X39.627 Y37.996 Z-1.915 F3048
X39.569 Y37.9 Z-1.919 F3048
X39.519 Y37.8 Z-1.923 F3048
X39.475 Y37.696 Z-1.927 F3048
X39.439 Y37.59 Z-1.931 F3048
X39.411 Y37.481 Z-1.935 F3048
X39.39 Y37.371 Z-1.939 F3048
X39.378 Y37.259 Z-1.943 F3048
X39.373 Y37.147 Z-1.947 F3048
X39.376 Y37.035 Z-1.951 F3048
X39.388 Y36.923 Z-1.955 F3048
X39.407 Y36.812 Z-1.959 F3048
X39.434 Y36.703 Z-1.963 F3048
X39.468 Y36.596 Z-1.967 F3048
X39.51 Y36.492 Z-1.971 F3048
X39.559 Y36.391 Z-1.975 F3048
X39.616 Y36.294 Z-1.979 F3048
X39.679 Y36.201 Z-1.982 F3048
X39.748 Y36.113 Z-1.986 F3048
X39.824 Y36.03 Z-1.99 F3048
X39.905 Y35.953 Z-1.994 F3048
X39.991 Y35.881 Z-1.998 F3048
X40.083 Y35.816 Z-2.002 F3048
X40.178 Y35.757 Z-2.006 F3048
X40.278 Y35.706 Z-2.01 F3048
X40.381 Y35.661 Z-2.014 F3048
X40.487 Y35.624 Z-2.018 F3048
X40.595 Y35.595 Z-2.022 F3048
X40.705 Y35.573 Z-2.026 F3048
X40.816 Y35.559 Z-2.03 F3048
X40.928 Y35.553 Z-2.034 F3048
X41.04 Y35.555 Z-2.038 F3048
X41.152 Y35.565 Z-2.042 F3048
X41.263 Y35.583 Z-2.046 F3048
X41.372 Y35.608 Z-2.05 F3048
X41.479 Y35.642 Z-2.054 F3048
X41.583 Y35.682 Z-2.058 F3048
X41.685 Y35.731 Z-2.062 F3048
X41.782 Y35.786 Z-2.066 F3048
X41.876 Y35.848 Z-2.07 F3048
X41.965 Y35.916 Z-2.074 F3048
X42.049 Y35.99 Z-2.078 F3048
X42.127 Y36.071 Z-2.082 F3048
X42.199 Y36.156 Z-2.086 F3048
X42.266 Y36.247 Z-2.09 F3048
X42.325 Y36.342 Z-2.094 F3048
X42.378 Y36.441 Z-2.098 F3048
X42.423 Y36.543 Z-2.102 F3048
X42.462 Y36.649 Z-2.106 F3048
X42.492 Y36.756 Z-2.11 F3048
X42.515 Y36.866 Z-2.114 F3048
X42.53 Y36.977 Z-2.118 F3048
X42.538 Y37.089 Z-2.122 F3048
X42.537 Y37.201 Z-2.126 F3048
X42.528 Y37.313 Z-2.13 F3048
X42.512 Y37.424 Z-2.133 F3048
X42.487 Y37.533 Z-2.137 F3048
X42.455 Y37.64 Z-2.141 F3048
X42.416 Y37.745 Z-2.145 F3048
X42.369 Y37.847 Z-2.149 F3048
X42.315 Y37.945 Z-2.153 F3048
X42.254 Y38.039 Z-2.157 F3048
X42.187 Y38.128 Z-2.161 F3048
X42.113 Y38.213 Z-2.165 F3048
X42.034 Y38.292 Z-2.169 F3048
X41.949 Y38.365 Z-2.173 F3048
X41.86 Y38.432 Z-2.177 F3048
X41.766 Y38.493 Z-2.181 F3048
X41.667 Y38.547 Z-2.185 F3048
X41.566 Y38.593 Z-2.189 F3048
X41.461 Y38.633 Z-2.193 F3048
X41.353 Y38.665 Z-2.197 F3048
X41.244 Y38.689 Z-2.201 F3048
X41.133 Y38.705 Z-2.205 F3048
X41.022 Y38.714 Z-2.209 F3048
X40.91 Z-2.213 F3048
X40.798 Y38.707 Z-2.217 F3048
X40.687 Y38.691 Z-2.221 F3048
X40.577 Y38.668 Z-2.225 F3048
X40.47 Y38.637 Z-2.229 F3048
X40.364 Y38.599 Z-2.233 F3048
X40.262 Y38.553 Z-2.237 F3048
X40.164 Y38.501 Z-2.241 F3048
X40.069 Y38.441 Z-2.245 F3048
X39.979 Y38.375 Z-2.249 F3048
X39.894 Y38.302 Z-2.253 F3048
X39.814 Y38.224 Z-2.257 F3048
X39.74 Y38.14 Z-2.261 F3048
X39.672 Y38.052 Z-2.265 F3048
X39.61 Y37.958 Z-2.269 F3048
X39.555 Y37.861 Z-2.273 F3048
X39.507 Y37.76 Z-2.277 F3048
X39.467 Y37.655 Z-2.281 F3048
X39.434 Y37.548 Z-2.285 F3048
X39.409 Y37.439 Z-2.288 F3048
X39.391 Y37.329 Z-2.292 F3048
X39.381 Y37.218 Z-2.296 F3048
X39.38 Y37.106 Z-2.3 F3048
X39.386 Y36.994 Z-2.304 F3048
X39.4 Y36.883 Z-2.308 F3048
X39.422 Y36.773 Z-2.312 F3048
X39.451 Y36.665 Z-2.316 F3048
X39.488 Y36.56 Z-2.32 F3048
X39.533 Y36.457 Z-2.324 F3048
X39.585 Y36.358 Z-2.328 F3048
X39.643 Y36.263 Z-2.332 F3048
X39.708 Y36.172 Z-2.336 F3048
X39.78 Y36.086 Z-2.34 F3048
X39.857 Y36.005 Z-2.344 F3048
X39.94 Y35.93 Z-2.348 F3048
X40.028 Y35.861 Z-2.352 F3048
X40.121 Y35.799 Z-2.356 F3048
X40.217 Y35.743 Z-2.36 F3048
X40.318 Y35.694 Z-2.364 F3048
X40.421 Y35.652 Z-2.368 F3048
X40.528 Y35.618 Z-2.372 F3048
X40.636 Y35.592 Z-2.376 F3048
X40.746 Y35.573 Z-2.38 F3048
X40.858 Y35.562 Z-2.384 F3048
X40.969 Y35.559 Z-2.388 F3048
X41.081 Y35.564 Z-2.392 F3048
X41.192 Y35.577 Z-2.396 F3048
X41.302 Y35.597 Z-2.4 F3048
X41.41 Y35.626 Z-2.404 F3048
X41.516 Y35.662 Z-2.408 F3048
X41.618 Y35.705 Z-2.412 F3048
X41.718 Y35.755 Z-2.416 F3048
X41.814 Y35.813 Z-2.42 F3048
X41.905 Y35.877 Z-2.424 F3048
X41.992 Y35.947 Z-2.428 F3048
X42.074 Y36.024 Z-2.432 F3048
X42.15 Y36.106 Z-2.436 F3048
X42.22 Y36.193 Z-2.439 F3048
X42.283 Y36.285 Z-2.443 F3048
X42.34 Y36.381 Z-2.447 F3048
X42.39 Y36.481 Z-2.451 F3048
X42.433 Y36.584 Z-2.455 F3048
X42.468 Y36.69 Z-2.459 F3048
X42.496 Y36.798 Z-2.463 F3048
X42.516 Y36.908 Z-2.467 F3048
X42.528 Y37.019 Z-2.471 F3048
X42.532 Y37.13 Z-2.475 F3048
X42.529 Y37.242 Z-2.479 F3048
X42.517 Y37.353 Z-2.483 F3048
X42.498 Y37.462 Z-2.487 F3048
X42.471 Y37.571 Z-2.491 F3048
X42.436 Y37.677 Z-2.495 F3048
X42.394 Y37.78 Z-2.499 F3048
X42.344 Y37.88 Z-2.503 F3048
X42.288 Y37.976 Z-2.507 F3048
X42.225 Y38.069 Z-2.511 F3048
X42.156 Y38.156 Z-2.515 F3048
X42.08 Y38.238 Z-2.519 F3048
X42 Y38.315 Z-2.523 F3048
X41.913 Y38.386 Z-2.527 F3048
X41.822 Y38.45 Z-2.531 F3048
X41.727 Y38.508 Z-2.535 F3048
X41.628 Y38.559 Z-2.539 F3048
X41.525 Y38.603 Z-2.543 F3048
X41.42 Y38.64 Z-2.547 F3048
X41.312 Y38.668 Z-2.551 F3048
X41.202 Y38.69 Z-2.555 F3048
X41.092 Y38.703 Z-2.559 F3048
X40.98 Y38.709 Z-2.563 F3048
X40.869 Y38.706 Z-2.567 F3048
X40.758 Y38.696 Z-2.571 F3048
X40.648 Y38.678 Z-2.575 F3048
X40.539 Y38.652 Z-2.579 F3048
X40.433 Y38.619 Z-2.583 F3048
X40.329 Y38.578 Z-2.587 F3048
X40.229 Y38.53 Z-2.591 F3048
X40.132 Y38.474 Z-2.594 F3048
X40.039 Y38.413 Z-2.598 F3048
X39.951 Y38.344 Z-2.602 F3048
X39.868 Y38.27 Z-2.606 F3048
X39.791 Y38.19 Z-2.61 F3048
X39.719 Y38.105 Z-2.614 F3048
X39.653 Y38.014 Z-2.618 F3048
X39.595 Y37.92 Z-2.622 F3048
X39.542 Y37.821 Z-2.626 F3048
X39.498 Y37.719 Z-2.63 F3048
X39.46 Y37.614 Z-2.634 F3048
X39.43 Y37.507 Z-2.638 F3048
X39.407 Y37.398 Z-2.642 F3048
X39.393 Y37.287 Z-2.646 F3048
X39.386 Y37.176 Z-2.65 F3048
X39.387 Y37.065 Z-2.654 F3048
X39.396 Y36.954 Z-2.658 F3048
X39.413 Y36.844 Z-2.662 F3048
X39.438 Y36.735 Z-2.666 F3048
X39.47 Y36.628 Z-2.67 F3048
X39.51 Y36.524 Z-2.674 F3048
X39.557 Y36.423 Z-2.678 F3048
X39.611 Y36.326 Z-2.682 F3048
X39.671 Y36.232 Z-2.686 F3048
X39.739 Y36.144 Z-2.69 F3048
X39.812 Y36.06 Z-2.694 F3048
X39.891 Y35.982 Z-2.698 F3048
X39.975 Y35.909 Z-2.702 F3048
X40.065 Y35.843 Z-2.706 F3048
X40.159 Y35.783 Z-2.71 F3048
X40.256 Y35.73 Z-2.714 F3048
X40.358 Y35.684 Z-2.718 F3048
X40.462 Y35.645 Z-2.722 F3048
X40.569 Y35.614 Z-2.726 F3048
X40.678 Y35.59 Z-2.73 F3048
X40.788 Y35.574 Z-2.734 F3048
X40.899 Y35.566 Z-2.738 F3048
X41.01 Z-2.742 F3048
X41.121 Y35.574 Z-2.746 F3048
X41.231 Y35.589 Z-2.749 F3048
X41.34 Y35.613 Z-2.753 F3048
X41.447 Y35.644 Z-2.757 F3048
X41.551 Y35.682 Z-2.761 F3048
X41.653 Y35.728 Z-2.765 F3048
X41.751 Y35.781 Z-2.769 F3048
X41.845 Y35.841 Z-2.773 F3048
X41.934 Y35.907 Z-2.777 F3048
X42.019 Y35.979 Z-2.781 F3048
X42.098 Y36.058 Z-2.785 F3048
X42.172 Y36.141 Z-2.789 F3048
X42.239 Y36.23 Z-2.793 F3048
X42.3 Y36.323 Z-2.797 F3048
X42.354 Y36.42 Z-2.801 F3048
X42.401 Y36.52 Z-2.805 F3048
X42.441 Y36.624 Z-2.809 F3048
X42.473 Y36.731 Z-2.813 F3048
X42.498 Y36.839 Z-2.817 F3048
X42.515 Y36.949 Z-2.821 F3048
X42.524 Y37.06 Z-2.825 F3048
X42.526 Y37.171 Z-2.829 F3048
X42.519 Y37.282 Z-2.833 F3048
X42.505 Y37.392 Z-2.837 F3048
X42.483 Y37.501 Z-2.841 F3048
X42.453 Y37.608 Z-2.845 F3048
X42.416 Y37.713 Z-2.849 F3048
X42.371 Y37.814 Z-2.853 F3048
X42.319 Y37.913 Z-2.857 F3048
X42.261 Y38.007 Z-2.861 F3048
X42.196 Y38.097 Z-2.865 F3048
X42.124 Y38.183 Z-2.869 F3048
X42.047 Y38.263 Z-2.873 F3048
X41.964 Y38.337 Z-2.877 F3048
X41.877 Y38.405 Z-2.881 F3048
X41.784 Y38.467 Z-2.885 F3048
X41.688 Y38.522 Z-2.889 F3048
X41.588 Y38.571 Z-2.893 F3048
X41.484 Y38.612 Z-2.897 F3048
X41.378 Y38.645 Z-2.9 F3048
X41.27 Y38.671 Z-2.904 F3048
X41.161 Y38.69 Z-2.908 F3048
X41.05 Y38.7 Z-2.912 F3048
X40.939 Y38.703 Z-2.916 F3048
X40.828 Y38.697 Z-2.92 F3048
X40.718 Y38.684 Z-2.924 F3048
X40.609 Y38.663 Z-2.928 F3048
X40.502 Y38.635 Z-2.932 F3048
X40.397 Y38.599 Z-2.936 F3048
X40.295 Y38.555 Z-2.94 F3048
X40.196 Y38.505 Z-2.944 F3048
X40.101 Y38.447 Z-2.948 F3048
X40.01 Y38.383 Z-2.952 F3048
X39.924 Y38.313 Z-2.956 F3048
X39.843 Y38.237 Z-2.96 F3048
X39.768 Y38.155 Z-2.964 F3048
X39.699 Y38.068 Z-2.968 F3048
X39.636 Y37.977 Z-2.972 F3048
X39.58 Y37.881 Z-2.976 F3048
X39.531 Y37.782 Z-2.98 F3048
X39.489 Y37.679 Z-2.984 F3048
X39.454 Y37.573 Z-2.988 F3048
X39.427 Y37.466 Z-2.992 F3048
X39.407 Y37.356 Z-2.996 F3048
X39.395 Y37.246 Z-3 F3048
X39.392 Y37.135 Z-3.004 F3048
X39.396 Y37.024 Z-3.008 F3048
X39.408 Y36.914 Z-3.012 F3048
X39.427 Y36.805 Z-3.016 F3048
X39.454 Y36.697 Z-3.02 F3048
X39.489 Y36.592 Z-3.024 F3048
X39.532 Y36.489 Z-3.028 F3048
X39.581 Y36.39 Z-3.032 F3048
X39.637 Y36.294 Z-3.036 F3048
X39.7 Y36.203 Z-3.04 F3048
X39.769 Y36.116 Z-3.044 F3048
X39.845 Y36.035 Z-3.048 F3048
X39.925 Y35.959 Z-3.052 F3048
X40.011 Y35.889 Z-3.055 F3048
X40.102 Y35.825 Z-3.059 F3048
X40.197 Y35.768 Z-3.063 F3048
X40.296 Y35.718 Z-3.067 F3048
X40.398 Y35.674 Z-3.071 F3048
X40.503 Y35.638 Z-3.075 F3048
X40.61 Y35.61 Z-3.079 F3048
X40.719 Y35.589 Z-3.083 F3048
X40.829 Y35.577 Z-3.087 F3048
X40.94 Y35.571 Z-3.091 F3048
X41.051 Y35.574 Z-3.095 F3048
X41.161 Y35.585 Z-3.099 F3048
X41.27 Y35.603 Z-3.103 F3048
X41.378 Y35.629 Z-3.107 F3048
X41.484 Y35.663 Z-3.111 F3048
X41.587 Y35.704 Z-3.115 F3048
X41.687 Y35.752 Z-3.119 F3048
X41.783 Y35.808 Z-3.123 F3048
X41.875 Y35.869 Z-3.127 F3048
X41.962 Y35.938 Z-3.131 F3048
X42.044 Y36.012 Z-3.135 F3048
X42.121 Y36.092 Z-3.139 F3048
X42.192 Y36.177 Z-3.143 F3048
X42.257 Y36.266 Z-3.147 F3048
X42.315 Y36.361 Z-3.151 F3048
X42.366 Y36.459 Z-3.155 F3048
X42.411 Y36.56 Z-3.159 F3048
X42.448 Y36.665 Z-3.163 F3048
X42.477 Y36.771 Z-3.167 F3048
X42.499 Y36.88 Z-3.171 F3048
X42.513 Y36.99 Z-3.175 F3048
X42.519 Y37.1 Z-3.179 F3048
X42.518 Y37.211 Z-3.183 F3048
X42.509 Y37.322 Z-3.187 F3048
X42.491 Y37.431 Z-3.191 F3048
X42.467 Y37.539 Z-3.195 F3048
X42.434 Y37.645 Z-3.199 F3048
X42.394 Y37.748 Z-3.203 F3048
X42.347 Y37.848 Z-3.206 F3048
X42.293 Y37.945 Z-3.21 F3048
X42.232 Y38.038 Z-3.214 F3048
X42.165 Y38.126 Z-3.218 F3048
X42.092 Y38.209 Z-3.222 F3048
X42.013 Y38.286 Z-3.226 F3048
X41.929 Y38.358 Z-3.23 F3048
X41.84 Y38.424 Z-3.234 F3048
X41.746 Y38.483 Z-3.238 F3048
X41.649 Y38.536 Z-3.242 F3048
X41.548 Y38.581 Z-3.246 F3048
X41.444 Y38.619 Z-3.25 F3048
X41.338 Y38.65 Z-3.254 F3048
X41.23 Y38.673 Z-3.258 F3048
X41.12 Y38.688 Z-3.262 F3048
X41.01 Y38.696 Z-3.266 F3048
X40.899 Y38.695 Z-3.27 F3048
X40.789 Y38.687 Z-3.274 F3048
X40.679 Y38.671 Z-3.278 F3048
X40.571 Y38.648 Z-3.282 F3048
X40.465 Y38.617 Z-3.286 F3048
X40.361 Y38.578 Z-3.29 F3048
X40.261 Y38.532 Z-3.294 F3048
X40.164 Y38.479 Z-3.298 F3048
X40.071 Y38.419 Z-3.302 F3048
X39.982 Y38.353 Z-3.306 F3048
X39.898 Y38.281 Z-3.31 F3048
X39.82 Y38.203 Z-3.314 F3048
X39.747 Y38.12 Z-3.318 F3048
X39.68 Y38.031 Z-3.322 F3048
X39.62 Y37.939 Z-3.326 F3048
X39.566 Y37.842 Z-3.33 F3048
X39.52 Y37.742 Z-3.334 F3048
X39.481 Y37.638 Z-3.338 F3048
X39.449 Y37.532 Z-3.342 F3048
X39.425 Y37.424 Z-3.346 F3048
X39.408 Y37.315 Z-3.35 F3048
X39.399 Y37.205 Z-3.354 F3048
X39.398 Y37.094 Z-3.358 F3048
X39.405 Y36.984 Z-3.361 F3048
X39.42 Y36.875 Z-3.365 F3048
X39.442 Y36.767 Z-3.369 F3048
X39.472 Y36.66 Z-3.373 F3048
X39.51 Y36.556 Z-3.377 F3048
X39.554 Y36.455 Z-3.381 F3048
X39.606 Y36.358 Z-3.385 F3048
X39.665 Y36.264 Z-3.389 F3048
X39.73 Y36.175 Z-3.393 F3048
X39.801 Y36.09 Z-3.397 F3048
X39.878 Y36.011 Z-3.401 F3048
X39.96 Y35.937 Z-3.405 F3048
X40.048 Y35.87 Z-3.409 F3048
X40.14 Y35.809 Z-3.413 F3048
X40.236 Y35.754 Z-3.417 F3048
X40.335 Y35.707 Z-3.421 F3048
X40.438 Y35.666 Z-3.425 F3048
X40.544 Y35.633 Z-3.429 F3048
X40.651 Y35.608 Z-3.433 F3048
X40.76 Y35.59 Z-3.437 F3048
X40.87 Y35.58 Z-3.441 F3048
X40.981 Y35.578 Z-3.445 F3048
X41.091 Y35.583 Z-3.449 F3048
X41.201 Y35.597 Z-3.453 F3048
X41.309 Y35.618 Z-3.457 F3048
X41.416 Y35.647 Z-3.461 F3048
X41.52 Y35.683 Z-3.465 F3048
X41.621 Y35.726 Z-3.469 F3048
X41.719 Y35.777 Z-3.473 F3048
X41.814 Y35.834 Z-3.477 F3048
X41.903 Y35.898 Z-3.481 F3048
X41.989 Y35.969 Z-3.485 F3048
X42.069 Y36.045 Z-3.489 F3048
X42.143 Y36.126 Z-3.493 F3048
X42.211 Y36.213 Z-3.497 F3048
X42.274 Y36.304 Z-3.501 F3048
X42.329 Y36.399 Z-3.505 F3048
X42.378 Y36.498 Z-3.509 F3048
X42.419 Y36.6 Z-3.512 F3048
X42.453 Y36.705 Z-3.516 F3048
X42.48 Y36.812 Z-3.52 F3048
X42.499 Y36.921 Z-3.524 F3048
X42.51 Y37.031 Z-3.528 F3048
X42.514 Y37.141 Z-3.532 F3048
X42.509 Y37.251 Z-3.536 F3048
X42.497 Y37.361 Z-3.54 F3048
X42.477 Y37.47 Z-3.544 F3048
X42.45 Y37.576 Z-3.548 F3048
X42.414 Y37.681 Z-3.552 F3048
X42.372 Y37.783 Z-3.556 F3048
X42.323 Y37.882 Z-3.56 F3048
X42.266 Y37.976 Z-3.564 F3048
X42.203 Y38.067 Z-3.568 F3048
X42.134 Y38.153 Z-3.572 F3048
X42.059 Y38.234 Z-3.576 F3048
X41.979 Y38.309 Z-3.58 F3048
X41.893 Y38.378 Z-3.584 F3048
X41.803 Y38.441 Z-3.588 F3048
X41.708 Y38.498 Z-3.592 F3048
X41.61 Y38.547 Z-3.596 F3048
X41.508 Y38.59 Z-3.6 F3048
X41.404 Y38.625 Z-3.604 F3048
X41.297 Y38.653 Z-3.608 F3048
X41.189 Y38.673 Z-3.612 F3048
X41.079 Y38.686 Z-3.616 F3048
X40.969 Y38.69 Z-3.62 F3048
X40.859 Y38.687 Z-3.624 F3048
X40.749 Y38.676 Z-3.628 F3048
X40.641 Y38.658 Z-3.632 F3048
X40.534 Y38.631 Z-3.636 F3048
X40.429 Y38.597 Z-3.64 F3048
X40.327 Y38.556 Z-3.644 F3048
X40.227 Y38.508 Z-3.648 F3048
X40.132 Y38.453 Z-3.652 F3048
X40.041 Y38.391 Z-3.656 F3048
X39.954 Y38.323 Z-3.66 F3048
X39.873 Y38.249 Z-3.664 F3048
X39.797 Y38.169 Z-3.667 F3048
X39.726 Y38.084 Z-3.671 F3048
X39.662 Y37.994 Z-3.675 F3048
X39.605 Y37.9 Z-3.679 F3048
X39.554 Y37.803 Z-3.683 F3048
X39.51 Y37.702 Z-3.687 F3048
X39.474 Y37.598 Z-3.691 F3048
X39.445 Y37.492 Z-3.695 F3048
X39.424 Y37.384 Z-3.699 F3048
X39.41 Y37.274 Z-3.703 F3048
X39.404 Y37.165 Z-3.707 F3048
X39.406 Y37.054 Z-3.711 F3048
X39.416 Y36.945 Z-3.715 F3048
X39.433 Y36.836 Z-3.719 F3048
X39.458 Y36.729 Z-3.723 F3048
X39.491 Y36.624 Z-3.727 F3048
X39.531 Y36.521 Z-3.731 F3048
X39.578 Y36.422 Z-3.735 F3048
X39.632 Y36.326 Z-3.739 F3048
X39.693 Y36.234 Z-3.743 F3048
X39.76 Y36.147 Z-3.747 F3048
X39.833 Y36.065 Z-3.751 F3048
X39.912 Y35.988 Z-3.755 F3048
X39.996 Y35.917 Z-3.759 F3048
X40.085 Y35.852 Z-3.763 F3048
X40.178 Y35.793 Z-3.767 F3048
X40.275 Y35.741 Z-3.771 F3048
X40.375 Y35.696 Z-3.775 F3048
X40.479 Y35.659 Z-3.779 F3048
X40.585 Y35.629 Z-3.783 F3048
X40.692 Y35.606 Z-3.787 F3048
X40.801 Y35.591 Z-3.791 F3048
X40.911 Y35.584 Z-3.795 F3048
X41.021 Y35.585 Z-3.799 F3048
X41.131 Y35.593 Z-3.803 F3048
X41.239 Y35.61 Z-3.807 F3048
X41.347 Y35.633 Z-3.811 F3048
X41.452 Y35.665 Z-3.815 F3048
X41.555 Y35.704 Z-3.819 F3048
X41.655 Y35.75 Z-3.822 F3048
X41.751 Y35.803 Z-3.826 F3048
X41.843 Y35.862 Z-3.83 F3048
X41.931 Y35.928 Z-3.834 F3048
X42.014 Y36 Z-3.838 F3048
X42.092 Y36.078 Z-3.842 F3048
X42.164 Y36.161 Z-3.846 F3048
X42.23 Y36.249 Z-3.85 F3048
X42.289 Y36.341 Z-3.854 F3048
X42.342 Y36.438 Z-3.858 F3048
X42.388 Y36.538 Z-3.862 F3048
X42.427 Y36.641 Z-3.866 F3048
X42.458 Y36.746 Z-3.87 F3048
X42.482 Y36.853 Z-3.874 F3048
X42.498 Y36.962 Z-3.878 F3048
X42.506 Y37.072 Z-3.882 F3048
X42.507 Y37.182 Z-3.886 F3048
X42.5 Y37.291 Z-3.89 F3048
X42.485 Y37.4 Z-3.894 F3048
X42.462 Y37.508 Z-3.898 F3048
X42.432 Y37.614 Z-3.902 F3048
X42.394 Y37.717 Z-3.906 F3048
X42.349 Y37.817 Z-3.91 F3048
X42.298 Y37.914 Z-3.914 F3048
X42.239 Y38.007 Z-3.918 F3048
X42.174 Y38.095 Z-3.922 F3048
X42.103 Y38.179 Z-3.926 F3048
X42.026 Y38.257 Z-3.93 F3048
X41.944 Y38.33 Z-3.934 F3048
X41.857 Y38.397 Z-3.938 F3048
X41.765 Y38.457 Z-3.942 F3048
X41.67 Y38.511 Z-3.946 F3048
X41.57 Y38.558 Z-3.95 F3048
X41.468 Y38.598 Z-3.954 F3048
X41.363 Y38.63 Z-3.958 F3048
X41.256 Y38.655 Z-3.962 F3048
X41.148 Y38.673 Z-3.966 F3048
X41.038 Y38.682 Z-3.97 F3048
X40.929 Y38.684 Z-3.973 F3048
X40.819 Y38.678 Z-3.977 F3048
X40.71 Y38.664 Z-3.981 F3048
X40.602 Y38.643 Z-3.985 F3048
X40.497 Y38.614 Z-3.989 F3048
X40.393 Y38.577 Z-3.993 F3048
X40.292 Y38.534 Z-3.997 F3048
X40.195 Y38.483 Z-4.001 F3048
X40.101 Y38.425 Z-4.005 F3048
X40.012 Y38.362 Z-4.009 F3048
X39.928 Y38.291 Z-4.013 F3048
X39.848 Y38.216 Z-4.017 F3048
X39.775 Y38.134 Z-4.021 F3048
X39.707 Y38.048 Z-4.025 F3048
X39.646 Y37.957 Z-4.029 F3048
X39.591 Y37.862 Z-4.033 F3048
X39.543 Y37.764 Z-4.037 F3048
X39.502 Y37.662 Z-4.041 F3048
X39.468 Y37.558 Z-4.045 F3048
X39.442 Y37.451 Z-4.049 F3048
X39.424 Y37.343 Z-4.053 F3048
X39.413 Y37.234 Z-4.057 F3048
X39.41 Y37.124 Z-4.061 F3048
X39.415 Y37.015 Z-4.065 F3048
X39.427 Y36.906 Z-4.069 F3048
X39.448 Y36.798 Z-4.073 F3048
X39.475 Y36.692 Z-4.077 F3048
X39.51 Y36.588 Z-4.081 F3048
X39.553 Y36.487 Z-4.085 F3048
X39.603 Y36.389 Z-4.089 F3048
X39.659 Y36.295 Z-4.093 F3048
X39.722 Y36.205 Z-4.097 F3048
X39.791 Y36.12 Z-4.101 F3048
X39.866 Y36.04 Z-4.105 F3048
X39.946 Y35.965 Z-4.109 F3048
X40.032 Y35.897 Z-4.113 F3048
X40.122 Y35.834 Z-4.117 F3048
X40.216 Y35.778 Z-4.121 F3048
X40.314 Y35.729 Z-4.125 F3048
X40.415 Y35.687 Z-4.128 F3048
X40.519 Y35.653 Z-4.132 F3048
X40.625 Y35.626 Z-4.136 F3048
X40.733 Y35.606 Z-4.14 F3048
X40.842 Y35.594 Z-4.144 F3048
X40.951 Y35.59 Z-4.148 F3048
X41.061 Y35.593 Z-4.152 F3048
X41.17 Y35.604 Z-4.156 F3048
X41.278 Y35.623 Z-4.16 F3048
X41.384 Y35.65 Z-4.164 F3048
X41.488 Y35.684 Z-4.168 F3048
X41.589 Y35.725 Z-4.172 F3048
X41.688 Y35.774 Z-4.176 F3048
X41.782 Y35.829 Z-4.18 F3048
X41.873 Y35.891 Z-4.184 F3048
X41.958 Y35.959 Z-4.188 F3048
X42.039 Y36.033 Z-4.192 F3048
X42.115 Y36.112 Z-4.196 F3048
X42.184 Y36.197 Z-4.2 F3048
X42.247 Y36.286 Z-4.204 F3048
X42.304 Y36.38 Z-4.208 F3048
X42.354 Y36.477 Z-4.212 F3048
X42.397 Y36.578 Z-4.216 F3048
X42.433 Y36.681 Z-4.22 F3048
X42.462 Y36.787 Z-4.224 F3048
X42.483 Y36.894 Z-4.228 F3048
X42.496 Y37.003 Z-4.232 F3048
X42.501 Y37.112 Z-4.236 F3048
X42.499 Y37.222 Z-4.24 F3048
X42.489 Y37.331 Z-4.244 F3048
X42.471 Y37.439 Z-4.248 F3048
X42.446 Y37.545 Z-4.252 F3048
X42.413 Y37.649 Z-4.256 F3048
X42.373 Y37.751 Z-4.26 F3048
X42.326 Y37.85 Z-4.264 F3048
X42.272 Y37.945 Z-4.268 F3048
X42.211 Y38.036 Z-4.272 F3048
X42.144 Y38.122 Z-4.276 F3048
X42.071 Y38.204 Z-4.279 F3048
X41.993 Y38.28 Z-4.283 F3048
X41.909 Y38.35 Z-4.287 F3048
X41.82 Y38.415 Z-4.291 F3048
X41.728 Y38.473 Z-4.295 F3048
X41.631 Y38.524 Z-4.299 F3048
X41.531 Y38.568 Z-4.303 F3048
X41.428 Y38.605 Z-4.307 F3048
X41.323 Y38.634 Z-4.311 F3048
X41.215 Y38.656 Z-4.315 F3048
X41.107 Y38.671 Z-4.319 F3048
X40.998 Y38.677 Z-4.323 F3048
X40.888 Y38.676 Z-4.327 F3048
X40.779 Y38.668 Z-4.331 F3048
X40.671 Y38.651 Z-4.335 F3048
X40.565 Y38.627 Z-4.339 F3048
X40.46 Y38.595 Z-4.343 F3048
X40.358 Y38.556 Z-4.347 F3048
X40.259 Y38.51 Z-4.351 F3048
X40.163 Y38.457 Z-4.355 F3048
X40.072 Y38.398 Z-4.359 F3048
X39.984 Y38.332 Z-4.363 F3048
X39.902 Y38.26 Z-4.367 F3048
X39.825 Y38.182 Z-4.371 F3048
X39.754 Y38.1 Z-4.375 F3048
X39.689 Y38.012 Z-4.379 F3048
X39.63 Y37.92 Z-4.383 F3048
X39.578 Y37.824 Z-4.387 F3048
X39.533 Y37.724 Z-4.391 F3048
X39.495 Y37.622 Z-4.395 F3048
X39.464 Y37.517 Z-4.399 F3048
X39.441 Y37.41 Z-4.403 F3048
X39.425 Y37.302 Z-4.407 F3048
X39.417 Y37.193 Z-4.411 F3048
Y37.084 Z-4.415 F3048
X39.425 Y36.975 Z-4.419 F3048
X39.44 Y36.867 Z-4.423 F3048
X39.463 Y36.76 Z-4.427 F3048
X39.493 Y36.655 Z-4.431 F3048
X39.531 Y36.553 Z-4.434 F3048
X39.576 Y36.453 Z-4.438 F3048
X39.628 Y36.357 Z-4.442 F3048
X39.686 Y36.265 Z-4.446 F3048
X39.751 Y36.177 Z-4.45 F3048
X39.822 Y36.094 Z-4.454 F3048
X39.899 Y36.016 Z-4.458 F3048
X39.981 Y35.944 Z-4.462 F3048
X40.068 Y35.878 Z-4.466 F3048
X40.159 Y35.818 Z-4.47 F3048
X40.254 Y35.765 Z-4.474 F3048
X40.353 Y35.719 Z-4.478 F3048
X40.455 Y35.68 Z-4.482 F3048
X40.559 Y35.648 Z-4.486 F3048
X40.666 Y35.624 Z-4.49 F3048
X40.773 Y35.607 Z-4.494 F3048
X40.882 Y35.598 Z-4.498 F3048
X40.991 Y35.596 Z-4.502 F3048
X41.1 Y35.603 Z-4.506 F3048
X41.208 Y35.617 Z-4.51 F3048
