%
(Fusion CAM 2.0.18961)
( Posts processor: MPCNC21.cps)
( Gcode generated: Sunday, April 28, 2024 9:24:04 PM GMT)
( Document: wireWiggler v198)
( Setup: boxFront)
(When using Fusion for Personal Use, the feedrate of rapid)
(moves is reduced to match the feedrate of cutting moves,)
(which can increase machining time. Unrestricted rapid moves)
(are available with a Fusion Subscription.)
( )
( Ranges Table:)
(   X: Min=4.412 Max=210.497 Size=206.085)
(   Y: Min=4.412 Max=234.066 Size=229.654)
(   Z: Min=-12.438 Max=3 Size=15.438)
( )
( Tools Table:)
(  T2 D=3.175 CR=0 - ZMIN=-12.438 - flat end mill )
( )
( Feedrate and Scaling Properties:)
(   Feed: Travel speed X/Y = 7500)
(   Feed: Travel Speed Z = 300)
(   Feed: Enforce Feedrate = true)
(   Feed: Scale Feedrate = false)
(   Feed: Max XY Cut Speed = 900)
(   Feed: Max Z Cut Speed = 180)
(   Feed: Max Toolpath Speed = 1000)
( )
( G1->G0 Mapping Properties:)
(   Map: First G1 -> G0 Rapid = true)
(   Map: G1s -> G0 Rapids = true)
(   Map: SafeZ Mode = Retract : default = 0)
(   Map: Allow Rapid Z = true)
( )
( *** START begin ***)
( --- Start custom gcode C:\Users\Kevin\Documents\Fusion 360\NC Programs\start.gcode)
% vfd enable
M6 T0
% LED ON
M62 P0
% spindle relays on
M62 P1
%( *** START end ***)
( )
( *** SECTION begin ***)
(   X Min: 27.309 - X Max: 210.497)
(   Y Min: 26.956 - Y Max: 234.066)
(   Z Min: -1 - Z Max: 3)
( SafeZ retract level: 3)
( glueLettersFront - Milling - Tool: 2 -  flat end mill)
( COMMAND_START_SPINDLE)
( COMMAND_SPINDLE_CLOCKWISE)
( >>> Spindle Speed 18000)
M3 S18000
( COMMAND_COOLANT_ON)
( >>> WARNING: No matching Coolant channel : Flood requested)
( MOVEMENT_PLUNGE)
( First G1 --> G0)
G0 Z3 F300
X198.031 Y129.102 F7500
G1 Z0.635 F339
Z-1 F339
( MOVEMENT_FINISH_CUTTING)
X197.661 F3048
Y116.276 F3048
X207.383 F3048
X207.668 Y116.3 F3048
X207.947 Y116.34 F3048
X208.232 Y116.407 F3048
X208.369 Y116.446 F3048
X208.78 Y116.7 F3048
X209.04 Y116.872 F3048
X209.279 Y117.04 F3048
X209.487 Y117.202 F3048
X209.665 Y117.359 F3048
X209.81 Y117.507 F3048
X209.925 Y117.647 F3048
X210.017 Y117.787 F3048
X210.099 Y117.945 F3048
X210.179 Y118.142 F3048
X210.257 Y118.378 F3048
X210.329 Y118.641 F3048
X210.394 Y118.931 F3048
X210.497 Y119.468 F3048
Y119.637 F3048
X210.463 Y119.93 F3048
X210.413 Y120.252 F3048
X210.349 Y120.529 F3048
X210.324 Y120.61 F3048
X210.288 Y120.7 F3048
X210.247 Y120.788 F3048
X210.201 Y120.872 F3048
X210.04 Y121.121 F3048
X209.84 Y121.39 F3048
X209.597 Y121.695 F3048
G17 G2 X209.589 Y123.664 I1.241 J0.99 F3048
G1 X209.837 Y123.982 F3048
X210.041 Y124.259 F3048
X210.203 Y124.517 F3048
X210.251 Y124.607 F3048
X210.292 Y124.697 F3048
X210.326 Y124.79 F3048
X210.354 Y124.881 F3048
X210.416 Y125.171 F3048
X210.464 Y125.508 F3048
X210.497 Y125.823 F3048
Y125.96 F3048
X210.475 Y126.264 F3048
X210.436 Y126.545 F3048
X210.368 Y126.83 F3048
X210.322 Y126.986 F3048
X210.058 Y127.414 F3048
X209.888 Y127.673 F3048
X209.72 Y127.91 F3048
X209.556 Y128.12 F3048
X209.401 Y128.295 F3048
X209.255 Y128.436 F3048
X209.117 Y128.546 F3048
X208.977 Y128.636 F3048
X208.813 Y128.718 F3048
X208.615 Y128.796 F3048
X208.378 Y128.871 F3048
X208.107 Y128.94 F3048
X207.813 Y129.003 F3048
X207.261 Y129.102 F3048
X198.031 F3048
( MOVEMENT_CUTTING)
( Safe G1 --> G0)
G0 Z3 F300
( Safe G1 --> G0)
X198.293 Y128.473 F7500
( MOVEMENT_PLUNGE)
G1 Z0.635 F339
Z-1 F339
( MOVEMENT_FINISH_CUTTING)
G2 X199.42 Y128.943 I1.127 J-1.118 F3048
G1 X207.496 F3048
G2 X208.06 Y128.839 J-1.588 F3048
G1 X208.297 Y128.749 F3048
G2 X208.368 Y128.72 I-0.564 J-1.484 F3048
G1 X208.595 Y128.621 F3048
G2 X208.733 Y128.552 I-0.635 J-1.455 F3048
G1 X208.941 Y128.436 F3048
G2 X209.089 Y128.343 I-0.773 J-1.386 F3048
G1 X209.183 Y128.276 F3048
G2 X209.297 Y128.186 I-0.921 J-1.293 F3048
G1 X209.383 Y128.112 F3048
G2 X209.512 Y127.988 I-1.035 J-1.203 F3048
G1 X209.588 Y127.906 F3048
G2 X209.721 Y127.743 I-1.164 J-1.079 F3048
G1 X209.786 Y127.651 F3048
G2 X209.871 Y127.517 I-1.297 J-0.916 F3048
G1 X209.927 Y127.418 F3048
G2 X209.993 Y127.286 I-1.382 J-0.782 F3048
G1 X210.041 Y127.179 F3048
G2 X210.091 Y127.055 I-1.448 J-0.65 F3048
G1 X210.171 Y126.827 F3048
G2 X210.204 Y126.722 I-1.498 J-0.526 F3048
G1 X210.27 Y126.482 F3048
G2 X210.327 Y126.061 I-1.531 J-0.421 F3048
G1 Y125.783 F3048
G2 X210.323 Y125.676 I-1.588 F3048
G1 X210.309 Y125.468 F3048
G2 X210.265 Y125.19 I-1.584 J0.107 F3048
G1 X210.24 Y125.09 F3048
G2 X210.197 Y124.946 I-1.54 J0.385 F3048
G1 X210.162 Y124.847 F3048
G2 X210.039 Y124.58 I-1.497 J0.529 F3048
G1 X209.904 Y124.347 F3048
G2 X209.855 Y124.269 I-1.374 J0.796 F3048
G1 X209.71 Y124.049 F3048
G2 X209.637 Y123.947 I-1.326 J0.874 F3048
G1 X209.559 Y123.847 F3048
G2 X209.479 Y123.753 I-1.252 J0.976 F3048
G1 X209.395 Y123.661 F3048
G2 X209.278 Y123.545 I-1.172 J1.07 F3048
G1 X209.187 Y123.464 F3048
G2 X209.04 Y123.348 I-1.055 J1.186 F3048
G1 X208.941 Y123.279 F3048
G2 X208.769 Y123.174 I-0.908 J1.302 F3048
G1 X208.662 Y123.118 F3048
G2 X208.509 Y123.048 I-0.736 J1.407 F3048
G1 X208.395 Y123.003 F3048
G2 X208.218 Y122.945 I-0.583 J1.477 F3048
G1 X207.972 Y122.88 F3048
G2 X207.793 Y122.844 I-0.406 J1.535 F3048
G1 X207.53 Y122.806 F3048
G2 X207.455 Y122.797 I-0.227 J1.571 F3048
G1 X207.184 Y122.771 F3048
G2 X207.032 Y122.763 I-0.152 J1.58 F3048
G1 X203.301 F3048
Y122.604 F3048
X207.18 F3048
G2 X207.509 Y122.569 J-1.588 F3048
G1 X207.816 Y122.504 F3048
G2 X207.899 Y122.484 I-0.329 J-1.553 F3048
G1 X208.193 Y122.405 F3048
G2 X208.312 Y122.368 I-0.412 J-1.533 F3048
G1 X208.45 Y122.319 F3048
G2 X208.561 Y122.275 I-0.531 J-1.496 F3048
G1 X208.69 Y122.218 F3048
G2 X208.836 Y122.144 I-0.642 J-1.452 F3048
G1 X208.955 Y122.076 F3048
G2 X209.11 Y121.975 I-0.788 J-1.378 F3048
G1 X209.217 Y121.896 F3048
G2 X209.391 Y121.748 I-0.943 J-1.277 F3048
G1 X209.485 Y121.655 F3048
G2 X209.639 Y121.477 I-1.117 J-1.129 F3048
G1 X209.719 Y121.37 F3048
G2 X209.831 Y121.198 I-1.271 J-0.951 F3048
G1 X209.898 Y121.079 F3048
G2 X209.969 Y120.937 I-1.383 J-0.779 F3048
G1 X210.026 Y120.807 F3048
G2 X210.081 Y120.662 I-1.454 J-0.637 F3048
G1 X210.173 Y120.38 F3048
G2 X210.204 Y120.274 I-1.509 J-0.492 F3048
G1 X210.279 Y119.975 F3048
G2 X210.327 Y119.589 I-1.54 J-0.386 F3048
G1 Y119.261 F3048
G2 X210.222 Y118.695 I-1.588 F3048
G1 X210.132 Y118.459 F3048
G2 X210.103 Y118.388 I-1.483 J0.566 F3048
G1 X210.004 Y118.162 F3048
G2 X209.939 Y118.031 I-1.454 J0.637 F3048
G1 X209.824 Y117.823 F3048
G2 X209.73 Y117.672 I-1.389 J0.768 F3048
G1 X209.664 Y117.579 F3048
G2 X209.566 Y117.456 I-1.295 J0.919 F3048
G1 X209.492 Y117.371 F3048
G2 X209.374 Y117.249 I-1.197 J1.042 F3048
G1 X209.292 Y117.173 F3048
G2 X209.129 Y117.04 I-1.079 J1.164 F3048
G1 X209.037 Y116.975 F3048
G2 X208.903 Y116.89 I-0.916 J1.297 F3048
G1 X208.804 Y116.834 F3048
G2 X208.66 Y116.763 I-0.782 J1.382 F3048
G1 X208.553 Y116.716 F3048
G2 X208.437 Y116.67 I-0.638 J1.453 F3048
G1 X208.21 Y116.591 F3048
G2 X208.111 Y116.56 I-0.522 J1.499 F3048
G1 X207.872 Y116.494 F3048
G2 X207.449 Y116.437 I-0.423 J1.53 F3048
G1 X199.42 F3048
G2 X197.833 Y118.024 J1.588 F3048
G1 Y127.355 F3048
G2 X198.293 Y128.473 I1.587 F3048
( MOVEMENT_CUTTING)
( Safe G1 --> G0)
G0 Z3 F300
( Safe G1 --> G0)
X118.074 Y37.892 F7500
( MOVEMENT_PLUNGE)
G1 Z0.635 F339
Z-1 F339
( MOVEMENT_FINISH_CUTTING)
X117.88 Y38.063 F3048
X117.602 Y38.297 F3048
X117.328 Y38.518 F3048
X117.062 Y38.718 F3048
X116.801 Y38.897 F3048
X116.547 Y39.052 F3048
X116.299 Y39.185 F3048
X116.05 Y39.296 F3048
X115.786 Y39.392 F3048
X115.497 Y39.478 F3048
X115.187 Y39.554 F3048
X114.853 Y39.622 F3048
X114.503 Y39.683 F3048
X113.848 Y39.781 F3048
X107.137 F3048
Y28.703 F3048
Y26.956 F3048
X113.854 F3048
X114.444 Y27.039 F3048
X115.092 Y27.153 F3048
X115.369 Y27.217 F3048
X115.636 Y27.291 F3048
X115.881 Y27.374 F3048
X116.115 Y27.47 F3048
X116.348 Y27.584 F3048
X116.587 Y27.718 F3048
X116.833 Y27.872 F3048
X117.079 Y28.04 F3048
X117.619 Y28.442 F3048
X118.043 Y28.778 F3048
X118.399 Y29.213 F3048
X118.822 Y29.762 F3048
X118.998 Y30.013 F3048
X119.161 Y30.266 F3048
X119.304 Y30.511 F3048
X119.425 Y30.75 F3048
X119.528 Y30.991 F3048
X119.616 Y31.24 F3048
X119.694 Y31.514 F3048
X119.765 Y31.809 F3048
X119.826 Y32.124 F3048
X119.883 Y32.456 F3048
X119.974 Y33.069 F3048
Y33.678 F3048
X119.899 Y34.229 F3048
X119.795 Y34.838 F3048
X119.738 Y35.1 F3048
X119.671 Y35.353 F3048
X119.595 Y35.588 F3048
X119.509 Y35.809 F3048
X119.407 Y36.031 F3048
X119.285 Y36.262 F3048
X119.146 Y36.5 F3048
X118.997 Y36.736 F3048
X118.636 Y37.255 F3048
X118.34 Y37.657 F3048
X118.074 Y37.892 F3048
( MOVEMENT_CUTTING)
( Safe G1 --> G0)
G0 Z3 F300
( Safe G1 --> G0)
X117.796 Y37.938 F7500
( MOVEMENT_PLUNGE)
G1 Z0.635 F339
Z-1 F339
( MOVEMENT_FINISH_CUTTING)
X118.043 Y37.717 F3048
G2 X118.134 Y37.628 I-1.058 J-1.184 F3048
G1 X118.358 Y37.393 F3048
G2 X118.452 Y37.286 I-1.149 J-1.095 F3048
G1 X118.652 Y37.034 F3048
G2 X118.751 Y36.894 I-1.243 J-0.988 F3048
G1 X118.922 Y36.624 F3048
G2 X119.003 Y36.479 I-1.342 J-0.848 F3048
G1 X119.146 Y36.19 F3048
G2 X119.202 Y36.063 I-1.423 J-0.703 F3048
G1 X119.321 Y35.757 F3048
G2 X119.358 Y35.652 I-1.479 J-0.576 F3048
G1 X119.457 Y35.333 F3048
G2 X119.481 Y35.246 I-1.516 J-0.471 F3048
G1 X119.563 Y34.917 F3048
G2 X119.576 Y34.86 I-1.54 J-0.384 F3048
G1 X119.647 Y34.523 F3048
G2 X119.658 Y34.471 I-1.553 J-0.327 F3048
G1 X119.779 Y33.782 F3048
G2 X119.802 Y33.507 I-1.564 J-0.275 F3048
G1 Y33.23 F3048
G2 X119.798 Y33.112 I-1.588 F3048
G1 X119.767 Y32.697 F3048
G2 X119.761 Y32.631 I-1.583 J0.118 F3048
G1 X119.737 Y32.426 F3048
G2 X119.726 Y32.348 I-1.577 J0.184 F3048
G1 X119.692 Y32.145 F3048
G2 X119.668 Y32.03 I-1.566 J0.261 F3048
G1 X119.57 Y31.628 F3048
G2 X119.547 Y31.542 I-1.542 J0.376 F3048
G1 X119.426 Y31.144 F3048
G2 X119.254 Y30.765 I-1.519 J0.462 F3048
G1 X118.882 Y30.169 F3048
G2 X118.858 Y30.131 I-1.347 J0.84 F3048
G1 X118.666 Y29.842 F3048
G2 X118.632 Y29.793 I-1.323 J0.878 F3048
G1 X118.432 Y29.515 F3048
G2 X118.388 Y29.456 I-1.289 J0.926 F3048
G1 X118.179 Y29.192 F3048
G2 X118.118 Y29.119 I-1.245 J0.985 F3048
G1 X117.898 Y28.873 F3048
G2 X117.811 Y28.783 I-1.184 J1.058 F3048
G1 X117.576 Y28.559 F3048
G2 X117.464 Y28.462 I-1.097 J1.148 F3048
G1 X117.212 Y28.262 F3048
G2 X117.073 Y28.164 I-0.985 J1.245 F3048
G1 X116.802 Y27.993 F3048
G2 X116.659 Y27.913 I-0.846 J1.343 F3048
G1 X116.37 Y27.771 F3048
G2 X116.242 Y27.714 I-0.703 J1.423 F3048
G1 X115.937 Y27.596 F3048
G2 X115.831 Y27.559 I-0.575 J1.48 F3048
G1 X115.512 Y27.46 F3048
G2 X115.429 Y27.437 I-0.469 J1.517 F3048
G1 X115.1 Y27.354 F3048
G2 X115.038 Y27.34 I-0.386 J1.54 F3048
G1 X114.7 Y27.27 F3048
G2 X114.651 Y27.26 I-0.324 J1.554 F3048
G1 X113.963 Y27.139 F3048
G2 X113.688 Y27.115 I-0.275 J1.564 F3048
G1 X108.896 F3048
G2 X107.309 Y28.703 J1.587 F3048
G1 Y38.034 F3048
G2 X108.896 Y39.622 I1.588 F3048
G1 X113.688 F3048
G2 X113.808 Y39.617 J-1.587 F3048
G1 X114.222 Y39.586 F3048
G2 X114.286 Y39.58 I-0.12 J-1.583 F3048
G1 X114.491 Y39.556 F3048
G2 X114.567 Y39.545 I-0.184 J-1.577 F3048
G1 X114.771 Y39.511 F3048
G2 X114.889 Y39.487 I-0.26 J-1.566 F3048
G1 X115.29 Y39.389 F3048
G2 X115.375 Y39.366 I-0.378 J-1.542 F3048
G1 X115.772 Y39.245 F3048
G2 X116.149 Y39.073 I-0.463 J-1.519 F3048
G1 X116.746 Y38.701 F3048
G2 X116.785 Y38.676 I-0.84 J-1.347 F3048
G1 X117.074 Y38.484 F3048
G2 X117.117 Y38.454 I-0.879 J-1.322 F3048
G1 X117.396 Y38.255 F3048
G2 X117.458 Y38.208 I-0.922 J-1.292 F3048
G1 X117.722 Y37.999 F3048
G2 X117.796 Y37.938 I-0.984 J-1.245 F3048
( MOVEMENT_CUTTING)
( Safe G1 --> G0)
G0 Z3 F300
( Safe G1 --> G0)
X33.448 Y128.311 F7500
( MOVEMENT_PLUNGE)
G1 Z0.635 F339
Z-1 F339
( MOVEMENT_FINISH_CUTTING)
X32.921 Y128.355 F3048
G2 X32.823 Y128.366 I0.132 J1.582 F3048
G1 X32.564 Y128.404 F3048
G2 X32.459 Y128.423 I0.23 J1.571 F3048
G1 X32.204 Y128.478 F3048
G2 X32.07 Y128.513 I0.335 J1.552 F3048
G1 X31.821 Y128.59 F3048
G2 X31.715 Y128.627 I0.469 J1.517 F3048
G1 X31.471 Y128.722 F3048
G2 X31.388 Y128.757 I0.575 J1.48 F3048
G1 X30.907 Y128.976 F3048
G2 X30.629 Y129.139 I0.658 J1.445 F3048
G1 X30.112 Y129.516 F3048
G2 X30.079 Y129.541 I0.936 J1.282 F3048
G1 X29.829 Y129.734 F3048
G2 X29.79 Y129.765 I0.97 J1.257 F3048
G1 X29.549 Y129.963 F3048
G2 X29.494 Y130.011 I1.008 J1.226 F3048
G1 X29.265 Y130.217 F3048
G2 X29.197 Y130.282 I1.064 J1.178 F3048
G1 X28.985 Y130.498 F3048
G2 X28.907 Y130.584 I1.132 J1.113 F3048
G1 X28.713 Y130.812 F3048
G2 X28.632 Y130.917 I1.21 J1.027 F3048
G1 X28.46 Y131.157 F3048
G2 X28.374 Y131.291 I1.292 J0.922 F3048
G1 X28.228 Y131.547 F3048
G2 X28.16 Y131.681 I1.378 J0.788 F3048
G1 X28.037 Y131.951 F3048
G2 X27.989 Y132.072 I1.446 J0.654 F3048
G1 X27.887 Y132.356 F3048
G2 X27.856 Y132.452 I1.495 J0.533 F3048
G1 X27.773 Y132.745 F3048
G2 X27.752 Y132.824 I1.526 J0.437 F3048
G1 X27.682 Y133.126 F3048
G2 X27.67 Y133.184 I1.547 J0.358 F3048
G1 X27.611 Y133.493 F3048
G2 X27.602 Y133.539 I1.559 J0.3 F3048
G1 X27.501 Y134.166 F3048
G2 X27.48 Y134.42 I1.567 J0.254 F3048
G1 Y134.698 F3048
G2 X27.485 Y134.814 I1.587 F3048
G1 X27.515 Y135.228 F3048
G2 X27.521 Y135.291 I1.583 J-0.116 F3048
G1 X27.544 Y135.497 F3048
G2 X27.555 Y135.574 I1.577 J-0.179 F3048
G1 X27.588 Y135.778 F3048
G2 X27.612 Y135.897 I1.567 J-0.256 F3048
G1 X27.71 Y136.299 F3048
G2 X27.733 Y136.383 I1.543 J-0.375 F3048
G1 X27.853 Y136.782 F3048
G2 X28.026 Y137.163 I1.52 J-0.459 F3048
G1 X28.397 Y137.758 F3048
G2 X28.42 Y137.795 I1.347 J-0.84 F3048
G1 X28.612 Y138.084 F3048
G2 X28.644 Y138.13 I1.324 J-0.877 F3048
G1 X28.842 Y138.408 F3048
G2 X28.887 Y138.468 I1.292 J-0.923 F3048
G1 X29.096 Y138.732 F3048
G2 X29.159 Y138.807 I1.247 J-0.983 F3048
G1 X29.379 Y139.053 F3048
G2 X29.465 Y139.142 I1.183 J-1.058 F3048
G1 X29.699 Y139.366 F3048
G2 X29.807 Y139.461 I1.097 J-1.147 F3048
G1 X30.058 Y139.661 F3048
G2 X30.201 Y139.762 I0.989 J-1.242 F3048
G1 X30.471 Y139.932 F3048
G2 X30.612 Y140.011 I0.846 J-1.343 F3048
G1 X30.901 Y140.154 F3048
G2 X31.028 Y140.211 I0.705 J-1.422 F3048
G1 X31.333 Y140.33 F3048
G2 X31.438 Y140.367 I0.578 J-1.479 F3048
G1 X31.756 Y140.466 F3048
G2 X31.84 Y140.489 I0.472 J-1.516 F3048
G1 X32.168 Y140.572 F3048
G2 X32.234 Y140.587 I0.389 J-1.539 F3048
G1 X32.57 Y140.657 F3048
G2 X32.618 Y140.666 I0.323 J-1.554 F3048
G1 X33.304 Y140.787 F3048
G2 X33.58 Y140.811 I0.276 J-1.563 F3048
G1 X40.141 F3048
Y140.971 F3048
X33.58 F3048
X33.414 F3048
X32.827 Y140.889 F3048
X32.179 Y140.774 F3048
X31.903 Y140.711 F3048
X31.638 Y140.637 F3048
X31.392 Y140.553 F3048
X31.159 Y140.457 F3048
X30.927 Y140.344 F3048
X30.688 Y140.209 F3048
X30.443 Y140.055 F3048
X30.198 Y139.888 F3048
X29.658 Y139.485 F3048
X29.236 Y139.151 F3048
X28.88 Y138.715 F3048
X28.458 Y138.166 F3048
X28.282 Y137.915 F3048
X28.119 Y137.662 F3048
X27.977 Y137.418 F3048
X27.856 Y137.178 F3048
X27.754 Y136.939 F3048
X27.666 Y136.687 F3048
X27.588 Y136.414 F3048
X27.518 Y136.119 F3048
X27.455 Y135.803 F3048
X27.399 Y135.473 F3048
X27.309 Y134.859 F3048
Y134.249 F3048
X27.384 Y133.697 F3048
X27.487 Y133.084 F3048
X27.544 Y132.822 F3048
X27.61 Y132.569 F3048
X27.685 Y132.335 F3048
X27.772 Y132.113 F3048
X27.875 Y131.888 F3048
X27.996 Y131.658 F3048
X28.134 Y131.422 F3048
X28.285 Y131.183 F3048
X28.644 Y130.663 F3048
X28.938 Y130.262 F3048
X29.398 Y129.857 F3048
X29.675 Y129.624 F3048
X29.948 Y129.405 F3048
X30.215 Y129.205 F3048
X30.474 Y129.027 F3048
X30.727 Y128.872 F3048
X30.975 Y128.74 F3048
X31.224 Y128.628 F3048
X31.485 Y128.534 F3048
X31.774 Y128.448 F3048
X32.085 Y128.372 F3048
X32.417 Y128.304 F3048
X32.767 Y128.243 F3048
X33.42 Y128.146 F3048
X40.141 F3048
Y128.305 F3048
X33.58 F3048
G2 X33.448 Y128.311 J1.588 F3048
( MOVEMENT_CUTTING)
( Safe G1 --> G0)
G0 Z3 F300
( Safe G1 --> G0)
X106.186 Y227.281 F7500
( MOVEMENT_PLUNGE)
G1 Z0.635 F339
Z-1 F339
( MOVEMENT_FINISH_CUTTING)
G2 X107.097 Y227.568 I0.911 J-1.3 F3048
G1 X116.416 F3048
G2 X118.004 Y225.981 J-1.587 F3048
G1 Y221.242 F3048
X118.174 F3048
Y227.964 F3048
X118.1 Y228.514 F3048
X117.996 Y229.124 F3048
X117.939 Y229.385 F3048
X117.872 Y229.638 F3048
X117.796 Y229.873 F3048
X117.71 Y230.094 F3048
X117.608 Y230.316 F3048
X117.486 Y230.547 F3048
X117.348 Y230.783 F3048
X117.197 Y231.02 F3048
X116.836 Y231.541 F3048
X116.541 Y231.943 F3048
X116.081 Y232.348 F3048
X115.804 Y232.582 F3048
X115.53 Y232.801 F3048
X115.262 Y233.002 F3048
X115 Y233.182 F3048
X114.747 Y233.338 F3048
X114.501 Y233.47 F3048
X114.252 Y233.58 F3048
X113.985 Y233.678 F3048
X113.698 Y233.764 F3048
X113.386 Y233.84 F3048
X113.055 Y233.908 F3048
X112.705 Y233.968 F3048
X112.047 Y234.066 F3048
X111.442 F3048
X110.89 Y233.992 F3048
X110.277 Y233.887 F3048
X110.013 Y233.83 F3048
X109.761 Y233.764 F3048
X109.529 Y233.689 F3048
X109.305 Y233.601 F3048
X109.081 Y233.498 F3048
X108.851 Y233.378 F3048
X108.614 Y233.239 F3048
X108.378 Y233.089 F3048
X107.856 Y232.727 F3048
X107.454 Y232.433 F3048
X107.05 Y231.972 F3048
X106.816 Y231.695 F3048
X106.597 Y231.422 F3048
X106.396 Y231.155 F3048
X106.219 Y230.897 F3048
X106.064 Y230.644 F3048
X105.932 Y230.397 F3048
X105.821 Y230.148 F3048
X105.725 Y229.884 F3048
X105.64 Y229.597 F3048
X105.563 Y229.286 F3048
X105.496 Y228.954 F3048
X105.435 Y228.605 F3048
X105.339 Y227.953 F3048
Y221.242 F3048
X105.509 F3048
Y225.981 F3048
G2 X106.186 Y227.281 I1.588 F3048
( MOVEMENT_CUTTING)
( Safe G1 --> G0)
G0 Z3 F300
( Safe G1 --> G0)
X106.233 Y228.125 F7500
( MOVEMENT_PLUNGE)
G1 Z0.635 F339
Z-1 F339
( MOVEMENT_FINISH_CUTTING)
G2 X106.247 Y230.517 I1.051 J1.19 F3048
G1 X106.395 Y230.764 F3048
G2 X106.42 Y230.805 I1.363 J-0.813 F3048
G1 X106.609 Y231.101 F3048
G2 X106.639 Y231.147 I1.338 J-0.854 F3048
G1 X106.835 Y231.432 F3048
G2 X106.881 Y231.496 I1.308 J-0.9 F3048
G1 X107.088 Y231.767 F3048
G2 X107.149 Y231.842 I1.262 J-0.964 F3048
G1 X107.367 Y232.094 F3048
G2 X107.453 Y232.185 I1.201 J-1.039 F3048
G1 X107.687 Y232.416 F3048
G2 X107.801 Y232.518 I1.115 J-1.13 F3048
G1 X108.052 Y232.722 F3048
G2 X108.188 Y232.821 I1.001 J-1.232 F3048
G1 X108.459 Y232.997 F3048
G2 X108.608 Y233.083 I0.865 J-1.331 F3048
G1 X108.899 Y233.23 F3048
G2 X109.029 Y233.288 I0.716 J-1.417 F3048
G1 X109.336 Y233.41 F3048
G2 X109.446 Y233.449 I0.586 J-1.475 F3048
G1 X109.767 Y233.55 F3048
G2 X109.846 Y233.573 I0.476 J-1.514 F3048
G1 X110.179 Y233.659 F3048
G2 X110.247 Y233.675 I0.397 J-1.537 F3048
G1 X110.587 Y233.747 F3048
G2 X110.635 Y233.757 I0.329 J-1.553 F3048
G1 X111.331 Y233.882 F3048
G2 X111.612 Y233.906 I0.281 J-1.563 F3048
G1 X111.889 F3048
G2 X111.994 Y233.903 J-1.587 F3048
G1 X112.462 Y233.872 F3048
G2 X112.541 Y233.865 I-0.105 J-1.584 F3048
G1 X112.772 Y233.838 F3048
G2 X112.876 Y233.822 I-0.184 J-1.577 F3048
G1 X113.104 Y233.78 F3048
G2 X113.22 Y233.754 I-0.288 J-1.561 F3048
G1 X113.444 Y233.695 F3048
G2 X113.546 Y233.665 I-0.404 J-1.535 F3048
G1 X113.766 Y233.591 F3048
G2 X113.84 Y233.564 I-0.506 J-1.505 F3048
G1 X114.276 Y233.393 F3048
G2 X114.5 Y233.284 I-0.58 J-1.478 F3048
G1 X114.907 Y233.045 F3048
G2 X114.948 Y233.02 I-0.804 J-1.369 F3048
G1 X115.344 Y232.771 F3048
G2 X115.432 Y232.711 I-0.845 J-1.344 F3048
G1 X115.805 Y232.44 F3048
G2 X115.889 Y232.375 I-0.933 J-1.284 F3048
G1 X116.064 Y232.229 F3048
G2 X116.138 Y232.164 I-1.017 J-1.219 F3048
G1 X116.303 Y232.008 F3048
G2 X116.379 Y231.93 I-1.091 J-1.154 F3048
G1 X116.533 Y231.763 F3048
G2 X116.601 Y231.685 I-1.167 J-1.076 F3048
G1 X116.744 Y231.508 F3048
G2 X116.797 Y231.438 I-1.235 J-0.998 F3048
G1 X116.931 Y231.252 F3048
G2 X116.969 Y231.197 I-1.288 J-0.928 F3048
G1 X117.096 Y231.004 F3048
G2 X117.141 Y230.932 I-1.326 J-0.873 F3048
G1 X117.376 Y230.53 F3048
G2 X117.401 Y230.484 I-1.371 J-0.801 F3048
G1 X117.625 Y230.07 F3048
G2 X116.229 Y227.727 I-1.396 J-0.755 F3048
G1 X107.284 F3048
G2 X106.233 Y228.125 J1.588 F3048
( MOVEMENT_CUTTING)
( Safe G1 --> G0)
G0 Z3 F300
( *** SECTION end ***)
()
(When using Fusion for Personal Use, the feedrate of rapid)
(moves is reduced to match the feedrate of cutting moves,)
(which can increase machining time. Unrestricted rapid moves)
(are available with a Fusion Subscription.)
( *** SECTION begin ***)
(   X Min: 4.412 - X Max: 229.484)
(   Y Min: 4.412 - Y Max: 260.792)
(   Z Min: -12.438 - Z Max: 3)
( SafeZ retract level: 3)
( boxFrontTabs - Milling - Tool: 2 -  flat end mill)
( COMMAND_START_SPINDLE)
( COMMAND_SPINDLE_CLOCKWISE)
( >>> Spindle Speed 16000)
M3 S16000
( COMMAND_COOLANT_ON)
( >>> WARNING: No matching Coolant channel : Flood requested)
( MOVEMENT_PLUNGE)
( First G1 --> G0)
Z3 F300
X229.484 Y214.735 F7500
G1 Z0.635 F339
Z0.2 F339
( MOVEMENT_RAMP)
Y164.602 Z-1.551 F3048
X229.482 Y164.544 Z-1.553 F3048
X229.479 Y164.486 Z-1.555 F3048
( MOVEMENT_FINISH_CUTTING)
G2 X227.896 Y163.014 I-1.583 J0.116 F3048
G1 X218.203 F3048
G2 X217.089 Y163.471 J1.588 F3048
X217.546 Y162.357 I-1.131 J-1.114 F3048
G1 Y102.847 F3048
G2 X217.089 Y101.733 I-1.588 F3048
X218.203 Y102.189 I1.114 J-1.131 F3048
G1 X227.896 F3048
G2 X229.484 Y100.602 J-1.588 F3048
G1 Y36.602 F3048
G2 X227.896 Y35.014 I-1.588 F3048
G1 X218.203 F3048
G2 X217.084 Y35.475 J1.588 F3048
X217.546 Y34.357 I-1.126 J-1.119 F3048
G1 Y6 F3048
G2 X215.958 Y4.412 I-1.588 F3048
G1 X191.948 F3048
G2 X190.361 Y6 J1.588 F3048
G1 Y15.693 F3048
G2 X190.822 Y16.811 I1.587 F3048
X189.703 Y16.351 I-1.119 J1.127 F3048
G1 X144.193 F3048
G2 X143.074 Y16.811 J1.587 F3048
X143.536 Y15.693 I-1.126 J-1.119 F3048
G1 Y6 F3048
G2 X141.948 Y4.412 I-1.588 F3048
G1 X91.948 F3048
G2 X90.36 Y6 J1.588 F3048
G1 Y15.693 F3048
G2 X90.826 Y16.815 I1.588 F3048
X89.703 Y16.351 I-1.123 J1.123 F3048
G1 X44.193 F3048
G2 X43.071 Y16.816 J1.587 F3048
X43.535 Y15.693 I-1.123 J-1.123 F3048
G1 Y6 F3048
G2 X41.948 Y4.412 I-1.587 F3048
G1 X17.938 F3048
G2 X16.351 Y6 J1.588 F3048
G1 Y34.357 F3048
G2 X16.816 Y35.479 I1.587 F3048
X15.693 Y35.014 I-1.123 J1.123 F3048
G1 X6 F3048
G2 X4.412 Y36.602 J1.588 F3048
G1 Y100.602 F3048
G2 X6 Y102.189 I1.588 F3048
G1 X15.693 F3048
G2 X16.811 Y101.728 J-1.588 F3048
X16.351 Y102.847 I1.127 J1.119 F3048
G1 Y162.357 F3048
G2 X16.811 Y163.476 I1.587 F3048
X15.693 Y163.014 I-1.119 J1.126 F3048
G1 X6 F3048
G2 X4.412 Y164.602 J1.588 F3048
G1 Y228.602 F3048
G2 X6 Y230.189 I1.588 F3048
G1 X15.693 F3048
G2 X16.811 Y229.728 J-1.587 F3048
X16.351 Y230.847 I1.127 J1.119 F3048
G1 Y259.204 F3048
G2 X17.938 Y260.792 I1.587 F3048
G1 X41.948 F3048
G2 X43.535 Y259.204 J-1.587 F3048
G1 Y249.511 F3048
G2 X43.075 Y248.392 I-1.587 F3048
X44.193 Y248.854 I1.119 J-1.126 F3048
G1 X89.703 F3048
G2 X90.821 Y248.392 J-1.587 F3048
X90.36 Y249.511 I1.127 J1.119 F3048
G1 Y259.204 F3048
G2 X91.948 Y260.792 I1.588 F3048
G1 X141.948 F3048
G2 X143.536 Y259.204 J-1.587 F3048
G1 Y249.511 F3048
G2 X143.079 Y248.397 I-1.588 F3048
X144.193 Y248.854 I1.114 J-1.131 F3048
G1 X189.703 F3048
G2 X190.817 Y248.397 J-1.587 F3048
X190.361 Y249.511 I1.131 J1.114 F3048
G1 Y259.204 F3048
G2 X191.948 Y260.792 I1.587 F3048
G1 X215.958 F3048
G2 X217.546 Y259.204 J-1.587 F3048
G1 Y230.847 F3048
G2 X217.089 Y229.733 I-1.588 F3048
X218.203 Y230.189 I1.114 J-1.131 F3048
G1 X227.896 F3048
G2 X229.484 Y228.602 J-1.587 F3048
G1 Y164.602 F3048
G2 X227.896 Y163.014 I-1.588 F3048
G1 X218.203 F3048
G2 X217.089 Y163.471 J1.588 F3048
X217.546 Y162.357 I-1.131 J-1.114 F3048
G1 Y102.847 F3048
G2 X217.089 Y101.733 I-1.588 F3048
X218.203 Y102.189 I1.114 J-1.131 F3048
G1 X227.896 F3048
G2 X229.484 Y100.602 J-1.588 F3048
G1 Y36.602 F3048
G2 X227.896 Y35.014 I-1.588 F3048
G1 X218.203 F3048
G2 X217.084 Y35.475 J1.588 F3048
X217.546 Y34.357 I-1.126 J-1.119 F3048
G1 Y6 F3048
G2 X215.958 Y4.412 I-1.588 F3048
G1 X191.948 F3048
G2 X190.361 Y6 J1.588 F3048
G1 Y15.693 F3048
G2 X190.822 Y16.811 I1.587 F3048
X189.703 Y16.351 I-1.119 J1.127 F3048
G1 X144.193 F3048
G2 X143.074 Y16.811 J1.587 F3048
X143.536 Y15.693 I-1.126 J-1.119 F3048
G1 Y6 F3048
G2 X141.948 Y4.412 I-1.588 F3048
G1 X91.948 F3048
G2 X90.36 Y6 J1.588 F3048
G1 Y15.693 F3048
G2 X90.826 Y16.815 I1.588 F3048
X89.703 Y16.351 I-1.123 J1.123 F3048
G1 X44.193 F3048
G2 X43.071 Y16.816 J1.587 F3048
X43.535 Y15.693 I-1.123 J-1.123 F3048
G1 Y6 F3048
G2 X41.948 Y4.412 I-1.587 F3048
G1 X17.938 F3048
G2 X16.351 Y6 J1.588 F3048
G1 Y34.357 F3048
G2 X16.816 Y35.479 I1.587 F3048
X15.693 Y35.014 I-1.123 J1.123 F3048
G1 X6 F3048
G2 X4.412 Y36.602 J1.588 F3048
G1 Y100.602 F3048
G2 X6 Y102.189 I1.588 F3048
G1 X15.693 F3048
G2 X16.811 Y101.728 J-1.588 F3048
X16.351 Y102.847 I1.127 J1.119 F3048
G1 Y162.357 F3048
G2 X16.811 Y163.476 I1.587 F3048
X15.693 Y163.014 I-1.119 J1.126 F3048
G1 X6 F3048
G2 X4.412 Y164.602 J1.588 F3048
G1 Y228.602 F3048
G2 X6 Y230.189 I1.588 F3048
G1 X15.693 F3048
G2 X16.811 Y229.728 J-1.587 F3048
X16.351 Y230.847 I1.127 J1.119 F3048
G1 Y259.204 F3048
G2 X17.938 Y260.792 I1.587 F3048
G1 X41.948 F3048
G2 X43.535 Y259.204 J-1.587 F3048
G1 Y249.511 F3048
G2 X43.075 Y248.392 I-1.587 F3048
X44.193 Y248.854 I1.119 J-1.126 F3048
G1 X89.703 F3048
G2 X90.821 Y248.392 J-1.587 F3048
X90.36 Y249.511 I1.127 J1.119 F3048
G1 Y259.204 F3048
G2 X91.948 Y260.792 I1.588 F3048
G1 X141.948 F3048
G2 X143.536 Y259.204 J-1.587 F3048
G1 Y249.511 F3048
G2 X143.079 Y248.397 I-1.588 F3048
X144.193 Y248.854 I1.114 J-1.131 F3048
G1 X189.703 F3048
G2 X190.817 Y248.397 J-1.587 F3048
X190.361 Y249.511 I1.131 J1.114 F3048
G1 Y259.204 F3048
G2 X191.948 Y260.792 I1.587 F3048
G1 X215.958 F3048
G2 X217.546 Y259.204 J-1.587 F3048
G1 Y230.847 F3048
G2 X217.089 Y229.733 I-1.588 F3048
X218.203 Y230.189 I1.114 J-1.131 F3048
G1 X227.896 F3048
G2 X229.484 Y228.602 J-1.587 F3048
G1 Y164.602 F3048
G2 X229.479 Y164.486 I-1.588 F3048
( MOVEMENT_RAMP)
G1 X229.468 Y164.378 Z-1.557 F3048
X229.449 Y164.272 Z-1.559 F3048
X229.423 Y164.167 Z-1.561 F3048
X229.39 Y164.064 Z-1.563 F3048
X229.35 Y163.964 Z-1.564 F3048
X229.303 Y163.867 Z-1.566 F3048
X229.25 Y163.773 Z-1.568 F3048
X229.19 Y163.682 Z-1.57 F3048
X229.124 Y163.597 Z-1.572 F3048
X229.053 Y163.515 Z-1.574 F3048
X228.977 Y163.439 Z-1.576 F3048
X228.895 Y163.368 Z-1.578 F3048
X228.809 Y163.303 Z-1.58 F3048
X228.718 Y163.244 Z-1.582 F3048
X228.624 Y163.191 Z-1.584 F3048
X228.526 Y163.145 Z-1.586 F3048
X228.426 Y163.106 Z-1.588 F3048
X228.323 Y163.073 Z-1.59 F3048
X228.218 Y163.047 Z-1.592 F3048
X228.111 Y163.029 Z-1.594 F3048
X228.004 Y163.018 Z-1.596 F3048
X227.896 Y163.014 Z-1.598 F3048
X218.203 Z-1.772 F3048
X218.091 Y163.018 Z-1.774 F3048
X217.979 Y163.03 Z-1.776 F3048
X217.869 Y163.05 Z-1.778 F3048
X217.76 Y163.078 Z-1.78 F3048
X217.653 Y163.113 Z-1.782 F3048
X217.549 Y163.155 Z-1.784 F3048
X217.449 Y163.205 Z-1.786 F3048
X217.352 Y163.262 Z-1.788 F3048
X217.26 Y163.325 Z-1.79 F3048
X217.172 Y163.395 Z-1.792 F3048
X217.089 Y163.471 Z-1.794 F3048
X217.165 Y163.388 Z-1.796 F3048
X217.235 Y163.3 Z-1.798 F3048
X217.298 Y163.208 Z-1.8 F3048
X217.355 Y163.111 Z-1.802 F3048
X217.405 Y163.011 Z-1.804 F3048
X217.447 Y162.907 Z-1.806 F3048
X217.482 Y162.8 Z-1.808 F3048
X217.51 Y162.691 Z-1.81 F3048
X217.53 Y162.581 Z-1.812 F3048
X217.542 Y162.469 Z-1.814 F3048
X217.546 Y162.357 Z-1.816 F3048
Y102.847 Z-2.888 F3048
X217.542 Y102.735 Z-2.89 F3048
X217.53 Y102.623 Z-2.892 F3048
X217.51 Y102.513 Z-2.894 F3048
X217.482 Y102.404 Z-2.896 F3048
X217.447 Y102.297 Z-2.898 F3048
X217.405 Y102.193 Z-2.9 F3048
X217.355 Y102.093 Z-2.902 F3048
X217.298 Y101.996 Z-2.904 F3048
X217.235 Y101.904 Z-2.906 F3048
X217.165 Y101.816 Z-2.908 F3048
X217.089 Y101.733 Z-2.91 F3048
X217.172 Y101.809 Z-2.912 F3048
X217.26 Y101.879 Z-2.914 F3048
X217.352 Y101.942 Z-2.916 F3048
X217.449 Y101.999 Z-2.918 F3048
X217.549 Y102.049 Z-2.92 F3048
X217.653 Y102.091 Z-2.922 F3048
X217.76 Y102.126 Z-2.924 F3048
X217.869 Y102.154 Z-2.926 F3048
X217.979 Y102.174 Z-2.928 F3048
X218.091 Y102.186 Z-2.93 F3048
X218.203 Y102.189 Z-2.932 F3048
X227.896 Z-3.106 F3048
X227.98 Y102.187 Z-3.108 F3048
X228.063 Y102.181 Z-3.109 F3048
( MOVEMENT_FINISH_CUTTING)
G2 X229.484 Y100.602 I-0.167 J-1.579 F3048
G1 Y36.602 F3048
G2 X227.896 Y35.014 I-1.588 F3048
G1 X218.203 F3048
G2 X217.084 Y35.475 J1.588 F3048
X217.546 Y34.357 I-1.126 J-1.119 F3048
G1 Y6 F3048
G2 X215.958 Y4.412 I-1.588 F3048
G1 X191.948 F3048
G2 X190.361 Y6 J1.588 F3048
G1 Y15.693 F3048
G2 X190.822 Y16.811 I1.587 F3048
X189.703 Y16.351 I-1.119 J1.127 F3048
G1 X144.193 F3048
G2 X143.074 Y16.811 J1.587 F3048
X143.536 Y15.693 I-1.126 J-1.119 F3048
G1 Y6 F3048
G2 X141.948 Y4.412 I-1.588 F3048
G1 X91.948 F3048
G2 X90.36 Y6 J1.588 F3048
G1 Y15.693 F3048
G2 X90.826 Y16.815 I1.588 F3048
X89.703 Y16.351 I-1.123 J1.123 F3048
G1 X44.193 F3048
G2 X43.071 Y16.816 J1.587 F3048
X43.535 Y15.693 I-1.123 J-1.123 F3048
G1 Y6 F3048
G2 X41.948 Y4.412 I-1.587 F3048
G1 X17.938 F3048
G2 X16.351 Y6 J1.588 F3048
G1 Y34.357 F3048
G2 X16.816 Y35.479 I1.587 F3048
X15.693 Y35.014 I-1.123 J1.123 F3048
G1 X6 F3048
G2 X4.412 Y36.602 J1.588 F3048
G1 Y100.602 F3048
G2 X6 Y102.189 I1.588 F3048
G1 X15.693 F3048
G2 X16.811 Y101.728 J-1.588 F3048
X16.351 Y102.847 I1.127 J1.119 F3048
G1 Y162.357 F3048
G2 X16.811 Y163.476 I1.587 F3048
X15.693 Y163.014 I-1.119 J1.126 F3048
G1 X6 F3048
G2 X4.412 Y164.602 J1.588 F3048
G1 Y228.602 F3048
G2 X6 Y230.189 I1.588 F3048
G1 X15.693 F3048
G2 X16.811 Y229.728 J-1.587 F3048
X16.351 Y230.847 I1.127 J1.119 F3048
G1 Y259.204 F3048
G2 X17.938 Y260.792 I1.587 F3048
G1 X41.948 F3048
G2 X43.535 Y259.204 J-1.587 F3048
G1 Y249.511 F3048
G2 X43.075 Y248.392 I-1.587 F3048
X44.193 Y248.854 I1.119 J-1.126 F3048
G1 X89.703 F3048
G2 X90.821 Y248.392 J-1.587 F3048
X90.36 Y249.511 I1.127 J1.119 F3048
G1 Y259.204 F3048
G2 X91.948 Y260.792 I1.588 F3048
G1 X141.948 F3048
G2 X143.536 Y259.204 J-1.587 F3048
G1 Y249.511 F3048
G2 X143.079 Y248.397 I-1.588 F3048
X144.193 Y248.854 I1.114 J-1.131 F3048
G1 X189.703 F3048
G2 X190.817 Y248.397 J-1.587 F3048
X190.361 Y249.511 I1.131 J1.114 F3048
G1 Y259.204 F3048
G2 X191.948 Y260.792 I1.587 F3048
G1 X215.958 F3048
G2 X217.546 Y259.204 J-1.587 F3048
G1 Y230.847 F3048
G2 X217.089 Y229.733 I-1.588 F3048
X218.203 Y230.189 I1.114 J-1.131 F3048
G1 X227.896 F3048
G2 X229.484 Y228.602 J-1.587 F3048
G1 Y164.602 F3048
G2 X227.896 Y163.014 I-1.588 F3048
G1 X218.203 F3048
G2 X217.089 Y163.471 J1.588 F3048
X217.546 Y162.357 I-1.131 J-1.114 F3048
G1 Y102.847 F3048
G2 X217.089 Y101.733 I-1.588 F3048
X218.203 Y102.189 I1.114 J-1.131 F3048
G1 X227.896 F3048
G2 X229.484 Y100.602 J-1.588 F3048
G1 Y36.602 F3048
G2 X227.896 Y35.014 I-1.588 F3048
G1 X218.203 F3048
G2 X217.084 Y35.475 J1.588 F3048
X217.546 Y34.357 I-1.126 J-1.119 F3048
G1 Y6 F3048
G2 X215.958 Y4.412 I-1.588 F3048
G1 X191.948 F3048
G2 X190.361 Y6 J1.588 F3048
G1 Y15.693 F3048
G2 X190.822 Y16.811 I1.587 F3048
X189.703 Y16.351 I-1.119 J1.127 F3048
G1 X144.193 F3048
G2 X143.074 Y16.811 J1.587 F3048
X143.536 Y15.693 I-1.126 J-1.119 F3048
G1 Y6 F3048
G2 X141.948 Y4.412 I-1.588 F3048
G1 X91.948 F3048
G2 X90.36 Y6 J1.588 F3048
G1 Y15.693 F3048
G2 X90.826 Y16.815 I1.588 F3048
X89.703 Y16.351 I-1.123 J1.123 F3048
G1 X44.193 F3048
G2 X43.071 Y16.816 J1.587 F3048
X43.535 Y15.693 I-1.123 J-1.123 F3048
G1 Y6 F3048
G2 X41.948 Y4.412 I-1.587 F3048
G1 X17.938 F3048
G2 X16.351 Y6 J1.588 F3048
G1 Y34.357 F3048
G2 X16.816 Y35.479 I1.587 F3048
X15.693 Y35.014 I-1.123 J1.123 F3048
G1 X6 F3048
G2 X4.412 Y36.602 J1.588 F3048
G1 Y100.602 F3048
G2 X6 Y102.189 I1.588 F3048
G1 X15.693 F3048
G2 X16.811 Y101.728 J-1.588 F3048
X16.351 Y102.847 I1.127 J1.119 F3048
G1 Y162.357 F3048
G2 X16.811 Y163.476 I1.587 F3048
X15.693 Y163.014 I-1.119 J1.126 F3048
G1 X6 F3048
G2 X4.412 Y164.602 J1.588 F3048
G1 Y228.602 F3048
G2 X6 Y230.189 I1.588 F3048
G1 X15.693 F3048
G2 X16.811 Y229.728 J-1.587 F3048
X16.351 Y230.847 I1.127 J1.119 F3048
G1 Y259.204 F3048
G2 X17.938 Y260.792 I1.587 F3048
G1 X41.948 F3048
G2 X43.535 Y259.204 J-1.587 F3048
G1 Y249.511 F3048
G2 X43.075 Y248.392 I-1.587 F3048
X44.193 Y248.854 I1.119 J-1.126 F3048
G1 X89.703 F3048
G2 X90.821 Y248.392 J-1.587 F3048
X90.36 Y249.511 I1.127 J1.119 F3048
G1 Y259.204 F3048
G2 X91.948 Y260.792 I1.588 F3048
G1 X141.948 F3048
G2 X143.536 Y259.204 J-1.587 F3048
G1 Y249.511 F3048
G2 X143.079 Y248.397 I-1.588 F3048
X144.193 Y248.854 I1.114 J-1.131 F3048
G1 X189.703 F3048
G2 X190.817 Y248.397 J-1.587 F3048
X190.361 Y249.511 I1.131 J1.114 F3048
G1 Y259.204 F3048
G2 X191.948 Y260.792 I1.587 F3048
G1 X215.958 F3048
G2 X217.546 Y259.204 J-1.587 F3048
G1 Y230.847 F3048
G2 X217.089 Y229.733 I-1.588 F3048
X218.203 Y230.189 I1.114 J-1.131 F3048
G1 X227.896 F3048
G2 X229.484 Y228.602 J-1.587 F3048
G1 Y164.602 F3048
G2 X227.896 Y163.014 I-1.588 F3048
G1 X218.203 F3048
G2 X217.089 Y163.471 J1.588 F3048
X217.546 Y162.357 I-1.131 J-1.114 F3048
G1 Y102.847 F3048
G2 X217.089 Y101.733 I-1.588 F3048
X218.203 Y102.189 I1.114 J-1.131 F3048
G1 X227.896 F3048
G2 X228.063 Y102.181 J-1.588 F3048
( MOVEMENT_RAMP)
G1 X228.173 Y102.165 Z-3.111 F3048
X228.281 Y102.142 Z-3.113 F3048
X228.388 Y102.111 Z-3.115 F3048
X228.492 Y102.074 Z-3.117 F3048
X228.593 Y102.028 Z-3.119 F3048
X228.69 Y101.976 Z-3.121 F3048
X228.784 Y101.918 Z-3.123 F3048
X228.874 Y101.853 Z-3.125 F3048
X228.959 Y101.781 Z-3.127 F3048
X229.038 Y101.704 Z-3.129 F3048
X229.112 Y101.622 Z-3.131 F3048
X229.181 Y101.535 Z-3.133 F3048
X229.243 Y101.443 Z-3.135 F3048
X229.298 Y101.347 Z-3.137 F3048
X229.346 Y101.247 Z-3.139 F3048
X229.388 Y101.145 Z-3.141 F3048
X229.422 Y101.039 Z-3.143 F3048
X229.449 Y100.932 Z-3.145 F3048
X229.468 Y100.823 Z-3.147 F3048
X229.48 Y100.713 Z-3.149 F3048
X229.484 Y100.602 Z-3.151 F3048
Y36.602 Z-4.303 F3048
X229.48 Y36.494 Z-4.305 F3048
X229.469 Y36.386 Z-4.307 F3048
X229.45 Y36.279 Z-4.309 F3048
X229.425 Y36.174 Z-4.311 F3048
X229.392 Y36.07 Z-4.313 F3048
X229.352 Y35.97 Z-4.315 F3048
X229.306 Y35.872 Z-4.317 F3048
X229.252 Y35.777 Z-4.319 F3048
X229.193 Y35.687 Z-4.321 F3048
X229.127 Y35.6 Z-4.323 F3048
X229.056 Y35.518 Z-4.325 F3048
X228.98 Y35.442 Z-4.327 F3048
X228.898 Y35.371 Z-4.329 F3048
X228.811 Y35.305 Z-4.331 F3048
X228.721 Y35.246 Z-4.333 F3048
X228.626 Y35.192 Z-4.335 F3048
X228.528 Y35.146 Z-4.336 F3048
X228.428 Y35.106 Z-4.338 F3048
X228.324 Y35.073 Z-4.34 F3048
X228.219 Y35.048 Z-4.342 F3048
X228.112 Y35.029 Z-4.344 F3048
X228.004 Y35.018 Z-4.346 F3048
X227.896 Y35.014 Z-4.348 F3048
X218.203 Z-4.523 F3048
X218.1 Y35.018 Z-4.525 F3048
X217.997 Y35.028 Z-4.526 F3048
X217.895 Y35.045 Z-4.528 F3048
X217.794 Y35.068 Z-4.53 F3048
X217.695 Y35.098 Z-4.532 F3048
X217.598 Y35.134 Z-4.534 F3048
X217.504 Y35.177 Z-4.536 F3048
X217.413 Y35.225 Z-4.538 F3048
X217.325 Y35.28 Z-4.539 F3048
X217.24 Y35.34 Z-4.541 F3048
X217.16 Y35.405 Z-4.543 F3048
X217.084 Y35.475 Z-4.545 F3048
X217.155 Y35.4 Z-4.547 F3048
X217.22 Y35.32 Z-4.549 F3048
X217.28 Y35.235 Z-4.551 F3048
X217.335 Y35.147 Z-4.552 F3048
X217.383 Y35.056 Z-4.554 F3048
X217.426 Y34.962 Z-4.556 F3048
X217.462 Y34.865 Z-4.558 F3048
X217.492 Y34.766 Z-4.56 F3048
X217.515 Y34.665 Z-4.562 F3048
X217.532 Y34.563 Z-4.564 F3048
X217.542 Y34.46 Z-4.565 F3048
X217.546 Y34.357 Z-4.567 F3048
Y28.972 Z-4.664 F3048
( MOVEMENT_FINISH_CUTTING)
Y6 F3048
G2 X215.958 Y4.412 I-1.588 F3048
G1 X191.948 F3048
G2 X190.361 Y6 J1.588 F3048
G1 Y15.693 F3048
G2 X190.822 Y16.811 I1.587 F3048
X189.703 Y16.351 I-1.119 J1.127 F3048
G1 X144.193 F3048
G2 X143.074 Y16.811 J1.587 F3048
X143.536 Y15.693 I-1.126 J-1.119 F3048
G1 Y6 F3048
G2 X141.948 Y4.412 I-1.588 F3048
G1 X91.948 F3048
G2 X90.36 Y6 J1.588 F3048
G1 Y15.693 F3048
G2 X90.826 Y16.815 I1.588 F3048
X89.703 Y16.351 I-1.123 J1.123 F3048
G1 X44.193 F3048
G2 X43.071 Y16.816 J1.587 F3048
X43.535 Y15.693 I-1.123 J-1.123 F3048
G1 Y6 F3048
G2 X41.948 Y4.412 I-1.587 F3048
G1 X17.938 F3048
G2 X16.351 Y6 J1.588 F3048
G1 Y34.357 F3048
G2 X16.816 Y35.479 I1.587 F3048
X15.693 Y35.014 I-1.123 J1.123 F3048
G1 X6 F3048
G2 X4.412 Y36.602 J1.588 F3048
G1 Y100.602 F3048
G2 X6 Y102.189 I1.588 F3048
G1 X15.693 F3048
G2 X16.811 Y101.728 J-1.588 F3048
X16.351 Y102.847 I1.127 J1.119 F3048
G1 Y162.357 F3048
G2 X16.811 Y163.476 I1.587 F3048
X15.693 Y163.014 I-1.119 J1.126 F3048
G1 X6 F3048
G2 X4.412 Y164.602 J1.588 F3048
G1 Y228.602 F3048
G2 X6 Y230.189 I1.588 F3048
G1 X15.693 F3048
G2 X16.811 Y229.728 J-1.587 F3048
X16.351 Y230.847 I1.127 J1.119 F3048
G1 Y259.204 F3048
G2 X17.938 Y260.792 I1.587 F3048
G1 X41.948 F3048
G2 X43.535 Y259.204 J-1.587 F3048
G1 Y249.511 F3048
G2 X43.075 Y248.392 I-1.587 F3048
X44.193 Y248.854 I1.119 J-1.126 F3048
G1 X89.703 F3048
G2 X90.821 Y248.392 J-1.587 F3048
X90.36 Y249.511 I1.127 J1.119 F3048
G1 Y259.204 F3048
G2 X91.948 Y260.792 I1.588 F3048
G1 X141.948 F3048
G2 X143.536 Y259.204 J-1.587 F3048
G1 Y249.511 F3048
G2 X143.079 Y248.397 I-1.588 F3048
X144.193 Y248.854 I1.114 J-1.131 F3048
G1 X189.703 F3048
G2 X190.817 Y248.397 J-1.587 F3048
X190.361 Y249.511 I1.131 J1.114 F3048
G1 Y259.204 F3048
G2 X191.948 Y260.792 I1.587 F3048
G1 X215.958 F3048
G2 X217.546 Y259.204 J-1.587 F3048
G1 Y230.847 F3048
G2 X217.089 Y229.733 I-1.588 F3048
X218.203 Y230.189 I1.114 J-1.131 F3048
G1 X227.896 F3048
G2 X229.484 Y228.602 J-1.587 F3048
G1 Y164.602 F3048
G2 X227.896 Y163.014 I-1.588 F3048
G1 X218.203 F3048
G2 X217.089 Y163.471 J1.588 F3048
X217.546 Y162.357 I-1.131 J-1.114 F3048
G1 Y102.847 F3048
G2 X217.089 Y101.733 I-1.588 F3048
X218.203 Y102.189 I1.114 J-1.131 F3048
G1 X227.896 F3048
G2 X229.484 Y100.602 J-1.588 F3048
G1 Y36.602 F3048
G2 X227.896 Y35.014 I-1.588 F3048
G1 X218.203 F3048
G2 X217.084 Y35.475 J1.588 F3048
X217.546 Y34.357 I-1.126 J-1.119 F3048
G1 Y6 F3048
G2 X215.958 Y4.412 I-1.588 F3048
G1 X191.948 F3048
G2 X190.361 Y6 J1.588 F3048
G1 Y15.693 F3048
G2 X190.822 Y16.811 I1.587 F3048
X189.703 Y16.351 I-1.119 J1.127 F3048
G1 X144.193 F3048
G2 X143.074 Y16.811 J1.587 F3048
X143.536 Y15.693 I-1.126 J-1.119 F3048
G1 Y6 F3048
G2 X141.948 Y4.412 I-1.588 F3048
G1 X91.948 F3048
G2 X90.36 Y6 J1.588 F3048
G1 Y15.693 F3048
G2 X90.826 Y16.815 I1.588 F3048
X89.703 Y16.351 I-1.123 J1.123 F3048
G1 X44.193 F3048
G2 X43.071 Y16.816 J1.587 F3048
X43.535 Y15.693 I-1.123 J-1.123 F3048
G1 Y6 F3048
G2 X41.948 Y4.412 I-1.587 F3048
G1 X17.938 F3048
G2 X16.351 Y6 J1.588 F3048
G1 Y34.357 F3048
G2 X16.816 Y35.479 I1.587 F3048
X15.693 Y35.014 I-1.123 J1.123 F3048
G1 X6 F3048
G2 X4.412 Y36.602 J1.588 F3048
G1 Y100.602 F3048
G2 X6 Y102.189 I1.588 F3048
G1 X15.693 F3048
G2 X16.811 Y101.728 J-1.588 F3048
X16.351 Y102.847 I1.127 J1.119 F3048
G1 Y162.357 F3048
G2 X16.811 Y163.476 I1.587 F3048
X15.693 Y163.014 I-1.119 J1.126 F3048
G1 X6 F3048
G2 X4.412 Y164.602 J1.588 F3048
G1 Y228.602 F3048
G2 X6 Y230.189 I1.588 F3048
G1 X15.693 F3048
G2 X16.811 Y229.728 J-1.587 F3048
X16.351 Y230.847 I1.127 J1.119 F3048
G1 Y259.204 F3048
G2 X17.938 Y260.792 I1.587 F3048
G1 X41.948 F3048
G2 X43.535 Y259.204 J-1.587 F3048
G1 Y249.511 F3048
G2 X43.075 Y248.392 I-1.587 F3048
X44.193 Y248.854 I1.119 J-1.126 F3048
G1 X89.703 F3048
G2 X90.821 Y248.392 J-1.587 F3048
X90.36 Y249.511 I1.127 J1.119 F3048
G1 Y259.204 F3048
G2 X91.948 Y260.792 I1.588 F3048
G1 X141.948 F3048
G2 X143.536 Y259.204 J-1.587 F3048
G1 Y249.511 F3048
G2 X143.079 Y248.397 I-1.588 F3048
X144.193 Y248.854 I1.114 J-1.131 F3048
G1 X189.703 F3048
G2 X190.817 Y248.397 J-1.587 F3048
X190.361 Y249.511 I1.131 J1.114 F3048
G1 Y259.204 F3048
G2 X191.948 Y260.792 I1.587 F3048
G1 X215.958 F3048
G2 X217.546 Y259.204 J-1.587 F3048
G1 Y230.847 F3048
G2 X217.089 Y229.733 I-1.588 F3048
X218.203 Y230.189 I1.114 J-1.131 F3048
G1 X227.896 F3048
G2 X229.484 Y228.602 J-1.587 F3048
G1 Y164.602 F3048
G2 X227.896 Y163.014 I-1.588 F3048
G1 X218.203 F3048
G2 X217.089 Y163.471 J1.588 F3048
X217.546 Y162.357 I-1.131 J-1.114 F3048
G1 Y102.847 F3048
G2 X217.089 Y101.733 I-1.588 F3048
X218.203 Y102.189 I1.114 J-1.131 F3048
G1 X227.896 F3048
G2 X229.484 Y100.602 J-1.588 F3048
G1 Y36.602 F3048
G2 X227.896 Y35.014 I-1.588 F3048
G1 X218.203 F3048
G2 X217.084 Y35.475 J1.588 F3048
X217.546 Y34.357 I-1.126 J-1.119 F3048
G1 Y28.972 F3048
( MOVEMENT_RAMP)
Y6 Z-5.078 F3048
X217.542 Y5.892 Z-5.08 F3048
X217.531 Y5.784 Z-5.082 F3048
X217.512 Y5.677 Z-5.084 F3048
X217.487 Y5.572 Z-5.086 F3048
X217.454 Y5.468 Z-5.087 F3048
X217.414 Y5.368 Z-5.089 F3048
X217.368 Y5.27 Z-5.091 F3048
X217.314 Y5.175 Z-5.093 F3048
X217.255 Y5.085 Z-5.095 F3048
X217.189 Y4.998 Z-5.097 F3048
X217.118 Y4.916 Z-5.099 F3048
X217.042 Y4.84 Z-5.101 F3048
X216.96 Y4.769 Z-5.103 F3048
X216.873 Y4.703 Z-5.105 F3048
X216.783 Y4.644 Z-5.107 F3048
X216.688 Y4.59 Z-5.109 F3048
X216.59 Y4.544 Z-5.111 F3048
X216.49 Y4.504 Z-5.113 F3048
X216.386 Y4.471 Z-5.115 F3048
X216.281 Y4.446 Z-5.117 F3048
X216.174 Y4.427 Z-5.119 F3048
X216.066 Y4.416 Z-5.121 F3048
X215.958 Y4.412 Z-5.123 F3048
X191.948 Z-5.555 F3048
X191.84 Y4.416 Z-5.557 F3048
X191.732 Y4.427 Z-5.559 F3048
X191.625 Y4.446 Z-5.561 F3048
X191.52 Y4.471 Z-5.563 F3048
X191.416 Y4.504 Z-5.565 F3048
X191.316 Y4.544 Z-5.566 F3048
X191.218 Y4.59 Z-5.568 F3048
X191.123 Y4.644 Z-5.57 F3048
X191.033 Y4.703 Z-5.572 F3048
X190.946 Y4.769 Z-5.574 F3048
X190.864 Y4.84 Z-5.576 F3048
X190.788 Y4.916 Z-5.578 F3048
X190.717 Y4.998 Z-5.58 F3048
X190.651 Y5.085 Z-5.582 F3048
X190.592 Y5.175 Z-5.584 F3048
X190.538 Y5.27 Z-5.586 F3048
X190.492 Y5.368 Z-5.588 F3048
X190.452 Y5.468 Z-5.59 F3048
X190.419 Y5.572 Z-5.592 F3048
X190.394 Y5.677 Z-5.594 F3048
X190.375 Y5.784 Z-5.596 F3048
X190.364 Y5.892 Z-5.598 F3048
X190.361 Y6 Z-5.6 F3048
Y15.693 Z-5.774 F3048
X190.364 Y15.796 Z-5.776 F3048
X190.374 Y15.899 Z-5.778 F3048
X190.391 Y16.001 Z-5.78 F3048
X190.414 Y16.102 Z-5.782 F3048
X190.444 Y16.201 Z-5.783 F3048
X190.48 Y16.298 Z-5.785 F3048
X190.523 Y16.392 Z-5.787 F3048
X190.571 Y16.483 Z-5.789 F3048
X190.626 Y16.571 Z-5.791 F3048
X190.686 Y16.656 Z-5.793 F3048
X190.751 Y16.736 Z-5.795 F3048
X190.822 Y16.811 Z-5.796 F3048
X190.746 Y16.741 Z-5.798 F3048
X190.666 Y16.676 Z-5.8 F3048
X190.581 Y16.616 Z-5.802 F3048
X190.493 Y16.561 Z-5.804 F3048
X190.402 Y16.513 Z-5.806 F3048
X190.308 Y16.47 Z-5.808 F3048
X190.211 Y16.434 Z-5.809 F3048
X190.112 Y16.404 Z-5.811 F3048
X190.011 Y16.381 Z-5.813 F3048
X189.909 Y16.364 Z-5.815 F3048
X189.806 Y16.354 Z-5.817 F3048
X189.703 Y16.351 Z-5.819 F3048
X167.468 Z-6.219 F3048
( MOVEMENT_FINISH_CUTTING)
X144.193 F3048
G2 X143.074 Y16.811 J1.587 F3048
X143.536 Y15.693 I-1.126 J-1.119 F3048
G1 Y6 F3048
G2 X141.948 Y4.412 I-1.588 F3048
G1 X91.948 F3048
G2 X90.36 Y6 J1.588 F3048
G1 Y15.693 F3048
G2 X90.826 Y16.815 I1.588 F3048
X89.703 Y16.351 I-1.123 J1.123 F3048
G1 X44.193 F3048
G2 X43.071 Y16.816 J1.587 F3048
X43.535 Y15.693 I-1.123 J-1.123 F3048
G1 Y6 F3048
G2 X41.948 Y4.412 I-1.587 F3048
G1 X17.938 F3048
G2 X16.351 Y6 J1.588 F3048
G1 Y34.357 F3048
G2 X16.816 Y35.479 I1.587 F3048
X15.693 Y35.014 I-1.123 J1.123 F3048
G1 X6 F3048
G2 X4.412 Y36.602 J1.588 F3048
G1 Y100.602 F3048
G2 X6 Y102.189 I1.588 F3048
G1 X15.693 F3048
G2 X16.811 Y101.728 J-1.588 F3048
X16.351 Y102.847 I1.127 J1.119 F3048
G1 Y162.357 F3048
G2 X16.811 Y163.476 I1.587 F3048
X15.693 Y163.014 I-1.119 J1.126 F3048
G1 X6 F3048
G2 X4.412 Y164.602 J1.588 F3048
G1 Y228.602 F3048
G2 X6 Y230.189 I1.588 F3048
G1 X15.693 F3048
G2 X16.811 Y229.728 J-1.587 F3048
X16.351 Y230.847 I1.127 J1.119 F3048
G1 Y259.204 F3048
G2 X17.938 Y260.792 I1.587 F3048
G1 X41.948 F3048
G2 X43.535 Y259.204 J-1.587 F3048
G1 Y249.511 F3048
G2 X43.075 Y248.392 I-1.587 F3048
X44.193 Y248.854 I1.119 J-1.126 F3048
G1 X89.703 F3048
G2 X90.821 Y248.392 J-1.587 F3048
X90.36 Y249.511 I1.127 J1.119 F3048
G1 Y259.204 F3048
G2 X91.948 Y260.792 I1.588 F3048
G1 X141.948 F3048
G2 X143.536 Y259.204 J-1.587 F3048
G1 Y249.511 F3048
G2 X143.079 Y248.397 I-1.588 F3048
X144.193 Y248.854 I1.114 J-1.131 F3048
G1 X189.703 F3048
G2 X190.817 Y248.397 J-1.587 F3048
X190.361 Y249.511 I1.131 J1.114 F3048
G1 Y259.204 F3048
G2 X191.948 Y260.792 I1.587 F3048
G1 X215.958 F3048
G2 X217.546 Y259.204 J-1.587 F3048
G1 Y230.847 F3048
G2 X217.089 Y229.733 I-1.588 F3048
X218.203 Y230.189 I1.114 J-1.131 F3048
G1 X227.896 F3048
G2 X229.484 Y228.602 J-1.587 F3048
G1 Y164.602 F3048
G2 X227.896 Y163.014 I-1.588 F3048
G1 X218.203 F3048
G2 X217.089 Y163.471 J1.588 F3048
X217.546 Y162.357 I-1.131 J-1.114 F3048
G1 Y102.847 F3048
G2 X217.089 Y101.733 I-1.588 F3048
X218.203 Y102.189 I1.114 J-1.131 F3048
G1 X227.896 F3048
G2 X229.484 Y100.602 J-1.588 F3048
G1 Y36.602 F3048
G2 X227.896 Y35.014 I-1.588 F3048
G1 X218.203 F3048
G2 X217.084 Y35.475 J1.588 F3048
X217.546 Y34.357 I-1.126 J-1.119 F3048
G1 Y6 F3048
G2 X215.958 Y4.412 I-1.588 F3048
G1 X191.948 F3048
G2 X190.361 Y6 J1.588 F3048
G1 Y15.693 F3048
G2 X190.822 Y16.811 I1.587 F3048
X189.703 Y16.351 I-1.119 J1.127 F3048
G1 X144.193 F3048
G2 X143.074 Y16.811 J1.587 F3048
X143.536 Y15.693 I-1.126 J-1.119 F3048
G1 Y6 F3048
G2 X141.948 Y4.412 I-1.588 F3048
G1 X91.948 F3048
G2 X90.36 Y6 J1.588 F3048
G1 Y15.693 F3048
G2 X90.826 Y16.815 I1.588 F3048
X89.703 Y16.351 I-1.123 J1.123 F3048
G1 X44.193 F3048
G2 X43.071 Y16.816 J1.587 F3048
X43.535 Y15.693 I-1.123 J-1.123 F3048
G1 Y6 F3048
G2 X41.948 Y4.412 I-1.587 F3048
G1 X17.938 F3048
G2 X16.351 Y6 J1.588 F3048
G1 Y34.357 F3048
G2 X16.816 Y35.479 I1.587 F3048
X15.693 Y35.014 I-1.123 J1.123 F3048
G1 X6 F3048
G2 X4.412 Y36.602 J1.588 F3048
G1 Y100.602 F3048
G2 X6 Y102.189 I1.588 F3048
G1 X15.693 F3048
G2 X16.811 Y101.728 J-1.588 F3048
X16.351 Y102.847 I1.127 J1.119 F3048
G1 Y162.357 F3048
G2 X16.811 Y163.476 I1.587 F3048
X15.693 Y163.014 I-1.119 J1.126 F3048
G1 X6 F3048
G2 X4.412 Y164.602 J1.588 F3048
G1 Y228.602 F3048
G2 X6 Y230.189 I1.588 F3048
G1 X15.693 F3048
G2 X16.811 Y229.728 J-1.587 F3048
X16.351 Y230.847 I1.127 J1.119 F3048
G1 Y259.204 F3048
G2 X17.938 Y260.792 I1.587 F3048
G1 X41.948 F3048
G2 X43.535 Y259.204 J-1.587 F3048
G1 Y249.511 F3048
G2 X43.075 Y248.392 I-1.587 F3048
X44.193 Y248.854 I1.119 J-1.126 F3048
G1 X89.703 F3048
G2 X90.821 Y248.392 J-1.587 F3048
X90.36 Y249.511 I1.127 J1.119 F3048
G1 Y259.204 F3048
G2 X91.948 Y260.792 I1.588 F3048
G1 X141.948 F3048
G2 X143.536 Y259.204 J-1.587 F3048
G1 Y249.511 F3048
G2 X143.079 Y248.397 I-1.588 F3048
X144.193 Y248.854 I1.114 J-1.131 F3048
G1 X189.703 F3048
G2 X190.817 Y248.397 J-1.587 F3048
X190.361 Y249.511 I1.131 J1.114 F3048
G1 Y259.204 F3048
G2 X191.948 Y260.792 I1.587 F3048
G1 X215.958 F3048
G2 X217.546 Y259.204 J-1.587 F3048
G1 Y230.847 F3048
G2 X217.089 Y229.733 I-1.588 F3048
X218.203 Y230.189 I1.114 J-1.131 F3048
G1 X227.896 F3048
G2 X229.484 Y228.602 J-1.587 F3048
G1 Y164.602 F3048
G2 X227.896 Y163.014 I-1.588 F3048
G1 X218.203 F3048
G2 X217.089 Y163.471 J1.588 F3048
X217.546 Y162.357 I-1.131 J-1.114 F3048
G1 Y102.847 F3048
G2 X217.089 Y101.733 I-1.588 F3048
X218.203 Y102.189 I1.114 J-1.131 F3048
G1 X227.896 F3048
G2 X229.484 Y100.602 J-1.588 F3048
G1 Y36.602 F3048
G2 X227.896 Y35.014 I-1.588 F3048
G1 X218.203 F3048
G2 X217.084 Y35.475 J1.588 F3048
X217.546 Y34.357 I-1.126 J-1.119 F3048
G1 Y6 F3048
G2 X215.958 Y4.412 I-1.588 F3048
G1 X191.948 F3048
G2 X190.361 Y6 J1.588 F3048
G1 Y15.693 F3048
G2 X190.822 Y16.811 I1.587 F3048
X189.703 Y16.351 I-1.119 J1.127 F3048
G1 X167.468 F3048
( MOVEMENT_RAMP)
X144.193 Z-6.638 F3048
X144.09 Y16.354 Z-6.64 F3048
X143.987 Y16.364 Z-6.642 F3048
X143.885 Y16.381 Z-6.644 F3048
X143.784 Y16.404 Z-6.645 F3048
X143.685 Y16.434 Z-6.647 F3048
X143.588 Y16.47 Z-6.649 F3048
X143.494 Y16.513 Z-6.651 F3048
X143.403 Y16.561 Z-6.653 F3048
X143.315 Y16.616 Z-6.655 F3048
X143.23 Y16.676 Z-6.657 F3048
X143.15 Y16.741 Z-6.658 F3048
X143.074 Y16.811 Z-6.66 F3048
X143.145 Y16.736 Z-6.662 F3048
X143.21 Y16.656 Z-6.664 F3048
X143.27 Y16.571 Z-6.666 F3048
X143.325 Y16.483 Z-6.668 F3048
X143.373 Y16.392 Z-6.67 F3048
X143.416 Y16.298 Z-6.671 F3048
X143.452 Y16.201 Z-6.673 F3048
X143.482 Y16.102 Z-6.675 F3048
X143.505 Y16.001 Z-6.677 F3048
X143.522 Y15.899 Z-6.679 F3048
X143.532 Y15.796 Z-6.681 F3048
X143.536 Y15.693 Z-6.683 F3048
Y6 Z-6.857 F3048
X143.532 Y5.892 Z-6.859 F3048
X143.521 Y5.784 Z-6.861 F3048
X143.502 Y5.677 Z-6.863 F3048
X143.477 Y5.572 Z-6.865 F3048
X143.444 Y5.468 Z-6.867 F3048
X143.404 Y5.368 Z-6.869 F3048
X143.358 Y5.27 Z-6.871 F3048
X143.304 Y5.175 Z-6.873 F3048
X143.245 Y5.085 Z-6.875 F3048
X143.179 Y4.998 Z-6.877 F3048
X143.108 Y4.916 Z-6.879 F3048
X143.032 Y4.84 Z-6.88 F3048
X142.95 Y4.769 Z-6.882 F3048
X142.863 Y4.703 Z-6.884 F3048
X142.773 Y4.644 Z-6.886 F3048
X142.678 Y4.59 Z-6.888 F3048
X142.58 Y4.544 Z-6.89 F3048
X142.48 Y4.504 Z-6.892 F3048
X142.376 Y4.471 Z-6.894 F3048
X142.271 Y4.446 Z-6.896 F3048
X142.164 Y4.427 Z-6.898 F3048
X142.056 Y4.416 Z-6.9 F3048
X141.948 Y4.412 Z-6.902 F3048
X93.511 Z-7.774 F3048
( MOVEMENT_FINISH_CUTTING)
X91.948 F3048
G2 X90.36 Y6 J1.588 F3048
G1 Y15.693 F3048
G2 X90.826 Y16.815 I1.588 F3048
X89.703 Y16.351 I-1.123 J1.123 F3048
G1 X44.193 F3048
G2 X43.071 Y16.816 J1.587 F3048
X43.535 Y15.693 I-1.123 J-1.123 F3048
G1 Y6 F3048
G2 X41.948 Y4.412 I-1.587 F3048
G1 X17.938 F3048
G2 X16.351 Y6 J1.588 F3048
G1 Y34.357 F3048
G2 X16.816 Y35.479 I1.587 F3048
X15.693 Y35.014 I-1.123 J1.123 F3048
G1 X6 F3048
G2 X4.412 Y36.602 J1.588 F3048
G1 Y100.602 F3048
G2 X6 Y102.189 I1.588 F3048
G1 X15.693 F3048
G2 X16.811 Y101.728 J-1.588 F3048
X16.351 Y102.847 I1.127 J1.119 F3048
G1 Y162.357 F3048
G2 X16.811 Y163.476 I1.587 F3048
X15.693 Y163.014 I-1.119 J1.126 F3048
G1 X6 F3048
G2 X4.412 Y164.602 J1.588 F3048
G1 Y228.602 F3048
G2 X6 Y230.189 I1.588 F3048
G1 X15.693 F3048
G2 X16.811 Y229.728 J-1.587 F3048
X16.351 Y230.847 I1.127 J1.119 F3048
G1 Y259.204 F3048
G2 X17.938 Y260.792 I1.587 F3048
G1 X41.948 F3048
G2 X43.535 Y259.204 J-1.587 F3048
G1 Y249.511 F3048
G2 X43.075 Y248.392 I-1.587 F3048
X44.193 Y248.854 I1.119 J-1.126 F3048
G1 X89.703 F3048
G2 X90.821 Y248.392 J-1.587 F3048
X90.36 Y249.511 I1.127 J1.119 F3048
G1 Y259.204 F3048
G2 X91.948 Y260.792 I1.588 F3048
G1 X141.948 F3048
G2 X143.536 Y259.204 J-1.587 F3048
G1 Y249.511 F3048
G2 X143.079 Y248.397 I-1.588 F3048
X144.193 Y248.854 I1.114 J-1.131 F3048
G1 X189.703 F3048
G2 X190.817 Y248.397 J-1.587 F3048
X190.361 Y249.511 I1.131 J1.114 F3048
G1 Y259.204 F3048
G2 X191.948 Y260.792 I1.587 F3048
G1 X215.958 F3048
G2 X217.546 Y259.204 J-1.587 F3048
G1 Y230.847 F3048
G2 X217.089 Y229.733 I-1.588 F3048
X218.203 Y230.189 I1.114 J-1.131 F3048
G1 X227.896 F3048
G2 X229.484 Y228.602 J-1.587 F3048
G1 Y164.602 F3048
G2 X227.896 Y163.014 I-1.588 F3048
G1 X218.203 F3048
G2 X217.089 Y163.471 J1.588 F3048
X217.546 Y162.357 I-1.131 J-1.114 F3048
G1 Y102.847 F3048
G2 X217.089 Y101.733 I-1.588 F3048
X218.203 Y102.189 I1.114 J-1.131 F3048
G1 X227.896 F3048
G2 X229.484 Y100.602 J-1.588 F3048
G1 Y36.602 F3048
G2 X227.896 Y35.014 I-1.588 F3048
G1 X218.203 F3048
G2 X217.084 Y35.475 J1.588 F3048
X217.546 Y34.357 I-1.126 J-1.119 F3048
G1 Y6 F3048
G2 X215.958 Y4.412 I-1.588 F3048
G1 X191.948 F3048
G2 X190.361 Y6 J1.588 F3048
G1 Y15.693 F3048
G2 X190.822 Y16.811 I1.587 F3048
X189.703 Y16.351 I-1.119 J1.127 F3048
G1 X144.193 F3048
G2 X143.074 Y16.811 J1.587 F3048
X143.536 Y15.693 I-1.126 J-1.119 F3048
G1 Y6 F3048
G2 X141.948 Y4.412 I-1.588 F3048
G1 X93.511 F3048
X91.948 F3048
G2 X90.36 Y6 J1.588 F3048
G1 Y15.693 F3048
G2 X90.826 Y16.815 I1.588 F3048
X89.703 Y16.351 I-1.123 J1.123 F3048
G1 X44.193 F3048
G2 X43.071 Y16.816 J1.587 F3048
X43.535 Y15.693 I-1.123 J-1.123 F3048
G1 Y6 F3048
G2 X41.948 Y4.412 I-1.587 F3048
G1 X17.938 F3048
G2 X16.351 Y6 J1.588 F3048
G1 Y34.357 F3048
G2 X16.816 Y35.479 I1.587 F3048
X15.693 Y35.014 I-1.123 J1.123 F3048
G1 X6 F3048
G2 X4.412 Y36.602 J1.588 F3048
G1 Y100.602 F3048
G2 X6 Y102.189 I1.588 F3048
G1 X15.693 F3048
G2 X16.811 Y101.728 J-1.588 F3048
X16.351 Y102.847 I1.127 J1.119 F3048
G1 Y162.357 F3048
G2 X16.811 Y163.476 I1.587 F3048
X15.693 Y163.014 I-1.119 J1.126 F3048
G1 X6 F3048
G2 X4.412 Y164.602 J1.588 F3048
G1 Y228.602 F3048
G2 X6 Y230.189 I1.588 F3048
G1 X15.693 F3048
G2 X16.811 Y229.728 J-1.587 F3048
X16.351 Y230.847 I1.127 J1.119 F3048
G1 Y259.204 F3048
G2 X17.938 Y260.792 I1.587 F3048
G1 X41.948 F3048
G2 X43.535 Y259.204 J-1.587 F3048
G1 Y249.511 F3048
G2 X43.075 Y248.392 I-1.587 F3048
X44.193 Y248.854 I1.119 J-1.126 F3048
G1 X89.703 F3048
G2 X90.821 Y248.392 J-1.587 F3048
X90.36 Y249.511 I1.127 J1.119 F3048
G1 Y259.204 F3048
G2 X91.948 Y260.792 I1.588 F3048
G1 X141.948 F3048
G2 X143.536 Y259.204 J-1.587 F3048
G1 Y249.511 F3048
G2 X143.079 Y248.397 I-1.588 F3048
X144.193 Y248.854 I1.114 J-1.131 F3048
G1 X189.703 F3048
G2 X190.817 Y248.397 J-1.587 F3048
X190.361 Y249.511 I1.131 J1.114 F3048
G1 Y259.204 F3048
G2 X191.948 Y260.792 I1.587 F3048
G1 X215.958 F3048
G2 X217.546 Y259.204 J-1.587 F3048
G1 Y230.847 F3048
G2 X217.089 Y229.733 I-1.588 F3048
X218.203 Y230.189 I1.114 J-1.131 F3048
G1 X227.896 F3048
G2 X229.484 Y228.602 J-1.587 F3048
G1 Y164.602 F3048
G2 X227.896 Y163.014 I-1.588 F3048
G1 X218.203 F3048
G2 X217.089 Y163.471 J1.588 F3048
X217.546 Y162.357 I-1.131 J-1.114 F3048
G1 Y102.847 F3048
G2 X217.089 Y101.733 I-1.588 F3048
X218.203 Y102.189 I1.114 J-1.131 F3048
G1 X227.896 F3048
G2 X229.484 Y100.602 J-1.588 F3048
G1 Y36.602 F3048
G2 X227.896 Y35.014 I-1.588 F3048
G1 X218.203 F3048
G2 X217.084 Y35.475 J1.588 F3048
X217.546 Y34.357 I-1.126 J-1.119 F3048
G1 Y6 F3048
G2 X215.958 Y4.412 I-1.588 F3048
G1 X191.948 F3048
G2 X190.361 Y6 J1.588 F3048
G1 Y15.693 F3048
G2 X190.822 Y16.811 I1.587 F3048
X189.703 Y16.351 I-1.119 J1.127 F3048
G1 X144.193 F3048
G2 X143.074 Y16.811 J1.587 F3048
X143.536 Y15.693 I-1.126 J-1.119 F3048
G1 Y6 F3048
G2 X141.948 Y4.412 I-1.588 F3048
G1 X93.511 F3048
( MOVEMENT_RAMP)
X91.948 Z-7.802 F3048
X91.84 Y4.416 Z-7.804 F3048
X91.732 Y4.427 Z-7.806 F3048
X91.625 Y4.446 Z-7.808 F3048
X91.52 Y4.471 Z-7.81 F3048
X91.416 Y4.504 Z-7.812 F3048
X91.316 Y4.544 Z-7.814 F3048
X91.218 Y4.59 Z-7.816 F3048
X91.123 Y4.644 Z-7.818 F3048
X91.033 Y4.703 Z-7.819 F3048
X90.946 Y4.769 Z-7.821 F3048
X90.864 Y4.84 Z-7.823 F3048
X90.788 Y4.916 Z-7.825 F3048
X90.717 Y4.998 Z-7.827 F3048
X90.651 Y5.085 Z-7.829 F3048
X90.592 Y5.175 Z-7.831 F3048
X90.538 Y5.27 Z-7.833 F3048
X90.492 Y5.368 Z-7.835 F3048
X90.452 Y5.468 Z-7.837 F3048
X90.419 Y5.572 Z-7.839 F3048
X90.394 Y5.677 Z-7.841 F3048
X90.375 Y5.784 Z-7.843 F3048
X90.364 Y5.892 Z-7.845 F3048
X90.36 Y6 Z-7.847 F3048
Y15.693 Z-8.021 F3048
X90.364 Y15.797 Z-8.023 F3048
X90.374 Y15.9 Z-8.025 F3048
X90.391 Y16.003 Z-8.027 F3048
X90.415 Y16.104 Z-8.029 F3048
X90.445 Y16.203 Z-8.031 F3048
X90.481 Y16.3 Z-8.032 F3048
X90.524 Y16.395 Z-8.034 F3048
X90.573 Y16.487 Z-8.036 F3048
X90.628 Y16.575 Z-8.038 F3048
X90.689 Y16.659 Z-8.04 F3048
X90.754 Y16.74 Z-8.042 F3048
X90.826 Y16.815 Z-8.044 F3048
X90.75 Y16.744 Z-8.046 F3048
X90.669 Y16.679 Z-8.047 F3048
X90.585 Y16.618 Z-8.049 F3048
X90.497 Y16.563 Z-8.051 F3048
X90.405 Y16.514 Z-8.053 F3048
X90.31 Y16.471 Z-8.055 F3048
X90.213 Y16.435 Z-8.057 F3048
X90.114 Y16.405 Z-8.059 F3048
X90.013 Y16.381 Z-8.061 F3048
X89.91 Y16.364 Z-8.062 F3048
X89.807 Y16.354 Z-8.064 F3048
X89.703 Y16.351 Z-8.066 F3048
X44.193 Z-8.885 F3048
X44.089 Y16.354 Z-8.887 F3048
X43.986 Y16.364 Z-8.889 F3048
X43.883 Y16.381 Z-8.891 F3048
X43.782 Y16.405 Z-8.893 F3048
X43.683 Y16.435 Z-8.895 F3048
X43.586 Y16.471 Z-8.896 F3048
X43.491 Y16.514 Z-8.898 F3048
X43.399 Y16.563 Z-8.9 F3048
X43.311 Y16.618 Z-8.902 F3048
X43.227 Y16.679 Z-8.904 F3048
X43.146 Y16.744 Z-8.906 F3048
X43.071 Y16.816 Z-8.908 F3048
X43.142 Y16.74 Z-8.91 F3048
X43.207 Y16.659 Z-8.911 F3048
X43.268 Y16.575 Z-8.913 F3048
X43.323 Y16.487 Z-8.915 F3048
X43.372 Y16.395 Z-8.917 F3048
X43.415 Y16.3 Z-8.919 F3048
X43.451 Y16.203 Z-8.921 F3048
X43.481 Y16.104 Z-8.923 F3048
X43.505 Y16.003 Z-8.925 F3048
X43.522 Y15.9 Z-8.926 F3048
X43.532 Y15.797 Z-8.928 F3048
X43.535 Y15.693 Z-8.93 F3048
Y6 Z-9.105 F3048
X43.532 Y5.892 Z-9.107 F3048
X43.521 Y5.784 Z-9.108 F3048
X43.502 Y5.677 Z-9.11 F3048
X43.477 Y5.572 Z-9.112 F3048
X43.444 Y5.468 Z-9.114 F3048
X43.404 Y5.368 Z-9.116 F3048
X43.358 Y5.27 Z-9.118 F3048
X43.304 Y5.175 Z-9.12 F3048
X43.245 Y5.085 Z-9.122 F3048
X43.179 Y4.998 Z-9.124 F3048
X43.108 Y4.916 Z-9.126 F3048
X43.032 Y4.84 Z-9.128 F3048
X42.95 Y4.769 Z-9.13 F3048
X42.863 Y4.703 Z-9.132 F3048
X42.773 Y4.644 Z-9.134 F3048
X42.678 Y4.59 Z-9.136 F3048
X42.58 Y4.544 Z-9.138 F3048
X42.48 Y4.504 Z-9.14 F3048
X42.376 Y4.471 Z-9.142 F3048
X42.271 Y4.446 Z-9.144 F3048
X42.164 Y4.427 Z-9.146 F3048
X42.056 Y4.416 Z-9.148 F3048
X41.948 Y4.412 Z-9.149 F3048
X32.002 Z-9.328 F3048
( MOVEMENT_FINISH_CUTTING)
X17.938 F3048
G2 X16.351 Y6 J1.588 F3048
G1 Y34.357 F3048
G2 X16.816 Y35.479 I1.587 F3048
X15.693 Y35.014 I-1.123 J1.123 F3048
G1 X6 F3048
G2 X4.412 Y36.602 J1.588 F3048
G1 Y100.602 F3048
G2 X6 Y102.189 I1.588 F3048
G1 X15.693 F3048
G2 X16.811 Y101.728 J-1.588 F3048
X16.351 Y102.847 I1.127 J1.119 F3048
G1 Y162.357 F3048
G2 X16.811 Y163.476 I1.587 F3048
X15.693 Y163.014 I-1.119 J1.126 F3048
G1 X6 F3048
G2 X4.412 Y164.602 J1.588 F3048
G1 Y228.602 F3048
G2 X6 Y230.189 I1.588 F3048
G1 X15.693 F3048
G2 X16.811 Y229.728 J-1.587 F3048
X16.351 Y230.847 I1.127 J1.119 F3048
G1 Y259.204 F3048
G2 X17.938 Y260.792 I1.587 F3048
G1 X41.948 F3048
G2 X43.535 Y259.204 J-1.587 F3048
G1 Y249.511 F3048
G2 X43.075 Y248.392 I-1.587 F3048
X44.193 Y248.854 I1.119 J-1.126 F3048
G1 X89.703 F3048
G2 X90.821 Y248.392 J-1.587 F3048
X90.36 Y249.511 I1.127 J1.119 F3048
G1 Y259.204 F3048
G2 X91.948 Y260.792 I1.588 F3048
G1 X141.948 F3048
G2 X143.536 Y259.204 J-1.587 F3048
G1 Y249.511 F3048
G2 X143.079 Y248.397 I-1.588 F3048
X144.193 Y248.854 I1.114 J-1.131 F3048
G1 X189.703 F3048
G2 X190.817 Y248.397 J-1.587 F3048
X190.361 Y249.511 I1.131 J1.114 F3048
G1 Y259.204 F3048
G2 X191.948 Y260.792 I1.587 F3048
G1 X215.958 F3048
G2 X217.546 Y259.204 J-1.587 F3048
G1 Y230.847 F3048
G2 X217.089 Y229.733 I-1.588 F3048
X218.203 Y230.189 I1.114 J-1.131 F3048
G1 X227.896 F3048
G2 X229.484 Y228.602 J-1.587 F3048
G1 Y164.602 F3048
G2 X227.896 Y163.014 I-1.588 F3048
G1 X218.203 F3048
G2 X217.089 Y163.471 J1.588 F3048
X217.546 Y162.357 I-1.131 J-1.114 F3048
G1 Y102.847 F3048
G2 X217.089 Y101.733 I-1.588 F3048
X218.203 Y102.189 I1.114 J-1.131 F3048
G1 X227.896 F3048
G2 X229.484 Y100.602 J-1.588 F3048
G1 Y36.602 F3048
G2 X227.896 Y35.014 I-1.588 F3048
G1 X218.203 F3048
G2 X217.084 Y35.475 J1.588 F3048
X217.546 Y34.357 I-1.126 J-1.119 F3048
G1 Y6 F3048
G2 X215.958 Y4.412 I-1.588 F3048
G1 X191.948 F3048
G2 X190.361 Y6 J1.588 F3048
G1 Y15.693 F3048
G2 X190.822 Y16.811 I1.587 F3048
X189.703 Y16.351 I-1.119 J1.127 F3048
G1 X144.193 F3048
G2 X143.074 Y16.811 J1.587 F3048
X143.536 Y15.693 I-1.126 J-1.119 F3048
G1 Y6 F3048
G2 X141.948 Y4.412 I-1.588 F3048
G1 X93.511 F3048
X91.948 F3048
G2 X90.36 Y6 J1.588 F3048
G1 Y15.693 F3048
G2 X90.826 Y16.815 I1.588 F3048
X89.703 Y16.351 I-1.123 J1.123 F3048
G1 X44.193 F3048
G2 X43.071 Y16.816 J1.587 F3048
X43.535 Y15.693 I-1.123 J-1.123 F3048
G1 Y6 F3048
G2 X41.948 Y4.412 I-1.587 F3048
G1 X17.938 F3048
G2 X16.351 Y6 J1.588 F3048
G1 Y34.357 F3048
G2 X16.816 Y35.479 I1.587 F3048
X15.693 Y35.014 I-1.123 J1.123 F3048
G1 X6 F3048
G2 X4.412 Y36.602 J1.588 F3048
G1 Y100.602 F3048
G2 X6 Y102.189 I1.588 F3048
G1 X15.693 F3048
G2 X16.811 Y101.728 J-1.588 F3048
X16.351 Y102.847 I1.127 J1.119 F3048
G1 Y162.357 F3048
G2 X16.811 Y163.476 I1.587 F3048
X15.693 Y163.014 I-1.119 J1.126 F3048
G1 X6 F3048
G2 X4.412 Y164.602 J1.588 F3048
G1 Y228.602 F3048
G2 X6 Y230.189 I1.588 F3048
G1 X15.693 F3048
G2 X16.811 Y229.728 J-1.587 F3048
X16.351 Y230.847 I1.127 J1.119 F3048
G1 Y259.204 F3048
G2 X17.938 Y260.792 I1.587 F3048
G1 X41.948 F3048
G2 X43.535 Y259.204 J-1.587 F3048
G1 Y249.511 F3048
G2 X43.075 Y248.392 I-1.587 F3048
X44.193 Y248.854 I1.119 J-1.126 F3048
G1 X89.703 F3048
G2 X90.821 Y248.392 J-1.587 F3048
X90.36 Y249.511 I1.127 J1.119 F3048
G1 Y259.204 F3048
G2 X91.948 Y260.792 I1.588 F3048
G1 X141.948 F3048
G2 X143.536 Y259.204 J-1.587 F3048
G1 Y249.511 F3048
G2 X143.079 Y248.397 I-1.588 F3048
X144.193 Y248.854 I1.114 J-1.131 F3048
G1 X189.703 F3048
G2 X190.817 Y248.397 J-1.587 F3048
X190.361 Y249.511 I1.131 J1.114 F3048
G1 Y259.204 F3048
G2 X191.948 Y260.792 I1.587 F3048
G1 X215.958 F3048
G2 X217.546 Y259.204 J-1.587 F3048
G1 Y230.847 F3048
G2 X217.089 Y229.733 I-1.588 F3048
X218.203 Y230.189 I1.114 J-1.131 F3048
G1 X227.896 F3048
G2 X229.484 Y228.602 J-1.587 F3048
G1 Y164.602 F3048
G2 X227.896 Y163.014 I-1.588 F3048
G1 X218.203 F3048
G2 X217.089 Y163.471 J1.588 F3048
X217.546 Y162.357 I-1.131 J-1.114 F3048
G1 Y102.847 F3048
G2 X217.089 Y101.733 I-1.588 F3048
X218.203 Y102.189 I1.114 J-1.131 F3048
G1 X227.896 F3048
G2 X229.484 Y100.602 J-1.588 F3048
G1 Y36.602 F3048
G2 X227.896 Y35.014 I-1.588 F3048
G1 X218.203 F3048
G2 X217.084 Y35.475 J1.588 F3048
X217.546 Y34.357 I-1.126 J-1.119 F3048
G1 Y6 F3048
G2 X215.958 Y4.412 I-1.588 F3048
G1 X191.948 F3048
G2 X190.361 Y6 J1.588 F3048
G1 Y15.693 F3048
G2 X190.822 Y16.811 I1.587 F3048
X189.703 Y16.351 I-1.119 J1.127 F3048
G1 X144.193 F3048
G2 X143.074 Y16.811 J1.587 F3048
X143.536 Y15.693 I-1.126 J-1.119 F3048
G1 Y6 F3048
G2 X141.948 Y4.412 I-1.588 F3048
G1 X93.511 F3048
X91.948 F3048
G2 X90.36 Y6 J1.588 F3048
G1 Y15.693 F3048
G2 X90.826 Y16.815 I1.588 F3048
X89.703 Y16.351 I-1.123 J1.123 F3048
G1 X44.193 F3048
G2 X43.071 Y16.816 J1.587 F3048
X43.535 Y15.693 I-1.123 J-1.123 F3048
G1 Y6 F3048
G2 X41.948 Y4.412 I-1.587 F3048
G1 X32.002 F3048
( MOVEMENT_RAMP)
X17.938 Z-9.582 F3048
X17.83 Y4.416 Z-9.584 F3048
X17.722 Y4.427 Z-9.586 F3048
X17.615 Y4.446 Z-9.587 F3048
X17.51 Y4.471 Z-9.589 F3048
X17.406 Y4.504 Z-9.591 F3048
X17.306 Y4.544 Z-9.593 F3048
X17.208 Y4.59 Z-9.595 F3048
X17.113 Y4.644 Z-9.597 F3048
X17.023 Y4.703 Z-9.599 F3048
X16.936 Y4.769 Z-9.601 F3048
X16.854 Y4.84 Z-9.603 F3048
X16.778 Y4.916 Z-9.605 F3048
X16.707 Y4.998 Z-9.607 F3048
X16.641 Y5.085 Z-9.609 F3048
X16.582 Y5.175 Z-9.611 F3048
X16.528 Y5.27 Z-9.613 F3048
X16.482 Y5.368 Z-9.615 F3048
X16.442 Y5.468 Z-9.617 F3048
X16.409 Y5.572 Z-9.619 F3048
X16.384 Y5.677 Z-9.621 F3048
X16.365 Y5.784 Z-9.623 F3048
X16.354 Y5.892 Z-9.625 F3048
X16.351 Y6 Z-9.627 F3048
Y34.357 Z-10.137 F3048
X16.354 Y34.461 Z-10.139 F3048
X16.364 Y34.564 Z-10.141 F3048
X16.381 Y34.667 Z-10.143 F3048
X16.405 Y34.768 Z-10.144 F3048
X16.435 Y34.867 Z-10.146 F3048
X16.471 Y34.964 Z-10.148 F3048
X16.514 Y35.059 Z-10.15 F3048
X16.563 Y35.151 Z-10.152 F3048
X16.618 Y35.239 Z-10.154 F3048
X16.679 Y35.323 Z-10.156 F3048
X16.744 Y35.404 Z-10.157 F3048
X16.816 Y35.479 Z-10.159 F3048
X16.74 Y35.408 Z-10.161 F3048
X16.659 Y35.343 Z-10.163 F3048
X16.575 Y35.282 Z-10.165 F3048
X16.487 Y35.227 Z-10.167 F3048
X16.395 Y35.178 Z-10.169 F3048
X16.3 Y35.135 Z-10.171 F3048
X16.203 Y35.099 Z-10.172 F3048
X16.104 Y35.069 Z-10.174 F3048
X16.003 Y35.045 Z-10.176 F3048
X15.9 Y35.028 Z-10.178 F3048
X15.797 Y35.018 Z-10.18 F3048
X15.693 Y35.014 Z-10.182 F3048
X6 Z-10.356 F3048
X5.892 Y35.018 Z-10.358 F3048
X5.784 Y35.029 Z-10.36 F3048
X5.677 Y35.048 Z-10.362 F3048
X5.572 Y35.073 Z-10.364 F3048
X5.468 Y35.106 Z-10.366 F3048
X5.368 Y35.146 Z-10.368 F3048
X5.27 Y35.192 Z-10.37 F3048
X5.175 Y35.246 Z-10.372 F3048
X5.085 Y35.305 Z-10.374 F3048
X4.998 Y35.371 Z-10.376 F3048
X4.916 Y35.442 Z-10.378 F3048
X4.84 Y35.518 Z-10.38 F3048
X4.769 Y35.6 Z-10.382 F3048
X4.703 Y35.687 Z-10.384 F3048
X4.644 Y35.777 Z-10.386 F3048
X4.59 Y35.872 Z-10.387 F3048
X4.544 Y35.97 Z-10.389 F3048
X4.504 Y36.07 Z-10.391 F3048
X4.471 Y36.174 Z-10.393 F3048
X4.446 Y36.279 Z-10.395 F3048
X4.427 Y36.386 Z-10.397 F3048
X4.416 Y36.494 Z-10.399 F3048
X4.412 Y36.602 Z-10.401 F3048
Y61.495 Z-10.849 F3048
Z-10.438 F3048
Y63.387 F3048
( MOVEMENT_FINISH_CUTTING)
Y79.67 F3048
( MOVEMENT_PLUNGE)
Z-10.883 F339
( MOVEMENT_FINISH_CUTTING)
Y100.602 F3048
G2 X6 Y102.189 I1.588 F3048
G1 X15.693 F3048
G2 X16.811 Y101.728 J-1.588 F3048
X16.351 Y102.847 I1.127 J1.119 F3048
G1 Y162.357 F3048
G2 X16.811 Y163.476 I1.587 F3048
X15.693 Y163.014 I-1.119 J1.126 F3048
G1 X6 F3048
G2 X4.412 Y164.602 J1.588 F3048
G1 Y189.62 F3048
( MOVEMENT_REDUCED)
Y190.255 F762
( MOVEMENT_FINISH_CUTTING)
Z-10.438 F3048
Y208.43 F3048
( MOVEMENT_PLUNGE)
Z-10.883 F339
( MOVEMENT_FINISH_CUTTING)
Y228.602 F3048
G2 X6 Y230.189 I1.588 F3048
G1 X15.693 F3048
G2 X16.811 Y229.728 J-1.587 F3048
X16.351 Y230.847 I1.127 J1.119 F3048
G1 Y259.204 F3048
G2 X17.938 Y260.792 I1.587 F3048
G1 X41.948 F3048
G2 X43.535 Y259.204 J-1.587 F3048
G1 Y249.511 F3048
G2 X43.075 Y248.392 I-1.587 F3048
X44.193 Y248.854 I1.119 J-1.126 F3048
G1 X89.703 F3048
G2 X90.821 Y248.392 J-1.587 F3048
X90.36 Y249.511 I1.127 J1.119 F3048
G1 Y259.204 F3048
G2 X91.948 Y260.792 I1.588 F3048
G1 X106.912 F3048
( MOVEMENT_REDUCED)
X107.548 F762
( MOVEMENT_FINISH_CUTTING)
Z-10.438 F3048
X125.723 F3048
( MOVEMENT_PLUNGE)
Z-10.883 F339
( MOVEMENT_FINISH_CUTTING)
X141.948 F3048
G2 X143.536 Y259.204 J-1.587 F3048
G1 Y249.511 F3048
G2 X143.079 Y248.397 I-1.588 F3048
X144.193 Y248.854 I1.114 J-1.131 F3048
G1 X189.703 F3048
G2 X190.817 Y248.397 J-1.587 F3048
X190.361 Y249.511 I1.131 J1.114 F3048
G1 Y259.204 F3048
G2 X191.948 Y260.792 I1.587 F3048
G1 X215.958 F3048
G2 X217.546 Y259.204 J-1.587 F3048
G1 Y230.847 F3048
G2 X217.089 Y229.733 I-1.588 F3048
X218.203 Y230.189 I1.114 J-1.131 F3048
G1 X227.896 F3048
G2 X229.484 Y228.602 J-1.587 F3048
G1 Y209.065 F3048
( MOVEMENT_REDUCED)
Y208.43 F762
( MOVEMENT_FINISH_CUTTING)
Z-10.438 F3048
Y190.255 F3048
( MOVEMENT_PLUNGE)
Z-10.883 F339
( MOVEMENT_FINISH_CUTTING)
Y164.602 F3048
G2 X227.896 Y163.014 I-1.588 F3048
G1 X218.203 F3048
G2 X217.089 Y163.471 J1.588 F3048
X217.546 Y162.357 I-1.131 J-1.114 F3048
G1 Y102.847 F3048
G2 X217.089 Y101.733 I-1.588 F3048
X218.203 Y102.189 I1.114 J-1.131 F3048
G1 X227.896 F3048
G2 X229.484 Y100.602 J-1.588 F3048
G1 Y79.067 F3048
( MOVEMENT_REDUCED)
Y78.432 F762
( MOVEMENT_FINISH_CUTTING)
Z-10.438 F3048
Y60.257 F3048
( MOVEMENT_PLUNGE)
Z-10.883 F339
( MOVEMENT_FINISH_CUTTING)
Y36.602 F3048
G2 X227.896 Y35.014 I-1.588 F3048
G1 X218.203 F3048
G2 X217.084 Y35.475 J1.588 F3048
X217.546 Y34.357 I-1.126 J-1.119 F3048
G1 Y6 F3048
G2 X215.958 Y4.412 I-1.588 F3048
G1 X191.948 F3048
G2 X190.361 Y6 J1.588 F3048
G1 Y15.693 F3048
G2 X190.822 Y16.811 I1.587 F3048
X189.703 Y16.351 I-1.119 J1.127 F3048
G1 X144.193 F3048
G2 X143.074 Y16.811 J1.587 F3048
X143.536 Y15.693 I-1.126 J-1.119 F3048
G1 Y6 F3048
G2 X141.948 Y4.412 I-1.588 F3048
G1 X127.596 F3048
( MOVEMENT_REDUCED)
X126.961 F762
( MOVEMENT_FINISH_CUTTING)
Z-10.438 F3048
X108.785 F3048
( MOVEMENT_PLUNGE)
Z-10.883 F339
( MOVEMENT_FINISH_CUTTING)
X91.948 F3048
G2 X90.36 Y6 J1.588 F3048
G1 Y15.693 F3048
G2 X90.826 Y16.815 I1.588 F3048
X89.703 Y16.351 I-1.123 J1.123 F3048
G1 X44.193 F3048
G2 X43.071 Y16.816 J1.587 F3048
X43.535 Y15.693 I-1.123 J-1.123 F3048
G1 Y6 F3048
G2 X41.948 Y4.412 I-1.587 F3048
G1 X17.938 F3048
G2 X16.351 Y6 J1.588 F3048
G1 Y34.357 F3048
G2 X16.816 Y35.479 I1.587 F3048
X15.693 Y35.014 I-1.123 J1.123 F3048
G1 X6 F3048
G2 X4.412 Y36.602 J1.588 F3048
G1 Y60.86 F3048
( MOVEMENT_REDUCED)
Y61.495 F762
( MOVEMENT_FINISH_CUTTING)
Z-10.438 F3048
Y79.67 F3048
( MOVEMENT_PLUNGE)
Z-10.883 F339
( MOVEMENT_FINISH_CUTTING)
Y100.602 F3048
G2 X6 Y102.189 I1.588 F3048
G1 X15.693 F3048
G2 X16.811 Y101.728 J-1.588 F3048
X16.351 Y102.847 I1.127 J1.119 F3048
G1 Y162.357 F3048
G2 X16.811 Y163.476 I1.587 F3048
X15.693 Y163.014 I-1.119 J1.126 F3048
G1 X6 F3048
G2 X4.412 Y164.602 J1.588 F3048
G1 Y189.62 F3048
( MOVEMENT_REDUCED)
Y190.255 F762
( MOVEMENT_FINISH_CUTTING)
Z-10.438 F3048
Y208.43 F3048
( MOVEMENT_PLUNGE)
Z-10.883 F339
( MOVEMENT_FINISH_CUTTING)
Y228.602 F3048
G2 X6 Y230.189 I1.588 F3048
G1 X15.693 F3048
G2 X16.811 Y229.728 J-1.587 F3048
X16.351 Y230.847 I1.127 J1.119 F3048
G1 Y259.204 F3048
G2 X17.938 Y260.792 I1.587 F3048
G1 X41.948 F3048
G2 X43.535 Y259.204 J-1.587 F3048
G1 Y249.511 F3048
G2 X43.075 Y248.392 I-1.587 F3048
X44.193 Y248.854 I1.119 J-1.126 F3048
G1 X89.703 F3048
G2 X90.821 Y248.392 J-1.587 F3048
X90.36 Y249.511 I1.127 J1.119 F3048
G1 Y259.204 F3048
G2 X91.948 Y260.792 I1.588 F3048
G1 X106.912 F3048
( MOVEMENT_REDUCED)
X107.548 F762
( MOVEMENT_FINISH_CUTTING)
Z-10.438 F3048
X125.723 F3048
( MOVEMENT_PLUNGE)
Z-10.883 F339
( MOVEMENT_FINISH_CUTTING)
X141.948 F3048
G2 X143.536 Y259.204 J-1.587 F3048
G1 Y249.511 F3048
G2 X143.079 Y248.397 I-1.588 F3048
X144.193 Y248.854 I1.114 J-1.131 F3048
G1 X189.703 F3048
G2 X190.817 Y248.397 J-1.587 F3048
X190.361 Y249.511 I1.131 J1.114 F3048
G1 Y259.204 F3048
G2 X191.948 Y260.792 I1.587 F3048
G1 X215.958 F3048
G2 X217.546 Y259.204 J-1.587 F3048
G1 Y230.847 F3048
G2 X217.089 Y229.733 I-1.588 F3048
X218.203 Y230.189 I1.114 J-1.131 F3048
G1 X227.896 F3048
G2 X229.484 Y228.602 J-1.587 F3048
G1 Y209.065 F3048
( MOVEMENT_REDUCED)
Y208.43 F762
( MOVEMENT_FINISH_CUTTING)
Z-10.438 F3048
Y190.255 F3048
( MOVEMENT_PLUNGE)
Z-10.883 F339
( MOVEMENT_FINISH_CUTTING)
Y164.602 F3048
G2 X227.896 Y163.014 I-1.588 F3048
G1 X218.203 F3048
G2 X217.089 Y163.471 J1.588 F3048
X217.546 Y162.357 I-1.131 J-1.114 F3048
G1 Y102.847 F3048
G2 X217.089 Y101.733 I-1.588 F3048
X218.203 Y102.189 I1.114 J-1.131 F3048
G1 X227.896 F3048
G2 X229.484 Y100.602 J-1.588 F3048
G1 Y79.067 F3048
( MOVEMENT_REDUCED)
Y78.432 F762
( MOVEMENT_FINISH_CUTTING)
Z-10.438 F3048
Y60.257 F3048
( MOVEMENT_PLUNGE)
Z-10.883 F339
( MOVEMENT_FINISH_CUTTING)
Y36.602 F3048
G2 X227.896 Y35.014 I-1.588 F3048
G1 X218.203 F3048
G2 X217.084 Y35.475 J1.588 F3048
X217.546 Y34.357 I-1.126 J-1.119 F3048
G1 Y6 F3048
G2 X215.958 Y4.412 I-1.588 F3048
G1 X191.948 F3048
G2 X190.361 Y6 J1.588 F3048
G1 Y15.693 F3048
G2 X190.822 Y16.811 I1.587 F3048
X189.703 Y16.351 I-1.119 J1.127 F3048
G1 X144.193 F3048
G2 X143.074 Y16.811 J1.587 F3048
X143.536 Y15.693 I-1.126 J-1.119 F3048
G1 Y6 F3048
G2 X141.948 Y4.412 I-1.588 F3048
G1 X127.596 F3048
( MOVEMENT_REDUCED)
X126.961 F762
( MOVEMENT_FINISH_CUTTING)
Z-10.438 F3048
X108.785 F3048
( MOVEMENT_PLUNGE)
Z-10.883 F339
( MOVEMENT_FINISH_CUTTING)
X91.948 F3048
G2 X90.36 Y6 J1.588 F3048
G1 Y15.693 F3048
G2 X90.826 Y16.815 I1.588 F3048
X89.703 Y16.351 I-1.123 J1.123 F3048
G1 X44.193 F3048
G2 X43.071 Y16.816 J1.587 F3048
X43.535 Y15.693 I-1.123 J-1.123 F3048
G1 Y6 F3048
G2 X41.948 Y4.412 I-1.587 F3048
G1 X17.938 F3048
G2 X16.351 Y6 J1.588 F3048
G1 Y34.357 F3048
G2 X16.816 Y35.479 I1.587 F3048
X15.693 Y35.014 I-1.123 J1.123 F3048
G1 X6 F3048
G2 X4.412 Y36.602 J1.588 F3048
G1 Y60.86 F3048
( MOVEMENT_REDUCED)
Y61.495 F762
( MOVEMENT_FINISH_CUTTING)
Z-10.438 F3048
Y63.387 F3048
( MOVEMENT_RAMP)
Y79.67 F3048
( MOVEMENT_PLUNGE)
Z-11.176 F339
( MOVEMENT_RAMP)
Y100.602 Z-11.553 F3048
X4.416 Y100.71 Z-11.555 F3048
X4.427 Y100.818 Z-11.557 F3048
X4.446 Y100.925 Z-11.559 F3048
X4.471 Y101.03 Z-11.561 F3048
X4.504 Y101.134 Z-11.563 F3048
X4.544 Y101.234 Z-11.565 F3048
X4.59 Y101.332 Z-11.567 F3048
X4.644 Y101.427 Z-11.569 F3048
X4.703 Y101.517 Z-11.571 F3048
X4.769 Y101.604 Z-11.573 F3048
X4.84 Y101.686 Z-11.575 F3048
X4.916 Y101.762 Z-11.576 F3048
X4.998 Y101.833 Z-11.578 F3048
X5.085 Y101.899 Z-11.58 F3048
X5.175 Y101.958 Z-11.582 F3048
X5.27 Y102.012 Z-11.584 F3048
X5.368 Y102.058 Z-11.586 F3048
X5.468 Y102.098 Z-11.588 F3048
X5.572 Y102.131 Z-11.59 F3048
X5.677 Y102.156 Z-11.592 F3048
X5.784 Y102.175 Z-11.594 F3048
X5.892 Y102.186 Z-11.596 F3048
X6 Y102.189 Z-11.598 F3048
X15.693 Z-11.772 F3048
X15.796 Y102.186 Z-11.774 F3048
X15.899 Y102.176 Z-11.776 F3048
X16.001 Y102.159 Z-11.778 F3048
X16.102 Y102.136 Z-11.78 F3048
X16.201 Y102.106 Z-11.782 F3048
X16.298 Y102.07 Z-11.784 F3048
X16.392 Y102.027 Z-11.785 F3048
X16.483 Y101.979 Z-11.787 F3048
X16.571 Y101.924 Z-11.789 F3048
X16.656 Y101.864 Z-11.791 F3048
X16.736 Y101.799 Z-11.793 F3048
X16.811 Y101.728 Z-11.795 F3048
X16.741 Y101.804 Z-11.797 F3048
X16.676 Y101.884 Z-11.798 F3048
X16.616 Y101.969 Z-11.8 F3048
X16.561 Y102.057 Z-11.802 F3048
X16.513 Y102.148 Z-11.804 F3048
X16.47 Y102.242 Z-11.806 F3048
X16.434 Y102.339 Z-11.808 F3048
X16.404 Y102.438 Z-11.81 F3048
X16.381 Y102.539 Z-11.812 F3048
X16.364 Y102.641 Z-11.813 F3048
X16.354 Y102.744 Z-11.815 F3048
X16.351 Y102.847 Z-11.817 F3048
Y137.343 Z-12.438 F3048
( MOVEMENT_FINISH_CUTTING)
Y162.357 F3048
G2 X16.811 Y163.476 I1.587 F3048
X15.693 Y163.014 I-1.119 J1.126 F3048
G1 X6 F3048
G2 X4.412 Y164.602 J1.588 F3048
G1 Y189.62 F3048
( MOVEMENT_REDUCED)
Y190.255 F762
( MOVEMENT_FINISH_CUTTING)
Z-10.438 F3048
Y208.43 F3048
( MOVEMENT_PLUNGE)
Z-12.438 F339
( MOVEMENT_FINISH_CUTTING)
Y228.602 F3048
G2 X6 Y230.189 I1.588 F3048
G1 X15.693 F3048
G2 X16.811 Y229.728 J-1.587 F3048
X16.351 Y230.847 I1.127 J1.119 F3048
G1 Y259.204 F3048
G2 X17.938 Y260.792 I1.587 F3048
G1 X41.948 F3048
G2 X43.535 Y259.204 J-1.587 F3048
G1 Y249.511 F3048
G2 X43.075 Y248.392 I-1.587 F3048
X44.193 Y248.854 I1.119 J-1.126 F3048
G1 X89.703 F3048
G2 X90.821 Y248.392 J-1.587 F3048
X90.36 Y249.511 I1.127 J1.119 F3048
G1 Y259.204 F3048
G2 X91.948 Y260.792 I1.588 F3048
G1 X106.912 F3048
( MOVEMENT_REDUCED)
X107.548 F762
( MOVEMENT_FINISH_CUTTING)
Z-10.438 F3048
X125.723 F3048
( MOVEMENT_PLUNGE)
Z-12.438 F339
( MOVEMENT_FINISH_CUTTING)
X141.948 F3048
G2 X143.536 Y259.204 J-1.587 F3048
G1 Y249.511 F3048
G2 X143.079 Y248.397 I-1.588 F3048
X144.193 Y248.854 I1.114 J-1.131 F3048
G1 X189.703 F3048
G2 X190.817 Y248.397 J-1.587 F3048
X190.361 Y249.511 I1.131 J1.114 F3048
G1 Y259.204 F3048
G2 X191.948 Y260.792 I1.587 F3048
G1 X215.958 F3048
G2 X217.546 Y259.204 J-1.587 F3048
G1 Y230.847 F3048
G2 X217.089 Y229.733 I-1.588 F3048
X218.203 Y230.189 I1.114 J-1.131 F3048
G1 X227.896 F3048
G2 X229.484 Y228.602 J-1.587 F3048
G1 Y209.065 F3048
( MOVEMENT_REDUCED)
Y208.43 F762
( MOVEMENT_FINISH_CUTTING)
Z-10.438 F3048
Y190.255 F3048
( MOVEMENT_PLUNGE)
Z-12.438 F339
( MOVEMENT_FINISH_CUTTING)
Y164.602 F3048
G2 X227.896 Y163.014 I-1.588 F3048
G1 X218.203 F3048
G2 X217.089 Y163.471 J1.588 F3048
X217.546 Y162.357 I-1.131 J-1.114 F3048
G1 Y102.847 F3048
G2 X217.089 Y101.733 I-1.588 F3048
X218.203 Y102.189 I1.114 J-1.131 F3048
G1 X227.896 F3048
G2 X229.484 Y100.602 J-1.588 F3048
G1 Y79.067 F3048
( MOVEMENT_REDUCED)
Y78.432 F762
( MOVEMENT_FINISH_CUTTING)
Z-10.438 F3048
Y60.257 F3048
( MOVEMENT_PLUNGE)
Z-12.438 F339
( MOVEMENT_FINISH_CUTTING)
Y36.602 F3048
G2 X227.896 Y35.014 I-1.588 F3048
G1 X218.203 F3048
G2 X217.084 Y35.475 J1.588 F3048
X217.546 Y34.357 I-1.126 J-1.119 F3048
G1 Y6 F3048
G2 X215.958 Y4.412 I-1.588 F3048
G1 X191.948 F3048
G2 X190.361 Y6 J1.588 F3048
G1 Y15.693 F3048
G2 X190.822 Y16.811 I1.587 F3048
X189.703 Y16.351 I-1.119 J1.127 F3048
G1 X144.193 F3048
G2 X143.074 Y16.811 J1.587 F3048
X143.536 Y15.693 I-1.126 J-1.119 F3048
G1 Y6 F3048
G2 X141.948 Y4.412 I-1.588 F3048
G1 X127.596 F3048
( MOVEMENT_REDUCED)
X126.961 F762
( MOVEMENT_FINISH_CUTTING)
Z-10.438 F3048
X108.785 F3048
( MOVEMENT_PLUNGE)
Z-12.438 F339
( MOVEMENT_FINISH_CUTTING)
X91.948 F3048
G2 X90.36 Y6 J1.588 F3048
G1 Y15.693 F3048
G2 X90.826 Y16.815 I1.588 F3048
X89.703 Y16.351 I-1.123 J1.123 F3048
G1 X44.193 F3048
G2 X43.071 Y16.816 J1.587 F3048
X43.535 Y15.693 I-1.123 J-1.123 F3048
G1 Y6 F3048
G2 X41.948 Y4.412 I-1.587 F3048
G1 X17.938 F3048
G2 X16.351 Y6 J1.588 F3048
G1 Y34.357 F3048
G2 X16.816 Y35.479 I1.587 F3048
X15.693 Y35.014 I-1.123 J1.123 F3048
G1 X6 F3048
G2 X4.412 Y36.602 J1.588 F3048
G1 Y60.86 F3048
( MOVEMENT_REDUCED)
Y61.495 F762
( MOVEMENT_FINISH_CUTTING)
Z-10.438 F3048
Y79.67 F3048
( MOVEMENT_PLUNGE)
Z-12.438 F339
( MOVEMENT_FINISH_CUTTING)
Y100.602 F3048
G2 X6 Y102.189 I1.588 F3048
G1 X15.693 F3048
G2 X16.811 Y101.728 J-1.588 F3048
X16.351 Y102.847 I1.127 J1.119 F3048
G1 Y162.357 F3048
G2 X16.811 Y163.476 I1.587 F3048
X15.693 Y163.014 I-1.119 J1.126 F3048
G1 X6 F3048
G2 X4.412 Y164.602 J1.588 F3048
G1 Y189.62 F3048
( MOVEMENT_REDUCED)
Y190.255 F762
( MOVEMENT_FINISH_CUTTING)
Z-10.438 F3048
Y208.43 F3048
( MOVEMENT_PLUNGE)
Z-12.438 F339
( MOVEMENT_FINISH_CUTTING)
Y228.602 F3048
G2 X6 Y230.189 I1.588 F3048
G1 X15.693 F3048
G2 X16.811 Y229.728 J-1.587 F3048
X16.351 Y230.847 I1.127 J1.119 F3048
G1 Y259.204 F3048
G2 X17.938 Y260.792 I1.587 F3048
G1 X41.948 F3048
G2 X43.535 Y259.204 J-1.587 F3048
G1 Y249.511 F3048
G2 X43.075 Y248.392 I-1.587 F3048
X44.193 Y248.854 I1.119 J-1.126 F3048
G1 X89.703 F3048
G2 X90.821 Y248.392 J-1.587 F3048
X90.36 Y249.511 I1.127 J1.119 F3048
G1 Y259.204 F3048
G2 X91.948 Y260.792 I1.588 F3048
G1 X106.912 F3048
( MOVEMENT_REDUCED)
X107.548 F762
( MOVEMENT_FINISH_CUTTING)
Z-10.438 F3048
X125.723 F3048
( MOVEMENT_PLUNGE)
Z-12.438 F339
( MOVEMENT_FINISH_CUTTING)
X141.948 F3048
G2 X143.536 Y259.204 J-1.587 F3048
G1 Y249.511 F3048
G2 X143.079 Y248.397 I-1.588 F3048
X144.193 Y248.854 I1.114 J-1.131 F3048
G1 X189.703 F3048
G2 X190.817 Y248.397 J-1.587 F3048
X190.361 Y249.511 I1.131 J1.114 F3048
G1 Y259.204 F3048
G2 X191.948 Y260.792 I1.587 F3048
G1 X215.958 F3048
G2 X217.546 Y259.204 J-1.587 F3048
G1 Y230.847 F3048
G2 X217.089 Y229.733 I-1.588 F3048
X218.203 Y230.189 I1.114 J-1.131 F3048
G1 X227.896 F3048
G2 X229.484 Y228.602 J-1.587 F3048
G1 Y209.065 F3048
( MOVEMENT_REDUCED)
Y208.43 F762
( MOVEMENT_FINISH_CUTTING)
Z-10.438 F3048
Y190.255 F3048
( MOVEMENT_PLUNGE)
Z-12.438 F339
( MOVEMENT_FINISH_CUTTING)
Y164.602 F3048
G2 X227.896 Y163.014 I-1.588 F3048
G1 X218.203 F3048
G2 X217.089 Y163.471 J1.588 F3048
X217.546 Y162.357 I-1.131 J-1.114 F3048
G1 Y102.847 F3048
G2 X217.089 Y101.733 I-1.588 F3048
X218.203 Y102.189 I1.114 J-1.131 F3048
G1 X227.896 F3048
G2 X229.484 Y100.602 J-1.588 F3048
G1 Y79.067 F3048
( MOVEMENT_REDUCED)
Y78.432 F762
( MOVEMENT_FINISH_CUTTING)
Z-10.438 F3048
Y60.257 F3048
( MOVEMENT_PLUNGE)
Z-12.438 F339
( MOVEMENT_FINISH_CUTTING)
Y36.602 F3048
G2 X227.896 Y35.014 I-1.588 F3048
G1 X218.203 F3048
G2 X217.084 Y35.475 J1.588 F3048
X217.546 Y34.357 I-1.126 J-1.119 F3048
G1 Y6 F3048
G2 X215.958 Y4.412 I-1.588 F3048
G1 X191.948 F3048
G2 X190.361 Y6 J1.588 F3048
G1 Y15.693 F3048
G2 X190.822 Y16.811 I1.587 F3048
X189.703 Y16.351 I-1.119 J1.127 F3048
G1 X144.193 F3048
G2 X143.074 Y16.811 J1.587 F3048
X143.536 Y15.693 I-1.126 J-1.119 F3048
G1 Y6 F3048
G2 X141.948 Y4.412 I-1.588 F3048
G1 X127.596 F3048
( MOVEMENT_REDUCED)
X126.961 F762
( MOVEMENT_FINISH_CUTTING)
Z-10.438 F3048
X108.785 F3048
( MOVEMENT_PLUNGE)
Z-12.438 F339
( MOVEMENT_FINISH_CUTTING)
X91.948 F3048
G2 X90.36 Y6 J1.588 F3048
G1 Y15.693 F3048
G2 X90.826 Y16.815 I1.588 F3048
X89.703 Y16.351 I-1.123 J1.123 F3048
G1 X44.193 F3048
G2 X43.071 Y16.816 J1.587 F3048
X43.535 Y15.693 I-1.123 J-1.123 F3048
G1 Y6 F3048
G2 X41.948 Y4.412 I-1.587 F3048
G1 X17.938 F3048
G2 X16.351 Y6 J1.588 F3048
G1 Y34.357 F3048
G2 X16.816 Y35.479 I1.587 F3048
X15.693 Y35.014 I-1.123 J1.123 F3048
G1 X6 F3048
G2 X4.412 Y36.602 J1.588 F3048
G1 Y60.86 F3048
( MOVEMENT_REDUCED)
Y61.495 F762
( MOVEMENT_FINISH_CUTTING)
Z-10.438 F3048
Y79.67 F3048
( MOVEMENT_PLUNGE)
Z-12.438 F339
( MOVEMENT_FINISH_CUTTING)
Y100.602 F3048
G2 X6 Y102.189 I1.588 F3048
G1 X15.693 F3048
G2 X16.811 Y101.728 J-1.588 F3048
X16.351 Y102.847 I1.127 J1.119 F3048
G1 Y137.343 F3048
( MOVEMENT_CUTTING)
( Safe G1 --> G0)
G0 Z3 F300
( *** SECTION end ***)
()
( *** STOP begin ***)
( --- Start custom gcode C:\Users\Kevin\Documents\Fusion 360\NC Programs\end.gcode)
% spindle relays off
M63 P1
% LED Off
M63 P0
%%
